;FLAVOR:Marlin
;TIME:334
;Filament used: 0.184639m
;Layer height: 0.2
;MINX:19.7
;MINY:19.7
;MINZ:0.2
;MAXX:215.3
;MAXY:215.3
;MAXZ:0.2
;TARGET_MACHINE.NAME:Creality Ender-3
;Generated with Cura_SteamEngine 5.11.0
M140 S60
M105
M190 S60
M104 S200
M105
M109 S200
; Ender 3 Custom Start G-code
G92 E0 ; Reset Extruder
G28 ; Home all axes
G1 Z2.0 F3000 ; Move Z Axis up little to prevent scratching of Heat Bed
G1 X0.1 Y20 Z0.3 F5000.0 ; Move to start position
G1 X0.1 Y200.0 Z0.3 F1500.0 E15 ; Draw the first line
G1 X0.4 Y200.0 Z0.3 F5000.0 ; Move to side a little
G1 X0.4 Y20 Z0.3 F1500.0 E30 ; Draw the second line
G92 E0 ; Reset Extruder
G1 Z2.0 F3000 ; Move Z Axis up little to prevent scratching of Heat Bed
G1 X5 Y20 Z0.3 F5000.0 ; Move over to prevent blob squish
M82 ;absolute extrusion mode
G92 E0
G92 E0
G1 F2700 E-5
;LAYER_COUNT:1
;LAYER:0
M107
;MESH:Bed_Level_Test.stl
G0 F6000 X39.9 Y39.9 Z0.2
;TYPE:WALL-INNER
G1 F2700 E0
G1 F1200 X39.9 Y20.1 E0.65855
G1 X20.1 Y20.1 E1.3171
G1 X20.1 Y39.9 E1.97565
G1 X39.9 Y39.9 E2.6342
G1 F2700 E-2.3658
G0 F6000 X41.165 Y40.076
G0 X107.424 Y106.335
G0 X117.5 Y127.4
G1 F2700 E2.6342
G1 F1200 X127.4 Y127.4 E2.96348
G1 X127.4 Y107.6 E3.62203
G1 X107.6 Y107.6 E4.28058
G1 X107.6 Y127.4 E4.93913
G1 X117.5 Y127.4 E5.26841
G1 F2700 E0.26841
G0 F6000 X107.424 Y127.576
G0 X106.335 Y127.576
G0 X40.076 Y193.835
G0 X39.9 Y214.9
G1 F2700 E5.26841
G1 F1200 X39.9 Y195.1 E5.92696
G1 X20.1 Y195.1 E6.58551
G1 X20.1 Y214.9 E7.24406
G1 X39.9 Y214.9 E7.90261
G1 F2700 E2.90261
G0 F6000 X41.165 Y214.9
G0 X193.835 Y214.9
G0 X195.1 Y214.9
G1 F2700 E7.90261
G1 F1200 X214.9 Y214.9 E8.56116
G1 X214.9 Y195.1 E9.21971
G1 X195.1 Y195.1 E9.87826
G1 X195.1 Y214.9 E10.53681
G1 F2700 E5.53681
G0 F6000 X195.1 Y194.93
G0 X195.1 Y40.07
G0 X195.1 Y39.9
G1 F2700 E10.53681
G1 F1200 X214.9 Y39.9 E11.19536
G1 X214.9 Y20.1 E11.85391
G1 X195.1 Y20.1 E12.51246
G1 X195.1 Y39.9 E13.17101
G0 F6000 X194.7 Y40.3
;TYPE:WALL-OUTER
G1 F1200 X215.3 Y40.3 E13.85617
G1 X215.3 Y19.7 E14.54133
G1 X194.7 Y19.7 E15.22649
G1 X194.7 Y40.3 E15.91165
G1 F2700 E10.91165
G0 F6000 X194.98 Y40.02
G0 X193.835 Y40.076
G0 X127.576 Y106.335
G0 X117.5 Y127.8
G1 F2700 E15.91165
G1 F1200 X127.8 Y127.8 E16.25423
G1 X127.8 Y107.2 E16.93939
G1 X107.2 Y107.2 E17.62455
G1 X107.2 Y127.8 E18.3097
G1 X117.5 Y127.8 E18.65228
G1 F2700 E13.65228
G0 F6000 X117.5 Y127.49
G0 X127.576 Y127.576
G0 X128.665 Y127.576
G0 X194.924 Y193.835
G0 X194.7 Y215.3
G1 F2700 E18.65228
G1 F1200 X215.3 Y215.3 E19.33744
G1 X215.3 Y194.7 E20.0226
G1 X194.7 Y194.7 E20.70776
G1 X194.7 Y215.3 E21.39292
G1 F2700 E16.39292
G0 F6000 X194.98 Y215.02
G0 X193.835 Y215.02
G0 X41.165 Y215.02
G0 X40.3 Y215.3
G1 F2700 E21.39292
G1 F1200 X40.3 Y194.7 E22.07808
G1 X19.7 Y194.7 E22.76324
G1 X19.7 Y215.3 E23.4484
G1 X40.3 Y215.3 E24.13355
G1 F2700 E19.13355
G0 F6000 X40.02 Y215.02
G0 X40.02 Y194.93
G0 X40.02 Y40.07
G0 X40.3 Y40.3
G1 F2700 E24.13355
G1 F1200 X40.3 Y19.7 E24.81871
G1 X19.7 Y19.7 E25.50387
G1 X19.7 Y40.3 E26.18903
G1 X40.3 Y40.3 E26.87419
G0 F6000 X40.02 Y40.02
G0 X39.8 Y39.54
G0 X39.54 Y39.54
;TYPE:SKIN
G1 F1200 X20.46 Y39.54 E27.50879
G1 X20.46 Y20.46 E28.1434
G1 X39.54 Y20.46 E28.778
G1 X39.54 Y39.54 E29.4126
G0 F6000 X39.8 Y39.54
G0 X39.728 Y20.272
G0 X38.762 Y20.2
G0 X38.762 Y20.66
G1 F1200 X39.34 Y21.238 E29.43979
G0 F6000 X39.34 Y21.804
G1 F1200 X38.196 Y20.66 E29.4936
G0 F6000 X37.631 Y20.66
G1 F1200 X39.34 Y22.369 E29.57399
G0 F6000 X39.34 Y22.935
G1 F1200 X37.065 Y20.66 E29.681
G0 F6000 X36.499 Y20.66
G1 F1200 X39.34 Y23.501 E29.81463
G0 F6000 X39.34 Y24.066
G1 F1200 X35.934 Y20.66 E29.97484
G0 F6000 X35.368 Y20.66
G1 F1200 X39.34 Y24.632 E30.16167
G0 F6000 X39.34 Y25.198
G1 F1200 X34.802 Y20.66 E30.37512
G0 F6000 X34.237 Y20.66
G1 F1200 X39.34 Y25.763 E30.61515
G0 F6000 X39.34 Y26.329
G1 F1200 X33.671 Y20.66 E30.8818
G0 F6000 X33.105 Y20.66
G1 F1200 X39.34 Y26.895 E31.17508
G0 F6000 X39.34 Y27.46
G1 F1200 X32.54 Y20.66 E31.49493
G0 F6000 X31.974 Y20.66
G1 F1200 X39.34 Y28.026 E31.8414
G0 F6000 X39.34 Y28.592
G1 F1200 X31.408 Y20.66 E32.2145
G0 F6000 X30.843 Y20.66
G1 F1200 X39.34 Y29.158 E32.6142
G0 F6000 X39.34 Y29.723
G1 F1200 X30.277 Y20.66 E33.04049
G0 F6000 X29.711 Y20.66
G1 F1200 X39.34 Y30.289 E33.49341
G0 F6000 X39.34 Y30.855
G1 F1200 X29.146 Y20.66 E33.97293
G0 F6000 X28.58 Y20.66
G1 F1200 X39.34 Y31.42 E34.47904
G0 F6000 X39.34 Y31.986
G1 F1200 X28.014 Y20.66 E35.01179
G0 F6000 X27.448 Y20.66
G1 F1200 X39.34 Y32.552 E35.57115
G0 F6000 X39.34 Y33.117
G1 F1200 X26.883 Y20.66 E36.15709
G0 F6000 X26.317 Y20.66
G1 F1200 X39.34 Y33.683 E36.76965
G0 F6000 X39.34 Y34.249
G1 F1200 X25.751 Y20.66 E37.40883
G0 F6000 X25.186 Y20.66
G1 F1200 X39.34 Y34.814 E38.0746
G0 F6000 X39.34 Y35.38
G1 F1200 X24.62 Y20.66 E38.76698
G0 F6000 X24.054 Y20.66
G1 F1200 X39.34 Y35.946 E39.48599
G0 F6000 X39.34 Y36.511
G1 F1200 X23.489 Y20.66 E40.23157
G0 F6000 X22.923 Y20.66
G1 F1200 X39.34 Y37.077 E41.00377
G0 F6000 X39.34 Y37.643
G1 F1200 X22.357 Y20.66 E41.8026
G0 F6000 X21.792 Y20.66
G1 F1200 X39.34 Y38.209 E42.62803
G0 F6000 X39.34 Y38.774
G1 F1200 X21.226 Y20.66 E43.48006
G0 F6000 X20.66 Y20.66
G1 F1200 X39.34 Y39.34 E44.35871
G0 F6000 X38.774 Y39.34
G1 F1200 X20.66 Y21.225 E45.21076
G0 F6000 X20.66 Y21.791
G1 F1200 X38.209 Y39.34 E46.03621
G0 F6000 X37.643 Y39.34
G1 F1200 X20.66 Y22.357 E46.83504
G0 F6000 X20.66 Y22.922
G1 F1200 X37.077 Y39.34 E47.60726
G0 F6000 X36.511 Y39.34
G1 F1200 X20.66 Y23.488 E48.35287
G0 F6000 X20.66 Y24.054
G1 F1200 X35.946 Y39.34 E49.07188
G0 F6000 X35.38 Y39.34
G1 F1200 X20.66 Y24.619 E49.76428
G0 F6000 X20.66 Y25.185
G1 F1200 X34.814 Y39.34 E50.43007
G0 F6000 X34.249 Y39.34
G1 F1200 X20.66 Y25.751 E51.06925
G0 F6000 X20.66 Y26.316
G1 F1200 X33.683 Y39.34 E51.68184
G0 F6000 X33.117 Y39.34
G1 F1200 X20.66 Y26.882 E52.2678
G0 F6000 X20.66 Y27.448
G1 F1200 X32.552 Y39.34 E52.82717
G0 F6000 X31.986 Y39.34
G1 F1200 X20.66 Y28.013 E53.35993
G0 F6000 X20.66 Y28.579
G1 F1200 X31.42 Y39.34 E53.86607
G0 F6000 X30.855 Y39.34
G1 F1200 X20.66 Y29.145 E54.34561
G0 F6000 X20.66 Y29.711
G1 F1200 X30.289 Y39.34 E54.79853
G0 F6000 X29.723 Y39.34
G1 F1200 X20.66 Y30.276 E55.22485
G0 F6000 X20.66 Y30.842
G1 F1200 X29.158 Y39.34 E55.62457
G0 F6000 X28.592 Y39.34
G1 F1200 X20.66 Y31.408 E55.99767
G0 F6000 X20.66 Y31.973
G1 F1200 X28.026 Y39.34 E56.34416
G0 F6000 X27.46 Y39.34
G1 F1200 X20.66 Y32.539 E56.66404
G0 F6000 X20.66 Y33.105
G1 F1200 X26.895 Y39.34 E56.95731
G0 F6000 X26.329 Y39.34
G1 F1200 X20.66 Y33.67 E57.22399
G0 F6000 X20.66 Y34.236
G1 F1200 X25.763 Y39.34 E57.46404
G0 F6000 X25.198 Y39.34
G1 F1200 X20.66 Y34.802 E57.6775
G0 F6000 X20.66 Y35.367
G1 F1200 X24.632 Y39.34 E57.86435
G0 F6000 X24.066 Y39.34
G1 F1200 X20.66 Y35.933 E58.02458
G0 F6000 X20.66 Y36.499
G1 F1200 X23.501 Y39.34 E58.15821
G0 F6000 X22.935 Y39.34
G1 F1200 X20.66 Y37.064 E58.26525
G0 F6000 X20.66 Y37.63
G1 F1200 X22.369 Y39.34 E58.34566
G0 F6000 X21.804 Y39.34
G1 F1200 X20.66 Y38.196 E58.39947
G0 F6000 X20.66 Y38.761
G1 F1200 X21.238 Y39.34 E58.42668
G1 F2700 E53.42668
G0 F6000 X21.238 Y39.8
G0 X40.076 Y40.076
G0 X41.165 Y40.076
G0 X107.424 Y106.335
G0 X117.5 Y127.04
G1 F2700 E58.42668
G1 F1200 X107.96 Y127.04 E58.74398
G1 X107.96 Y107.96 E59.37858
G1 X127.04 Y107.96 E60.01319
G1 X127.04 Y127.04 E60.64779
G1 X117.5 Y127.04 E60.96509
G0 F6000 X117.5 Y127.3
G0 X107.772 Y127.228
G0 X107.7 Y126.262
G0 X108.16 Y126.262
G1 F1200 X108.738 Y126.84 E60.99228
G0 F6000 X109.304 Y126.84
G1 F1200 X108.16 Y125.696 E61.04609
G0 F6000 X108.16 Y125.13
G1 F1200 X109.87 Y126.84 E61.12652
G0 F6000 X110.435 Y126.84
G1 F1200 X108.16 Y124.565 E61.23353
G0 F6000 X108.16 Y123.999
G1 F1200 X111.001 Y126.84 E61.36716
G0 F6000 X111.567 Y126.84
G1 F1200 X108.16 Y123.433 E61.52742
G0 F6000 X108.16 Y122.868
G1 F1200 X112.132 Y126.84 E61.71425
G0 F6000 X112.698 Y126.84
G1 F1200 X108.16 Y122.302 E61.9277
G0 F6000 X108.16 Y121.736
G1 F1200 X113.264 Y126.84 E62.16778
G0 F6000 X113.829 Y126.84
G1 F1200 X108.16 Y121.171 E62.43443
G0 F6000 X108.16 Y120.605
G1 F1200 X114.395 Y126.84 E62.72771
G0 F6000 X114.961 Y126.84
G1 F1200 X108.16 Y120.039 E63.0476
G0 F6000 X108.16 Y119.473
G1 F1200 X115.526 Y126.84 E63.3941
G0 F6000 X116.092 Y126.84
G1 F1200 X108.16 Y118.908 E63.7672
G0 F6000 X108.16 Y118.342
G1 F1200 X116.658 Y126.84 E64.16692
G0 F6000 X117.223 Y126.84
G1 F1200 X108.16 Y117.776 E64.59324
G0 F6000 X108.16 Y117.211
G1 F1200 X117.789 Y126.84 E65.04616
G0 F6000 X118.355 Y126.84
G1 F1200 X108.16 Y116.645 E65.5257
G0 F6000 X108.16 Y116.079
G1 F1200 X118.921 Y126.84 E66.03186
G0 F6000 X119.486 Y126.84
G1 F1200 X108.16 Y115.514 E66.5646
G0 F6000 X108.16 Y114.948
G1 F1200 X120.052 Y126.84 E67.12397
G0 F6000 X120.618 Y126.84
G1 F1200 X108.16 Y114.382 E67.70995
G0 F6000 X108.16 Y113.817
G1 F1200 X121.183 Y126.84 E68.32251
G0 F6000 X121.749 Y126.84
G1 F1200 X108.16 Y113.251 E68.9617
G0 F6000 X108.16 Y112.685
G1 F1200 X122.315 Y126.84 E69.62751
G0 F6000 X122.88 Y126.84
G1 F1200 X108.16 Y112.12 E70.31989
G0 F6000 X108.16 Y111.554
G1 F1200 X123.446 Y126.84 E71.0389
G0 F6000 X124.012 Y126.84
G1 F1200 X108.16 Y110.988 E71.78453
G0 F6000 X108.16 Y110.423
G1 F1200 X124.577 Y126.84 E72.55673
G0 F6000 X125.143 Y126.84
G1 F1200 X108.16 Y109.857 E73.35556
G0 F6000 X108.16 Y109.291
G1 F1200 X125.709 Y126.84 E74.18101
G0 F6000 X126.274 Y126.84
G1 F1200 X108.16 Y108.725 E75.03306
G0 F6000 X108.16 Y108.16
G1 F1200 X126.84 Y126.84 E75.91171
G0 F6000 X126.84 Y126.274
G1 F1200 X108.725 Y108.16 E76.76376
G0 F6000 X109.291 Y108.16
G1 F1200 X126.84 Y125.709 E77.58921
G0 F6000 X126.84 Y125.143
G1 F1200 X109.857 Y108.16 E78.38804
G0 F6000 X110.423 Y108.16
G1 F1200 X126.84 Y124.577 E79.16025
G0 F6000 X126.84 Y124.012
G1 F1200 X110.988 Y108.16 E79.90588
G0 F6000 X111.554 Y108.16
G1 F1200 X126.84 Y123.446 E80.62488
G0 F6000 X126.84 Y122.88
G1 F1200 X112.12 Y108.16 E81.31727
G0 F6000 X112.685 Y108.16
G1 F1200 X126.84 Y122.315 E81.98307
G0 F6000 X126.84 Y121.749
G1 F1200 X113.251 Y108.16 E82.62226
G0 F6000 X113.817 Y108.16
G1 F1200 X126.84 Y121.183 E83.23482
G0 F6000 X126.84 Y120.618
G1 F1200 X114.382 Y108.16 E83.82081
G0 F6000 X114.948 Y108.16
G1 F1200 X126.84 Y120.052 E84.38017
G0 F6000 X126.84 Y119.486
G1 F1200 X115.514 Y108.16 E84.91291
G0 F6000 X116.079 Y108.16
G1 F1200 X126.84 Y118.921 E85.41908
G0 F6000 X126.84 Y118.355
G1 F1200 X116.645 Y108.16 E85.89862
G0 F6000 X117.211 Y108.16
G1 F1200 X126.84 Y117.789 E86.35154
G0 F6000 X126.84 Y117.223
G1 F1200 X117.776 Y108.16 E86.77785
G0 F6000 X118.342 Y108.16
G1 F1200 X126.84 Y116.658 E87.17757
G0 F6000 X126.84 Y116.092
G1 F1200 X118.908 Y108.16 E87.55067
G0 F6000 X119.473 Y108.16
G1 F1200 X126.84 Y115.526 E87.89717
G0 F6000 X126.84 Y114.961
G1 F1200 X120.039 Y108.16 E88.21707
G0 F6000 X120.605 Y108.16
G1 F1200 X126.84 Y114.395 E88.51034
G0 F6000 X126.84 Y113.829
G1 F1200 X121.171 Y108.16 E88.77699
G0 F6000 X121.736 Y108.16
G1 F1200 X126.84 Y113.264 E89.01707
G0 F6000 X126.84 Y112.698
G1 F1200 X122.302 Y108.16 E89.23052
G0 F6000 X122.868 Y108.16
G1 F1200 X126.84 Y112.132 E89.41736
G0 F6000 X126.84 Y111.567
G1 F1200 X123.433 Y108.16 E89.57761
G0 F6000 X123.999 Y108.16
G1 F1200 X126.84 Y111.001 E89.71124
G0 F6000 X126.84 Y110.435
G1 F1200 X124.565 Y108.16 E89.81825
G0 F6000 X125.13 Y108.16
G1 F1200 X126.84 Y109.87 E89.89868
G0 F6000 X126.84 Y109.304
G1 F1200 X125.696 Y108.16 E89.95249
G0 F6000 X126.262 Y108.16
G1 F1200 X126.84 Y108.738 E89.97968
G1 F2700 E84.97968
G0 F6000 X127.3 Y108.738
G0 X127.228 Y127.228
G0 X107.424 Y127.576
G0 X106.335 Y127.576
G0 X40.076 Y193.835
G0 X39.54 Y214.54
G1 F2700 E89.97968
G1 F1200 X20.46 Y214.54 E90.61429
G1 X20.46 Y195.46 E91.24889
G1 X39.54 Y195.46 E91.88349
G1 X39.54 Y214.54 E92.5181
G0 F6000 X39.8 Y214.54
G0 X39.728 Y195.272
G0 X38.965 Y195.2
G0 X38.965 Y195.66
G1 F1200 X39.34 Y196.035 E92.53573
G0 F6000 X39.34 Y196.6
G1 F1200 X38.399 Y195.66 E92.57997
G0 F6000 X37.834 Y195.66
G1 F1200 X39.34 Y197.166 E92.65081
G0 F6000 X39.34 Y197.732
G1 F1200 X37.268 Y195.66 E92.74827
G0 F6000 X36.702 Y195.66
G1 F1200 X39.34 Y198.297 E92.87233
G0 F6000 X39.34 Y198.863
G1 F1200 X36.137 Y195.66 E93.02299
G0 F6000 X35.571 Y195.66
G1 F1200 X39.34 Y199.429 E93.20027
G0 F6000 X39.34 Y199.995
G1 F1200 X35.005 Y195.66 E93.40418
G0 F6000 X34.44 Y195.66
G1 F1200 X39.34 Y200.56 E93.63466
G0 F6000 X39.34 Y201.126
G1 F1200 X33.874 Y195.66 E93.89176
G0 F6000 X33.308 Y195.66
G1 F1200 X39.34 Y201.692 E94.17549
G0 F6000 X39.34 Y202.257
G1 F1200 X32.743 Y195.66 E94.48579
G0 F6000 X32.177 Y195.66
G1 F1200 X39.34 Y202.823 E94.82272
G0 F6000 X39.34 Y203.389
G1 F1200 X31.611 Y195.66 E95.18627
G0 F6000 X31.046 Y195.66
G1 F1200 X39.34 Y203.954 E95.57639
G0 F6000 X39.34 Y204.52
G1 F1200 X30.48 Y195.66 E95.99314
G0 F6000 X29.914 Y195.66
G1 F1200 X39.34 Y205.086 E96.43651
G0 F6000 X39.34 Y205.651
G1 F1200 X29.348 Y195.66 E96.90648
G0 F6000 X28.783 Y195.66
G1 F1200 X39.34 Y206.217 E97.40305
G0 F6000 X39.34 Y206.783
G1 F1200 X28.217 Y195.66 E97.92624
G0 F6000 X27.651 Y195.66
G1 F1200 X39.34 Y207.348 E98.47603
G0 F6000 X39.34 Y207.914
G1 F1200 X27.086 Y195.66 E99.05242
G0 F6000 X26.52 Y195.66
G1 F1200 X39.34 Y208.48 E99.65543
G0 F6000 X39.34 Y209.046
G1 F1200 X25.954 Y195.66 E100.28507
G0 F6000 X25.389 Y195.66
G1 F1200 X39.34 Y209.611 E100.94128
G0 F6000 X39.34 Y210.177
G1 F1200 X24.823 Y195.66 E101.62412
G0 F6000 X24.257 Y195.66
G1 F1200 X39.34 Y210.743 E102.33357
G0 F6000 X39.34 Y211.308
G1 F1200 X23.692 Y195.66 E103.06961
G0 F6000 X23.126 Y195.66
G1 F1200 X39.34 Y211.874 E103.83227
G0 F6000 X39.34 Y212.44
G1 F1200 X22.56 Y195.66 E104.62155
G0 F6000 X21.995 Y195.66
G1 F1200 X39.34 Y213.005 E105.4374
G0 F6000 X39.34 Y213.571
G1 F1200 X21.429 Y195.66 E106.27988
G0 F6000 X20.863 Y195.66
G1 F1200 X39.34 Y214.137 E107.14898
G0 F6000 X38.977 Y214.34
G1 F1200 X20.66 Y196.022 E108.01058
G0 F6000 X20.66 Y196.588
G1 F1200 X38.411 Y214.34 E108.84556
G0 F6000 X37.846 Y214.34
G1 F1200 X20.66 Y197.153 E109.65396
G0 F6000 X20.66 Y197.719
G1 F1200 X37.28 Y214.34 E110.43573
G0 F6000 X36.714 Y214.34
G1 F1200 X20.66 Y198.285 E111.19089
G0 F6000 X20.66 Y198.85
G1 F1200 X36.149 Y214.34 E111.91947
G0 F6000 X35.583 Y214.34
G1 F1200 X20.66 Y199.416 E112.62142
G0 F6000 X20.66 Y199.982
G1 F1200 X35.017 Y214.34 E113.29676
G0 F6000 X34.452 Y214.34
G1 F1200 X20.66 Y200.548 E113.94549
G0 F6000 X20.66 Y201.113
G1 F1200 X33.886 Y214.34 E114.56762
G0 F6000 X33.32 Y214.34
G1 F1200 X20.66 Y201.679 E115.16313
G0 F6000 X20.66 Y202.245
G1 F1200 X32.755 Y214.34 E115.73205
G0 F6000 X32.189 Y214.34
G1 F1200 X20.66 Y202.81 E116.27436
G0 F6000 X20.66 Y203.376
G1 F1200 X31.623 Y214.34 E116.79005
G0 F6000 X31.058 Y214.34
G1 F1200 X20.66 Y203.942 E117.27914
G0 F6000 X20.66 Y204.507
G1 F1200 X30.492 Y214.34 E117.74163
G0 F6000 X29.926 Y214.34
G1 F1200 X20.66 Y205.073 E118.1775
G0 F6000 X20.66 Y205.639
G1 F1200 X29.36 Y214.34 E118.58674
G0 F6000 X28.795 Y214.34
G1 F1200 X20.66 Y206.204 E118.96941
G0 F6000 X20.66 Y206.77
G1 F1200 X28.229 Y214.34 E119.32546
G0 F6000 X27.663 Y214.34
G1 F1200 X20.66 Y207.336 E119.65488
G0 F6000 X20.66 Y207.901
G1 F1200 X27.098 Y214.34 E119.95773
G0 F6000 X26.532 Y214.34
G1 F1200 X20.66 Y208.467 E120.23395
G0 F6000 X20.66 Y209.033
G1 F1200 X25.966 Y214.34 E120.48355
G0 F6000 X25.401 Y214.34
G1 F1200 X20.66 Y209.598 E120.70658
G0 F6000 X20.66 Y210.164
G1 F1200 X24.835 Y214.34 E120.90298
G0 F6000 X24.269 Y214.34
G1 F1200 X20.66 Y210.73 E121.07276
G0 F6000 X20.66 Y211.296
G1 F1200 X23.704 Y214.34 E121.21594
G0 F6000 X23.138 Y214.34
G1 F1200 X20.66 Y211.861 E121.33252
G0 F6000 X20.66 Y212.427
G1 F1200 X22.572 Y214.34 E121.42248
G0 F6000 X22.007 Y214.34
G1 F1200 X20.66 Y212.993 E121.48584
G0 F6000 X20.66 Y213.558
G1 F1200 X21.441 Y214.34 E121.5226
G0 F6000 X20.875 Y214.34
G1 F1200 X20.66 Y214.124 E121.53273
G1 F2700 E116.53273
G0 F6000 X20.2 Y214.124
G0 X20.272 Y214.728
G0 X39.728 Y214.728
G0 X40.07 Y214.54
G0 X41.165 Y214.54
G0 X193.835 Y214.54
G0 X195.46 Y214.54
G1 F2700 E121.53273
G1 F1200 X195.46 Y195.46 E122.16734
G1 X214.54 Y195.46 E122.80194
G1 X214.54 Y214.54 E123.43654
G1 X195.46 Y214.54 E124.07115
G0 F6000 X195.66 Y213.762
