;FLAVOR:Marlin
;TIME:2111
;Filament used: 1.11818m
;Layer height: 0.12
;MINX:105.372
;MINY:77.124
;MINZ:0.2
;MAXX:129.624
;MAXY:157.872
;MAXZ:7.64
;TARGET_MACHINE.NAME:Creality Ender-3
;Generated with Cura_SteamEngine 5.11.0
M140 S70
M105
M190 S70
M104 S240
M105
M109 S240
; Ender 3 Custom Start G-code
G92 E0 ; Reset Extruder
G28 ; Home all axes
G1 Z2.0 F3000 ; Move Z Axis up little to prevent scratching of Heat Bed
G1 X0.1 Y20 Z0.3 F5000.0 ; Move to start position
G1 X0.1 Y200.0 Z0.3 F1500.0 E15 ; Draw the first line
G1 X0.4 Y200.0 Z0.3 F5000.0 ; Move to side a little
G1 X0.4 Y20 Z0.3 F1500.0 E30 ; Draw the second line
G92 E0 ; Reset Extruder
G1 Z2.0 F3000 ; Move Z Axis up little to prevent scratching of Heat Bed
G1 X5 Y20 Z0.3 F5000.0 ; Move over to prevent blob squish
M82 ;absolute extrusion mode
G92 E0
G92 E0
G1 F2700 E-5
;LAYER_COUNT:63
;LAYER:0
M107
;MESH:Top.stl
G0 F6000 X117.5 Y129.424 Z0.2
;TYPE:WALL-INNER
G1 F2700 E0
G1 F1200 X113.473 Y129.423 E0.13394
G1 X112.996 Y129.397 E0.14983
G1 X112.48 Y129.264 E0.16755
G1 X112.14 Y129.134 E0.17966
G1 X111.892 Y129.006 E0.18894
G1 X111.588 Y128.814 E0.2009
G1 X111.267 Y128.557 E0.21458
G1 X111.059 Y128.345 E0.22445
G1 X110.726 Y127.934 E0.24205
G1 X110.48 Y127.462 E0.25975
G1 X110.357 Y127.136 E0.27134
G1 X110.266 Y126.791 E0.28321
G1 X110.216 Y126.445 E0.29483
G1 X110.2 Y126.149 E0.30469
G1 X110.2 Y124.103 E0.37274
G1 X110.223 Y123.618 E0.38889
G1 X110.359 Y123.111 E0.40635
G1 X110.459 Y122.835 E0.41612
G1 X110.645 Y122.464 E0.42992
G1 X110.843 Y122.165 E0.44185
G1 X111.067 Y121.891 E0.45362
G1 X111.275 Y121.687 E0.46331
G1 X111.683 Y121.352 E0.48087
G1 X112.154 Y121.11 E0.49848
G1 X112.494 Y120.979 E0.5106
G1 X112.821 Y120.896 E0.52182
G1 X113.176 Y120.84 E0.53377
G1 X113.476 Y120.824 E0.54376
G1 X121.517 Y120.824 E0.81121
G1 X121.998 Y120.847 E0.82722
G1 X122.516 Y120.984 E0.84505
G1 X122.852 Y121.113 E0.85702
G1 X123.154 Y121.269 E0.86832
G1 X123.406 Y121.429 E0.87825
G1 X123.733 Y121.691 E0.89219
G1 X123.937 Y121.899 E0.90188
G1 X124.274 Y122.31 E0.91955
G1 X124.49 Y122.728 E0.9352
G1 X124.62 Y123.055 E0.94691
G1 X124.715 Y123.382 E0.95823
G1 X124.776 Y123.733 E0.97008
G1 X124.8 Y124.134 E0.98344
G1 X124.796 Y126.145 E1.05033
G1 X124.768 Y126.636 E1.06669
G1 X124.636 Y127.14 E1.08402
G1 X124.536 Y127.412 E1.09365
G1 X124.387 Y127.722 E1.10509
G1 X124.15 Y128.088 E1.1196
G1 X123.933 Y128.349 E1.13089
G1 X123.679 Y128.598 E1.14272
G1 X123.312 Y128.896 E1.15844
G1 X122.838 Y129.14 E1.17617
G1 X122.512 Y129.263 E1.18776
G1 X122.236 Y129.339 E1.19728
G1 X121.82 Y129.408 E1.21131
G1 X121.52 Y129.424 E1.2213
G1 X117.5 Y129.424 E1.35501
G1 F2700 E-3.64499
G0 F6000 X117.5 Y155.888
G0 X117.5 Y156.088
G1 F2700 E1.35501
G1 F1200 X127.836 Y156.088 E1.69878
G1 X127.836 Y78.908 E4.2658
G1 X107.161 Y78.905 E4.95345
G1 X107.153 Y156.088 E7.52057
G1 X117.5 Y156.088 E7.86471
G0 F6000 X117.5 Y156.488
;TYPE:WALL-OUTER
G1 F1200 X127.806 Y156.488 E8.20749
G1 X128.012 Y156.443 E8.2145
G1 X128.157 Y156.309 E8.22107
G1 X128.236 Y156.126 E8.2277
G1 X128.236 Y78.87 E10.79725
G1 X128.157 Y78.687 E10.80388
G1 X128.012 Y78.556 E10.81038
G1 X127.805 Y78.508 E10.81744
G1 X107.134 Y78.505 E11.50496
G1 X106.884 Y78.632 E11.51429
G1 X106.807 Y78.74 E11.5187
G1 X106.761 Y78.947 E11.52575
G1 X106.753 Y156.11 E14.09221
G1 X106.8 Y156.246 E14.09699
G1 X106.99 Y156.442 E14.10607
G1 X107.198 Y156.488 E14.11316
G1 X117.5 Y156.488 E14.4558
G1 F2700 E9.4558
G0 F6000 X117.5 Y156.179
G0 X117.499 Y155.888
G0 X117.499 Y129.603
G0 X117.5 Y129.024
G1 F2700 E14.4558
G1 F1200 X113.496 Y129.024 E14.58898
G1 X113.039 Y128.995 E14.60421
G1 X112.639 Y128.895 E14.61792
G1 X112.324 Y128.778 E14.6291
G1 X112.06 Y128.641 E14.63899
G1 X111.787 Y128.465 E14.64979
G1 X111.553 Y128.277 E14.65978
G1 X111.345 Y128.065 E14.66965
G1 X111.055 Y127.699 E14.68518
G1 X110.853 Y127.317 E14.69956
G1 X110.749 Y127.049 E14.70912
G1 X110.662 Y126.735 E14.71996
G1 X110.616 Y126.423 E14.73044
G1 X110.6 Y126.116 E14.74067
G1 X110.6 Y124.132 E14.80666
G1 X110.626 Y123.661 E14.82235
G1 X110.735 Y123.247 E14.83659
G1 X110.835 Y122.971 E14.84635
G1 X110.98 Y122.682 E14.8571
G1 X111.155 Y122.415 E14.86772
G1 X111.347 Y122.177 E14.87789
G1 X111.569 Y121.96 E14.88822
G1 X111.923 Y121.678 E14.90327
G1 X112.283 Y121.49 E14.91678
G1 X112.596 Y121.366 E14.92798
G1 X112.887 Y121.29 E14.93798
G1 X113.175 Y121.242 E14.94769
G1 X113.508 Y121.224 E14.95878
G1 X121.498 Y121.224 E15.22453
G1 X121.959 Y121.25 E15.23989
G1 X122.378 Y121.36 E15.2543
G1 X122.671 Y121.469 E15.26469
G1 X122.923 Y121.597 E15.2741
G1 X123.209 Y121.779 E15.28537
G1 X123.447 Y121.971 E15.29554
G1 X123.664 Y122.193 E15.30587
G1 X123.924 Y122.513 E15.31958
G1 X124.143 Y122.931 E15.33528
G1 X124.247 Y123.199 E15.34484
G1 X124.334 Y123.511 E15.35561
G1 X124.382 Y123.799 E15.36532
G1 X124.4 Y124.133 E15.37645
G1 X124.396 Y126.126 E15.44273
G1 X124.374 Y126.567 E15.45742
G1 X124.26 Y127.002 E15.47238
G1 X124.152 Y127.293 E15.4827
G1 X124.016 Y127.566 E15.49284
G1 X123.84 Y127.835 E15.50354
G1 X123.664 Y128.051 E15.5128
G1 X123.427 Y128.288 E15.52395
G1 X123.073 Y128.57 E15.539
G1 X122.693 Y128.767 E15.55324
G1 X122.425 Y128.871 E15.5628
G1 X122.109 Y128.958 E15.5737
G1 X121.821 Y129.006 E15.58341
G1 X121.488 Y129.024 E15.59451
G1 X117.5 Y129.024 E15.72715
G1 F2700 E10.72715
G0 F6000 X117.499 Y129.334
G0 X117.5 Y129.603
G0 X117.5 Y155.888
G0 X117.5 Y155.728
;TYPE:SKIN
G1 F2700 E15.72715
G1 F1200 X107.513 Y155.728 E16.05932
G1 X107.52 Y79.265 E18.60249
G1 X127.476 Y79.268 E19.26623
G1 X127.476 Y155.728 E21.8093
G1 X117.5 Y155.728 E22.1411
G1 F2700 E17.1411
G0 F6000 X117.5 Y155.988
G0 X117.5 Y129.603
G0 X117.5 Y129.78
G1 F2700 E22.1411
G1 F1200 X121.532 Y129.78 E22.2752
G1 X121.95 Y129.754 E22.28913
G1 X122.23 Y129.706 E22.29858
G1 X122.623 Y129.604 E22.31209
G1 X122.984 Y129.467 E22.32493
G1 X123.492 Y129.207 E22.34391
G1 X123.96 Y128.827 E22.36396
G1 X124.247 Y128.537 E22.37753
G1 X124.424 Y128.318 E22.3869
G1 X124.65 Y127.984 E22.40031
G1 X124.864 Y127.553 E22.41631
G1 X124.997 Y127.188 E22.42923
G1 X125.122 Y126.695 E22.44615
G1 X125.156 Y126.169 E22.46368
G1 X125.16 Y124.141 E22.53113
G1 X125.138 Y123.755 E22.54399
G1 X125.042 Y123.175 E22.56355
G1 X124.852 Y122.661 E22.58177
G1 X124.579 Y122.117 E22.60202
G1 X124.194 Y121.642 E22.62235
G1 X123.99 Y121.438 E22.63195
G1 X123.613 Y121.135 E22.64804
G1 X123.283 Y120.926 E22.66103
G1 X122.999 Y120.784 E22.67159
G1 X122.575 Y120.624 E22.68666
G1 X122.07 Y120.494 E22.704
G1 X121.526 Y120.464 E22.72213
G1 X113.464 Y120.464 E22.99027
G1 X113.051 Y120.49 E23.00403
G1 X112.759 Y120.538 E23.01387
G1 X112.377 Y120.636 E23.02699
G1 X112.029 Y120.768 E23.03937
G1 X111.505 Y121.033 E23.0589
G1 X111.028 Y121.421 E23.07935
G1 X110.815 Y121.629 E23.08925
G1 X110.503 Y122.015 E23.10576
G1 X110.343 Y122.263 E23.11558
G1 X110.12 Y122.71 E23.13219
G1 X110.014 Y123 E23.14246
G1 X109.87 Y123.54 E23.16105
G1 X109.84 Y124.1 E23.1797
G1 X109.84 Y126.168 E23.24848
G1 X109.856 Y126.448 E23.25781
G1 X109.91 Y126.863 E23.27173
G1 X110.038 Y127.327 E23.28774
G1 X110.142 Y127.587 E23.29706
G1 X110.436 Y128.151 E23.31821
G1 X110.788 Y128.583 E23.33674
G1 X111.005 Y128.805 E23.34707
G1 X111.313 Y129.059 E23.36035
G1 X111.639 Y129.272 E23.3733
G1 X112.001 Y129.464 E23.38693
G1 X112.429 Y129.624 E23.40213
G1 X112.922 Y129.75 E23.41905
G1 X113.442 Y129.78 E23.43637
G1 X117.5 Y129.78 E23.57134
G1 F2700 E18.57134
G0 F6000 X117.5 Y129.523
G0 X113.462 Y129.604
G0 X113.462 Y155.888
G0 X108.01 Y155.527
G1 F2700 E23.57134
G1 F1200 X107.713 Y155.23 E23.58531
G0 F6000 X107.713 Y154.665
G1 F1200 X108.576 Y155.527 E23.62588
G0 F6000 X109.141 Y155.527
G1 F1200 X107.713 Y154.099 E23.69305
G0 F6000 X107.713 Y153.533
G1 F1200 X109.707 Y155.527 E23.78684
G0 F6000 X110.273 Y155.527
G1 F1200 X107.713 Y152.968 E23.90723
G0 F6000 X107.713 Y152.402
G1 F1200 X110.838 Y155.527 E24.05422
G0 F6000 X111.404 Y155.527
G1 F1200 X107.713 Y151.836 E24.22784
G0 F6000 X107.713 Y151.271
G1 F1200 X111.97 Y155.527 E24.42805
G0 F6000 X112.535 Y155.527
G1 F1200 X107.713 Y150.705 E24.65486
G0 F6000 X107.713 Y150.139
G1 F1200 X113.101 Y155.527 E24.9083
G0 F6000 X113.667 Y155.527
G1 F1200 X107.713 Y149.574 E25.18833
G0 F6000 X107.713 Y149.008
G1 F1200 X114.232 Y155.527 E25.49497
G0 F6000 X114.798 Y155.527
G1 F1200 X107.713 Y148.442 E25.82822
G0 F6000 X107.714 Y147.877
G1 F1200 X115.364 Y155.527 E26.18806
G0 F6000 X115.929 Y155.527
G1 F1200 X107.714 Y147.312 E26.57446
G0 F6000 X107.714 Y146.746
G1 F1200 X116.495 Y155.527 E26.9875
G0 F6000 X117.061 Y155.527
G1 F1200 X107.714 Y146.18 E27.42715
G0 F6000 X107.714 Y145.614
G1 F1200 X117.627 Y155.527 E27.89343
G0 F6000 X118.192 Y155.527
G1 F1200 X107.714 Y145.049 E28.38628
G0 F6000 X107.714 Y144.483
G1 F1200 X118.758 Y155.527 E28.90576
G0 F6000 X119.324 Y155.527
G1 F1200 X107.714 Y143.917 E29.45185
G0 F6000 X107.714 Y143.352
G1 F1200 X119.889 Y155.527 E30.02453
G0 F6000 X120.455 Y155.527
G1 F1200 X107.714 Y142.786 E30.62383
G0 F6000 X107.714 Y142.22
G1 F1200 X121.021 Y155.527 E31.24975
G0 F6000 X121.586 Y155.527
G1 F1200 X107.714 Y141.655 E31.90224
G0 F6000 X107.714 Y141.089
G1 F1200 X122.152 Y155.527 E32.58136
G0 F6000 X122.718 Y155.527
G1 F1200 X107.714 Y140.523 E33.2871
G0 F6000 X107.714 Y139.958
G1 F1200 X123.283 Y155.527 E34.01942
G0 F6000 X123.849 Y155.527
G1 F1200 X107.714 Y139.393 E34.77834
G0 F6000 X107.714 Y138.827
G1 F1200 X124.415 Y155.527 E35.56388
G0 F6000 X124.98 Y155.527
G1 F1200 X107.714 Y138.261 E36.37602
G0 F6000 X107.714 Y137.696
G1 F1200 X125.546 Y155.527 E37.21476
G0 F6000 X126.112 Y155.527
G1 F1200 X107.714 Y137.13 E38.08012
G0 F6000 X107.714 Y136.564
G1 F1200 X126.677 Y155.527 E38.97208
G0 F6000 X127.243 Y155.527
G1 F1200 X107.714 Y135.999 E39.89064
G0 F6000 X107.714 Y135.433
G1 F1200 X127.276 Y154.995 E40.81078
G0 F6000 X127.276 Y154.429
G1 F1200 X107.714 Y134.867 E41.73092
G0 F6000 X107.714 Y134.301
G1 F1200 X127.276 Y153.864 E42.65108
G0 F6000 X127.276 Y153.298
G1 F1200 X107.714 Y133.736 E43.57121
G0 F6000 X107.714 Y133.17
G1 F1200 X127.276 Y152.732 E44.49135
G0 F6000 X127.276 Y152.167
G1 F1200 X107.715 Y132.605 E45.41146
G0 F6000 X107.715 Y132.039
G1 F1200 X127.276 Y151.601 E46.33158
G0 F6000 X127.276 Y151.035
G1 F1200 X107.715 Y131.474 E47.25166
G0 F6000 X107.715 Y130.908
G1 F1200 X127.276 Y150.469 E48.17175
G0 F6000 X127.276 Y149.904
G1 F1200 X107.715 Y130.342 E49.09187
G0 F6000 X107.715 Y129.777
G1 F1200 X127.276 Y149.338 E50.01196
G0 F6000 X127.276 Y148.772
G1 F1200 X107.715 Y129.211 E50.93205
G0 F6000 X107.715 Y128.645
G1 F1200 X127.276 Y148.207 E51.85216
G0 F6000 X127.276 Y147.641
G1 F1200 X107.715 Y128.08 E52.77225
G0 F6000 X107.715 Y127.514
G1 F1200 X127.276 Y147.075 E53.69234
G0 F6000 X127.276 Y146.51
G1 F1200 X107.715 Y126.948 E54.61245
G0 F6000 X107.715 Y126.383
G1 F1200 X127.276 Y145.944 E55.53254
G0 F6000 X127.276 Y145.378
G1 F1200 X107.715 Y125.817 E56.45263
G0 F6000 X107.715 Y125.251
G1 F1200 X109.848 Y127.385 E56.55298
G0 F6000 X109.681 Y126.651
G1 F1200 X107.716 Y124.686 E56.64541
G0 F6000 X107.716 Y124.121
G1 F1200 X109.64 Y126.045 E56.73591
G0 F6000 X109.64 Y125.479
G1 F1200 X107.716 Y123.555 E56.82641
G0 F6000 X107.716 Y122.989
G1 F1200 X109.64 Y124.913 E56.91691
G0 F6000 X109.64 Y124.348
G1 F1200 X107.716 Y122.424 E57.00741
G0 F6000 X107.716 Y121.858
G1 F1200 X109.654 Y123.796 E57.09856
G0 F6000 X109.727 Y123.304
G1 F1200 X107.716 Y121.292 E57.19318
G0 F6000 X107.716 Y120.726
G1 F1200 X109.851 Y122.862 E57.29363
G0 F6000 X110.02 Y122.465
G1 F1200 X107.716 Y120.161 E57.402
G0 F6000 X107.716 Y119.595
G1 F1200 X110.215 Y122.095 E57.51957
G0 F6000 X110.449 Y121.763
G1 F1200 X107.716 Y119.029 E57.64814
G0 F6000 X107.716 Y118.464
G1 F1200 X110.707 Y121.455 E57.78883
G0 F6000 X111.001 Y121.183
G1 F1200 X107.716 Y117.898 E57.94335
G0 F6000 X107.716 Y117.333
G1 F1200 X111.311 Y120.927 E58.11242
G0 F6000 X111.673 Y120.724
G1 F1200 X107.716 Y116.767 E58.29855
G0 F6000 X107.716 Y116.202
G1 F1200 X112.057 Y120.543 E58.50273
G0 F6000 X112.484 Y120.403
G1 F1200 X107.716 Y115.636 E58.72698
G0 F6000 X107.716 Y115.07
G1 F1200 X112.951 Y120.305 E58.97322
G0 F6000 X113.476 Y120.264
G1 F1200 X107.716 Y114.505 E59.24413
G0 F6000 X107.716 Y113.939
G1 F1200 X114.041 Y120.264 E59.54164
G0 F6000 X114.607 Y120.264
G1 F1200 X107.716 Y113.373 E59.86577
G0 F6000 X107.716 Y112.808
G1 F1200 X115.173 Y120.264 E60.2165
G0 F6000 X115.739 Y120.264
G1 F1200 X107.716 Y112.242 E60.59386
G0 F6000 X107.716 Y111.676
G1 F1200 X116.304 Y120.264 E60.99781
G0 F6000 X116.87 Y120.264
G1 F1200 X107.716 Y111.111 E61.42836
G0 F6000 X107.716 Y110.545
G1 F1200 X117.436 Y120.264 E61.88554
G0 F6000 X118.001 Y120.264
G1 F1200 X107.716 Y109.979 E62.36931
G0 F6000 X107.717 Y109.414
G1 F1200 X118.567 Y120.264 E62.87966
G0 F6000 X119.133 Y120.264
G1 F1200 X107.717 Y108.848 E63.41664
G0 F6000 X107.717 Y108.283
G1 F1200 X119.698 Y120.264 E63.98019
G0 F6000 X120.264 Y120.264
G1 F1200 X107.717 Y107.717 E64.57036
G0 F6000 X107.717 Y107.151
G1 F1200 X120.83 Y120.264 E65.18715
G0 F6000 X121.395 Y120.264
G1 F1200 X107.717 Y106.586 E65.83052
G0 F6000 X107.717 Y106.02
G1 F1200 X121.982 Y120.285 E66.50151
G0 F6000 X122.732 Y120.469
G1 F1200 X107.717 Y105.454 E67.20777
G0 F6000 X107.717 Y104.889
G1 F1200 X124.084 Y121.255 E67.9776
G0 F6000 X124.381 Y121.553
G1 F1200 X127.276 Y124.448 E68.11377
G0 F6000 X127.276 Y125.014
G1 F1200 X125.15 Y122.887 E68.21379
G0 F6000 X125.316 Y123.619
G1 F1200 X127.276 Y125.579 E68.30598
G0 F6000 X127.276 Y126.145
G1 F1200 X125.359 Y124.228 E68.39615
G0 F6000 X125.359 Y124.793
G1 F1200 X127.276 Y126.711 E68.48635
G0 F6000 X127.276 Y127.276
G1 F1200 X125.357 Y125.357 E68.57661
G0 F6000 X125.356 Y125.922
G1 F1200 X127.276 Y127.842 E68.66692
G0 F6000 X127.276 Y128.408
G1 F1200 X125.336 Y126.467 E68.7582
G0 F6000 X125.26 Y126.957
G1 F1200 X127.276 Y128.973 E68.85302
G0 F6000 X127.276 Y129.539
G1 F1200 X125.133 Y127.396 E68.95382
G0 F6000 X124.966 Y127.795
G1 F1200 X127.276 Y130.105 E69.06248
G0 F6000 X127.276 Y130.671
G1 F1200 X124.77 Y128.164 E69.18038
G0 F6000 X124.536 Y128.496
G1 F1200 X127.276 Y131.236 E69.30926
G0 F6000 X127.276 Y131.802
G1 F1200 X124.27 Y128.796 E69.45065
G0 F6000 X123.979 Y129.07
G1 F1200 X127.276 Y132.368 E69.60576
G0 F6000 X127.276 Y132.933
G1 F1200 X123.669 Y129.326 E69.77542
G0 F6000 X123.305 Y129.528
G1 F1200 X127.276 Y133.499 E69.9622
G0 F6000 X127.276 Y134.065
G1 F1200 X122.917 Y129.705 E70.16726
G0 F6000 X122.492 Y129.846
G1 F1200 X127.276 Y134.63 E70.39228
G0 F6000 X127.276 Y135.196
G1 F1200 X122.023 Y129.943 E70.63937
G0 F6000 X121.495 Y129.98
G1 F1200 X127.276 Y135.762 E70.91131
G0 F6000 X127.276 Y136.327
G1 F1200 X120.929 Y129.98 E71.20986
G0 F6000 X120.364 Y129.98
G1 F1200 X127.276 Y136.893 E71.535
G0 F6000 X127.276 Y137.459
G1 F1200 X119.798 Y129.98 E71.88677
G0 F6000 X119.232 Y129.98
G1 F1200 X127.276 Y138.024 E72.26513
G0 F6000 X127.276 Y138.59
G1 F1200 X118.667 Y129.98 E72.67009
G0 F6000 X118.101 Y129.98
G1 F1200 X127.276 Y139.156 E73.10168
G0 F6000 X127.276 Y139.721
G1 F1200 X117.535 Y129.98 E73.55987
G0 F6000 X116.97 Y129.98
G1 F1200 X127.276 Y140.287 E74.04466
G0 F6000 X127.276 Y140.853
G1 F1200 X116.404 Y129.98 E74.55606
G0 F6000 X115.838 Y129.98
G1 F1200 X127.276 Y141.419 E75.0941
G0 F6000 X127.276 Y141.984
G1 F1200 X115.273 Y129.98 E75.6587
G0 F6000 X114.707 Y129.98
G1 F1200 X127.276 Y142.55 E76.24993
G0 F6000 X127.276 Y143.116
G1 F1200 X114.141 Y129.98 E76.86779
G0 F6000 X113.575 Y129.98
G1 F1200 X127.276 Y143.681 E77.51224
G0 F6000 X127.276 Y144.247
G1 F1200 X112.988 Y129.958 E78.18433
G0 F6000 X112.223 Y129.759
G1 F1200 X127.276 Y144.813 E78.8924
G0 F6000 X127.736 Y144.813
G0 X127.736 Y123.882
G0 X127.276 Y123.882
G1 F1200 X107.717 Y104.323 E79.81239
G0 F6000 X107.717 Y103.757
G1 F1200 X127.276 Y123.317 E80.73241
G0 F6000 X127.276 Y122.751
G1 F1200 X107.717 Y103.192 E81.65241
G0 F6000 X107.717 Y102.626
G1 F1200 X127.276 Y122.185 E82.5724
G0 F6000 X127.276 Y121.62
G1 F1200 X107.718 Y102.061 E83.49238
G0 F6000 X107.718 Y101.495
G1 F1200 X127.276 Y121.054 E84.41235
G0 F6000 X127.276 Y120.488
