;FLAVOR:Marlin
;TIME:4472
;Filament used: 2.68575m
;Layer height: 0.12
;MINX:76.261
;MINY:87.342
;MINZ:0.2
;MAXX:157.872
;MAXY:147.624
;MAXZ:8
;TARGET_MACHINE.NAME:Creality Ender-3
;Generated with Cura_SteamEngine 5.11.0
M140 S70
M105
M190 S70
M104 S240
M105
M109 S240
; Ender 3 Custom Start G-code
G92 E0 ; Reset Extruder
G28 ; Home all axes
G1 Z2.0 F3000 ; Move Z Axis up little to prevent scratching of Heat Bed
G1 X0.1 Y20 Z0.3 F5000.0 ; Move to start position
G1 X0.1 Y200.0 Z0.3 F1500.0 E15 ; Draw the first line
G1 X0.4 Y200.0 Z0.3 F5000.0 ; Move to side a little
G1 X0.4 Y20 Z0.3 F1500.0 E30 ; Draw the second line
G92 E0 ; Reset Extruder
G1 Z2.0 F3000 ; Move Z Axis up little to prevent scratching of Heat Bed
G1 X5 Y20 Z0.3 F5000.0 ; Move over to prevent blob squish
M82 ;absolute extrusion mode
G92 E0
G92 E0
G1 F2700 E-5
;LAYER_COUNT:66
;LAYER:0
M107
;MESH:Bottom.stl
G0 F6000 X147.427 Y94.603 Z0.2
;TYPE:WALL-INNER
G1 F2700 E0
G1 F1340.8 X147.519 Y94.6 E0.00274
G0 F6000 X147.399 Y94.98
;TYPE:WALL-OUTER
G1 F1200 X147.9 Y94.982 E0.0194
G1 X147.9 Y94.219 E0.04478
G1 X147.547 Y94.216 E0.05652
G1 X147.258 Y94.238 E0.06616
G1 X147.042 Y94.306 E0.07369
G1 X146.909 Y94.427 E0.07967
G1 X146.86 Y94.569 E0.08467
G1 X146.875 Y94.738 E0.09031
G1 X146.951 Y94.851 E0.09484
G1 X147.112 Y94.939 E0.10095
G1 X147.399 Y94.98 E0.11059
G1 F2700 E-4.88941
G0 F6000 X147.428 Y94.673
G0 X151.66 Y94.648
G0 X152.006 Y94.984
G1 F2700 E0.11059
G1 F1200 X151.671 Y94.938 E0.12183
G1 X151.514 Y94.854 E0.12776
G1 X151.429 Y94.706 E0.13343
G1 X151.428 Y94.515 E0.13979
G1 X151.519 Y94.359 E0.14579
G1 X151.687 Y94.262 E0.15225
G1 X151.941 Y94.212 E0.16086
G1 X152.392 Y94.207 E0.17586
G1 X152.392 Y94.984 E0.2017
G1 X152.006 Y94.984 E0.21454
G1 F2700 E-4.78546
G0 F6000 X152.016 Y94.675
G0 X151.66 Y94.575
G0 X149.691 Y94.008
G0 X145.199 Y93.475
;TYPE:WALL-INNER
G1 F2700 E0.21454
G1 F1215.2 X145.644 Y93.046 E0.23484
G1 X145.196 Y92.308 E0.2632
G1 X145.199 Y93.475 E0.30153
G1 F2700 E-4.69847
G0 F6000 X145.09 Y94.054
G0 X145.008 Y94.636
G0 X145.053 Y95.116
G0 X145.221 Y95.579
G0 X145.482 Y95.937
G0 X145.81 Y96.21
G0 X146.187 Y96.405
G0 X146.971 Y96.586
G0 X149.718 Y96.597
G0 X150.322 Y96.185
G0 X150.702 Y96.392
G0 X151.531 Y96.587
G0 X154.238 Y96.599
G0 X154.24 Y90.723
G0 X152.156 Y90.722
G0 X152.155 Y92.611
G0 X151.652 Y92.604
G0 X150.74 Y92.821
G0 X150.355 Y93.024
G0 X150.026 Y93.307
G0 X149.72 Y90.721
G0 X147.658 Y90.72
G0 X147.676 Y92.247
G0 X146.87 Y90.714
G0 X139.457 Y90.63
G0 X138.429 Y90.606
G0 X137.617 Y90.845
G0 X137.247 Y91.072
G0 X136.933 Y91.376
G0 X136.694 Y91.747
G0 X136.532 Y92.213
G0 X137.593 Y92.9
G0 X140.927 Y93.631
G0 X140.75 Y93.628
G1 F2700 E0.30153
G1 F1162.2 X140.75 Y93.137 E0.31839
G1 F1148.3 X140.925 Y92.777 E0.3323
G1 X140.792 Y92.701 E0.33762
G1 F1162.2 X140.733 Y92.598 E0.3417
G1 X140.36 Y92.978 E0.35999
G1 X140.216 Y93.073 E0.36591
G1 X140.521 Y93.315 E0.37928
G1 X140.75 Y93.628 E0.3926
G1 F2700 E-4.6074
G0 F6000 X140.39 Y93.431
G0 X137.655 Y92.98
G0 X136.749 Y94.932
G1 F2700 E0.3926
G1 F1126.8 X137.292 Y94.36 E0.42054
G1 X137.09 Y94.23 E0.42904
G1 X136.748 Y93.92 E0.4454
G1 X136.749 Y94.932 E0.48124
G1 F2700 E-4.51876
G0 F6000 X136.938 Y94.404
G0 X136.554 Y95.424
G0 X136.547 Y95.915
G0 X123.627 Y96.881
G1 F2700 E0.48124
G1 F1200 X123.057 Y96.813 E0.50034
G1 X122.516 Y96.641 E0.51922
G1 X122.14 Y96.481 E0.53281
G1 X121.911 Y96.326 E0.542
G1 X121.795 Y96.554 E0.55051
G1 X121.635 Y96.676 E0.55721
G1 X121.414 Y96.742 E0.56488
G1 X117.932 Y96.742 E0.68069
G1 X117.636 Y96.628 E0.69124
G1 X117.449 Y96.4 E0.70105
G1 X117.393 Y96.19 E0.70827
G1 X117.392 Y95.02 E0.74719
G1 X117.542 Y94.723 E0.75826
G1 X117.783 Y94.614 E0.76705
G1 X117.578 Y94.447 E0.77585
G1 X117.516 Y94.266 E0.78221
G1 X117.516 Y93.073 E0.82189
G1 X117.789 Y92.743 E0.83613
G1 X117.429 Y92.585 E0.84921
G1 X117.334 Y92.451 E0.85467
G1 X117.271 Y92.239 E0.86203
G1 X117.272 Y91.029 E0.90227
G1 X117.375 Y90.8 E0.91063
G1 X117.575 Y90.62 E0.91958
G1 X117.786 Y90.544 E0.92704
G1 X121.356 Y90.544 E1.04577
G1 X121.676 Y90.636 E1.05685
G1 X121.843 Y90.792 E1.06445
G1 X121.919 Y90.988 E1.07144
G1 X122.138 Y90.848 E1.08009
G1 X122.438 Y90.684 E1.09146
G1 X123.034 Y90.483 E1.11238
G1 X123.483 Y90.428 E1.12742
G1 X123.842 Y90.412 E1.13938
G1 X124.119 Y90.424 E1.1486
G1 X124.5 Y90.475 E1.16138
G1 X124.809 Y90.548 E1.17194
G1 X125.13 Y90.656 E1.18321
G1 X125.404 Y90.781 E1.19322
G1 X125.763 Y90.977 E1.20683
G1 X126.188 Y91.344 E1.2255
G1 X126.378 Y91.562 E1.23512
G1 X126.591 Y91.834 E1.24661
G1 X126.703 Y92.04 E1.25441
G1 X126.703 Y91.077 E1.28644
G1 X126.858 Y90.745 E1.29863
G1 X127.216 Y90.548 E1.31222
G1 X128.676 Y90.548 E1.36078
G1 X129.116 Y90.717 E1.37646
G1 X130.089 Y92.291 E1.438
G1 X130.08 Y91.153 E1.47585
G1 X130.17 Y90.831 E1.48697
G1 X130.275 Y90.704 E1.49245
G1 X130.595 Y90.548 E1.50429
G1 X131.976 Y90.552 E1.55023
G1 X132.172 Y90.644 E1.55743
G1 X132.25 Y90.786 E1.56282
G1 X132.328 Y90.644 E1.56821
G1 X132.648 Y90.552 E1.57928
G1 X136.136 Y90.552 E1.69529
G1 X136.511 Y90.683 E1.7085
G1 X136.687 Y90.912 E1.71811
G1 X136.737 Y91.397 E1.73433
G1 X136.881 Y91.213 E1.7421
G1 X137.157 Y90.948 E1.75482
G1 X137.55 Y90.707 E1.77016
G1 X137.963 Y90.547 E1.78489
G1 X138.388 Y90.457 E1.79934
G1 X138.89 Y90.424 E1.81607
G1 X139.173 Y90.443 E1.8255
G1 X139.522 Y90.488 E1.83721
G1 X139.8 Y90.557 E1.84673
G1 X140.184 Y90.672 E1.86007
G1 X140.607 Y90.897 E1.876
G1 X140.749 Y90.674 E1.8848
G1 X141.027 Y90.556 E1.89484
G1 X144.6 Y90.556 E2.01368
G1 X144.882 Y90.625 E2.02333
G1 X144.996 Y90.737 E2.02865
G1 X145.11 Y90.625 E2.03397
G1 X145.311 Y90.556 E2.04103
G1 X146.604 Y90.556 E2.08404
G1 X146.923 Y90.647 E2.09507
G1 X147.132 Y90.869 E2.10521
G1 X147.495 Y91.538 E2.13053
G1 X147.496 Y91.155 E2.14327
G1 X147.568 Y90.869 E2.15308
G1 X147.777 Y90.647 E2.16322
G1 X148.013 Y90.556 E2.17163
G1 X149.28 Y90.556 E2.21377
G1 X149.628 Y90.667 E2.22592
G1 X149.825 Y90.903 E2.23614
G1 X149.88 Y91.16 E2.24489
G1 X149.88 Y93.228 E2.31367
G1 X150.269 Y92.895 E2.3307
G1 X150.68 Y92.675 E2.3462
G1 X151.142 Y92.536 E2.36225
G1 X151.586 Y92.46 E2.37723
G1 X151.992 Y92.449 E2.39074
G1 X151.992 Y91.064 E2.43681
G1 X152.048 Y90.906 E2.44238
G1 X152.245 Y90.67 E2.45261
G1 X152.51 Y90.56 E2.46215
G1 X153.8 Y90.56 E2.50506
G1 X154.078 Y90.628 E2.51457
G1 X154.275 Y90.792 E2.5231
G1 X154.4 Y91.16 E2.53603
G1 X154.4 Y96.241 E2.70502
G1 X154.33 Y96.443 E2.71213
G1 X154.16 Y96.64 E2.72079
G1 X153.924 Y96.76 E2.72959
G1 X151.936 Y96.759 E2.79571
G1 X151.475 Y96.729 E2.81108
G1 X151.077 Y96.663 E2.8245
G1 X150.642 Y96.534 E2.83959
G1 X150.23 Y96.304 E2.85528
G1 X149.881 Y96.001 E2.87065
G1 X149.847 Y96.356 E2.88252
G1 X149.681 Y96.604 E2.89244
G1 X149.384 Y96.756 E2.90354
G1 X147.347 Y96.756 E2.97129
G1 X146.979 Y96.736 E2.98355
G1 X146.553 Y96.667 E2.9979
G1 X146.138 Y96.545 E3.01229
G1 X145.726 Y96.337 E3.02764
G1 X145.405 Y96.066 E3.04161
G1 X145.197 Y95.801 E3.05282
G1 X145.196 Y96.186 E3.06562
G1 X145.14 Y96.41 E3.0733
G1 X144.971 Y96.625 E3.0824
G1 X144.724 Y96.754 E3.09166
G1 X141.163 Y96.752 E3.2101
G1 X140.898 Y96.653 E3.21951
G1 X140.711 Y96.449 E3.22872
G1 X140.637 Y96.204 E3.23723
G1 X140.636 Y96.028 E3.24308
G1 X140.206 Y96.409 E3.26219
G1 X139.794 Y96.633 E3.27779
G1 X139.407 Y96.765 E3.29139
G1 X138.992 Y96.852 E3.30549
G1 X138.54 Y96.88 E3.32055
G1 X137.958 Y96.824 E3.34
G1 X137.48 Y96.692 E3.35649
G1 X137.008 Y96.477 E3.37374
G1 X136.705 Y96.266 E3.38603
G1 X136.65 Y96.463 E3.39283
G1 X136.408 Y96.688 E3.40382
G1 X136.212 Y96.748 E3.41064
G1 X132.711 Y96.749 E3.52708
G1 X132.448 Y96.655 E3.53637
G1 X132.312 Y96.427 E3.5452
G1 X132.176 Y96.655 E3.55403
G1 X131.915 Y96.752 E3.56329
G1 X130.388 Y96.743 E3.61408
G1 X130.127 Y96.64 E3.62341
G1 X129.96 Y96.463 E3.63151
G1 X129.064 Y95.005 E3.68842
G1 X129.072 Y96.144 E3.72631
G1 X128.984 Y96.463 E3.73731
G1 X128.817 Y96.64 E3.74541
G1 X128.556 Y96.743 E3.75474
G1 X127.176 Y96.746 E3.80064
G1 X126.948 Y96.635 E3.80907
G1 X126.751 Y96.393 E3.81945
G1 X126.701 Y96.197 E3.82618
G1 X126.7 Y95.282 E3.85661
G1 X126.58 Y95.49 E3.8646
G1 X126.216 Y95.939 E3.88382
G1 X125.873 Y96.217 E3.89851
G1 X125.533 Y96.455 E3.91231
G1 X125.065 Y96.661 E3.92932
G1 X124.732 Y96.762 E3.94089
G1 X124.405 Y96.832 E3.95202
G1 X124.094 Y96.868 E3.96243
G1 X123.627 Y96.881 E3.97797
G1 F2700 E-1.02203
G0 F6000 X123.055 Y96.913
G0 X121.814 Y96.062
G0 X121.773 Y95.104
G0 X121.957 Y94.659
G1 F2700 E3.97797
G1 F1200 X122.315 Y94.299 E3.99485
G1 X122.575 Y94.147 E4.00487
G1 X122.928 Y94.154 E4.01661
G1 X123.15 Y94.285 E4.02519
G1 X123.315 Y94.458 E4.03314
G1 X123.584 Y94.568 E4.04281
G1 X123.927 Y94.569 E4.05421
G1 X124.094 Y94.515 E4.06005
G1 X124.347 Y94.335 E4.07038
G1 X124.521 Y94.052 E4.08143
G1 X124.59 Y93.655 E4.09483
G1 X124.574 Y93.442 E4.10193
G1 X124.447 Y93.086 E4.11451
G1 X124.354 Y92.961 E4.11969
G1 X124.108 Y92.792 E4.12961
G1 X123.94 Y92.74 E4.13546
G1 X123.583 Y92.742 E4.14734
G1 X123.299 Y92.878 E4.15781
G1 X123.134 Y93.056 E4.16588
G1 X122.915 Y93.193 E4.17448
G1 X122.562 Y93.21 E4.18623
G1 X122.3 Y93.065 E4.19619
G1 X121.956 Y92.741 E4.21191
G1 X121.957 Y94.659 E4.2757
G1 F2700 E-0.7243
G0 F6000 X122.746 Y94.104
G0 X122.996 Y94.359
G0 X124.458 Y94.443
G0 X113.868 Y96.592
G0 X113.779 Y96.742
G1 F2700 E4.2757
G1 F1200 X112.629 Y96.741 E4.31395
G1 X112.434 Y96.707 E4.32053
G1 X112.183 Y96.539 E4.33058
G1 X112.032 Y96.217 E4.34241
G1 X112.036 Y91.139 E4.5113
G1 X112.082 Y90.908 E4.51914
G1 X112.277 Y90.658 E4.52968
G1 X112.551 Y90.54 E4.5396
G1 X113.822 Y90.544 E4.58188
G1 X114.115 Y90.621 E4.59195
G1 X114.313 Y90.801 E4.60085
G1 X114.416 Y91.07 E4.61043
G1 X114.42 Y93.611 E4.69495
G1 X114.842 Y93.502 E4.70945
G1 X115.077 Y93.591 E4.7178
G1 X115.238 Y93.742 E4.72514
G1 X115.88 Y94.629 E4.76156
G1 X115.962 Y94.873 E4.77012
G1 X115.956 Y95.04 E4.77568
G1 X115.755 Y95.392 E4.78916
G1 X114.028 Y96.66 E4.86042
G1 X113.779 Y96.742 E4.86914
G1 F2700 E-0.13086
G0 F6000 X113.795 Y109.636
G0 X117.5 Y109.836
G1 F2700 E4.86914
G1 F1200 X156.088 Y109.836 E6.15259
G1 X156.088 Y89.16 E6.84027
G1 X78.908 Y89.16 E9.40729
G1 X78.913 Y109.836 E10.09498
G1 X117.5 Y109.836 E11.37839
G1 F2700 E6.37839
G0 F6000 X86.118 Y109.636
G0 X86.118 Y111.104
G0 X78.855 Y111.103
G0 X78.323 Y110.988
G0 X77.873 Y110.572
G0 X77.648 Y110.06
G0 X77.647 Y88.938
G0 X77.874 Y88.427
G0 X78.323 Y88.012
G0 X78.754 Y87.918
G0 X86.131 Y87.896
G0 X86.118 Y94.271
G1 F2700 E11.37839
G1 F1200 X85.128 Y94.267 E11.41131
G1 X84.909 Y94.191 E11.41902
G1 X84.65 Y93.877 E11.43256
G1 X84.391 Y94.191 E11.4461
G1 X84.142 Y94.27 E11.45479
G1 X80.924 Y94.272 E11.56182
G1 X80.693 Y94.226 E11.56965
G1 X80.443 Y94.032 E11.58018
G1 X80.324 Y93.755 E11.59021
G1 X80.324 Y93.156 E11.61013
G1 X80.399 Y92.864 E11.62016
G1 X80.578 Y92.665 E11.62906
G1 X80.924 Y92.556 E11.64112
G1 X81.028 Y92.556 E11.64458
G1 X81.028 Y91.172 E11.69061
G1 X81.101 Y90.885 E11.70046
G1 X81.3 Y90.669 E11.71023
G1 X81.547 Y90.572 E11.71906
G1 X82.232 Y90.572 E11.74184
G1 X82.451 Y90.613 E11.74925
G1 X82.602 Y90.698 E11.75502
G1 X82.724 Y90.95 E11.76433
G1 X82.846 Y90.698 E11.77364
G1 X83.144 Y90.572 E11.7844
G1 X83.804 Y90.572 E11.80635
G1 X84.056 Y90.627 E11.81493
G1 X84.128 Y90.706 E11.81849
G1 X84.2 Y90.627 E11.82204
G1 X84.452 Y90.572 E11.83062
G1 X84.969 Y90.572 E11.84782
G1 X85.122 Y90.624 E11.85319
G1 X85.19 Y90.698 E11.85653
G1 X85.258 Y90.624 E11.85988
G1 X85.43 Y90.572 E11.86585
G1 X86.072 Y90.572 E11.8872
G1 X86.433 Y90.691 E11.89985
G1 X86.626 Y90.941 E11.91035
G1 X86.672 Y91.172 E11.91819
G1 X86.666 Y93.762 E12.00433
G1 X86.605 Y93.95 E12.0109
G1 X86.495 Y94.099 E12.01706
G1 X86.28 Y94.236 E12.02554
G1 X86.118 Y94.271 E12.03106
G0 F6000 X86.106 Y93.87
;TYPE:WALL-OUTER
G1 F1200 X85.132 Y93.87 E12.06345
G1 X85.023 Y93.74 E12.06909
G1 X84.642 Y92.663 E12.10709
G1 X84.277 Y93.74 E12.14491
G1 X84.189 Y93.845 E12.14947
G1 X84.106 Y93.872 E12.15237
G1 X80.866 Y93.872 E12.26013
G1 X80.763 Y93.792 E12.26447
G1 X80.727 Y93.707 E12.26754
G1 X80.724 Y93.086 E12.2882
G1 X80.808 Y92.992 E12.29239
G1 X80.924 Y92.956 E12.29643
G1 X81.428 Y92.956 E12.31319
G1 X81.428 Y91.093 E12.37516
G1 X81.593 Y90.975 E12.3819
G1 X82.282 Y90.972 E12.40482
G1 F1076.2 X82.478 Y91.172 E12.41521
G1 F975.6 X82.478 Y92.91 E12.48631
G1 X82.97 Y92.91 E12.50643
G1 X82.97 Y91.172 E12.57754
G1 F1076.2 X83.092 Y91.014 E12.58494
G1 F1200 X83.181 Y90.975 E12.58817
G1 X83.871 Y90.972 E12.61112
G1 X84.005 Y91.116 E12.61766
G1 X83.998 Y91.824 E12.64121
G1 X84.264 Y91.102 E12.6668
G1 X84.382 Y90.975 E12.67257
G1 X84.947 Y90.977 E12.69136
G1 X85.065 Y91.103 E12.6971
G1 X85.309 Y91.779 E12.72101
G1 X85.304 Y91.115 E12.74309
G1 X85.438 Y90.972 E12.74961
G1 X86.072 Y90.972 E12.7707
G1 X86.193 Y91.011 E12.77493
G1 X86.272 Y91.115 E12.77927
G1 X86.27 Y93.702 E12.86531
G1 X86.213 Y93.815 E12.86952
G1 X86.106 Y93.87 E12.87352
G1 F2700 E7.87352
G0 F6000 X86.106 Y94.185
G0 X86.733 Y94.089
G0 X114.112 Y96.797
G0 X113.778 Y96.344
G1 F2700 E12.87352
G1 F1200 X112.597 Y96.338 E12.91281
G1 X112.51 Y96.3 E12.91596
G1 X112.437 Y96.189 E12.92038
G1 X112.436 Y91.081 E13.09027
G1 X112.516 Y90.979 E13.09459
G1 X112.601 Y90.942 E13.09767
G1 X113.9 Y90.944 E13.14087
G1 X114.015 Y91.096 E13.14721
G1 X114.02 Y94.408 E13.25737
G1 X114.63 Y93.937 E13.283
G1 X114.782 Y93.898 E13.28822
G1 X114.883 Y93.935 E13.2918
G1 X115.536 Y94.833 E13.32873
G1 X115.562 Y94.971 E13.3334
G1 X115.495 Y95.088 E13.33789
G1 X113.778 Y96.344 E13.40864
G1 F2700 E8.40864
G0 F6000 X113.777 Y96.653
G0 X115.871 Y95.531
G0 X117.193 Y95.529
G0 X121.64 Y95.593
G1 F2700 E13.40864
G1 F848.1 X121.638 Y95.544 E13.41095
G1 F932 X121.755 Y95.379 E13.41961
G1 F1066.7 X122.653 Y94.53 E13.46585
G1 F1153.8 X122.837 Y94.535 E13.47222
G1 F1200 X123.065 Y94.776 E13.48325
G1 X123.26 Y94.887 E13.49072
G1 X123.504 Y94.962 E13.49921
G1 X123.749 Y94.987 E13.5074
G1 X124.007 Y94.963 E13.51602
G1 X124.255 Y94.883 E13.52468
G1 X124.641 Y94.61 E13.54041
G1 X124.899 Y94.19 E13.5568
G1 X124.966 Y93.929 E13.56576
G1 X124.991 Y93.658 E13.57482
G1 X124.97 Y93.374 E13.58429
G1 X124.895 Y93.098 E13.5938
G1 X124.648 Y92.686 E13.60978
G1 X124.265 Y92.422 E13.62525
G1 X124.02 Y92.346 E13.63378
G1 X123.773 Y92.322 E13.64203
G1 X123.493 Y92.349 E13.65139
G1 X123.231 Y92.444 E13.66066
G1 X123.039 Y92.57 E13.6683
G1 X122.812 Y92.816 E13.67943
G1 F1153.8 X122.629 Y92.823 E13.68577
G1 F1071.4 X121.712 Y92.006 E13.73152
G1 F971.7 X121.615 Y91.88 E13.73805
G1 X121.588 Y92.059 E13.74548
G1 F1111.1 X121.556 Y93.213 E13.78695
G1 F1200 X121.557 Y94.151 E13.81815
G1 F1108.5 X121.589 Y95.31 E13.8599
G1 F932 X121.638 Y95.544 E13.87013
G1 F2700 E8.87013
G0 F6000 X121.806 Y96.055
G0 X123.055 Y96.913
G0 X123.673 Y96.483
G1 F2700 E13.87013
G1 F1200 X123.128 Y96.419 E13.88839
G1 X122.673 Y96.273 E13.90428
G1 X122.297 Y96.113 E13.91787
G1 X121.967 Y95.863 E13.93164
G1 F1088.4 X121.755 Y95.721 E13.941
G1 F993.8 X121.631 Y95.583 E13.94845
G1 F1036.7 X121.522 Y96.25 E13.97447
G1 F1140.1 X121.427 Y96.344 E13.97914
G1 F1200 X117.972 Y96.344 E14.09406
G1 X117.873 Y96.306 E14.09759
G1 X117.792 Y96.16 E14.10314
G1 X117.797 Y95.071 E14.13936
G1 X117.842 Y94.987 E14.14253
G1 F1093.4 X117.992 Y94.881 E14.14923
G1 F1012.7 X119.954 Y94.885 E14.22656
G1 F1023.5 X119.956 Y94.415 E14.24489
G1 F1012.7 X118.054 Y94.411 E14.31986
G1 F1093.4 X117.92 Y94.222 E14.32831
G1 F1200 X117.916 Y93.169 E14.36334
G1 F1039 X118.071 Y92.954 E14.37352
G1 F921.3 X119.933 Y92.956 E14.45418
G1 F924.9 X119.933 Y92.435 E14.47667
G1 F944.9 X117.903 Y92.437 E14.56241
G1 F1071.4 X117.721 Y92.313 E14.57062
G1 F1200 X117.669 Y92.197 E14.57485
G1 X117.673 Y91.096 E14.61147
G1 X117.703 Y91.029 E14.61391
G1 X117.833 Y90.946 E14.61904
G1 X121.356 Y90.944 E14.73621
G1 X121.463 Y90.974 E14.73991
G1 X121.555 Y91.121 E14.74568
G1 F1126.8 X121.581 Y91.62 E14.76338
G1 F991.7 X121.614 Y91.836 E14.77217
G1 X121.713 Y91.675 E14.77978
G1 F1126.8 X122.068 Y91.366 E14.79645
G1 F1200 X122.352 Y91.186 E14.80763
G1 X122.607 Y91.046 E14.81731
G1 X123.142 Y90.873 E14.83601
G1 X123.505 Y90.828 E14.84817
G1 X123.825 Y90.812 E14.85883
