;FLAVOR:Marlin
;TIME:12819
;Filament used: 7.73369m
;Layer height: 0.12
;MINX:53.04
;MINY:76.273
;MINZ:0.2
;MAXX:181.992
;MAXY:183.952
;MAXZ:8
;TARGET_MACHINE.NAME:Creality Ender-3
;Generated with Cura_SteamEngine 5.11.0
M140 S70
M105
M190 S70
M104 S240
M105
M109 S240
; Ender 3 Custom Start G-code
G92 E0 ; Reset Extruder
G28 ; Home all axes
G1 Z2.0 F3000 ; Move Z Axis up little to prevent scratching of Heat Bed
G1 X0.1 Y20 Z0.3 F5000.0 ; Move to start position
G1 X0.1 Y200.0 Z0.3 F1500.0 E15 ; Draw the first line
G1 X0.4 Y200.0 Z0.3 F5000.0 ; Move to side a little
G1 X0.4 Y20 Z0.3 F1500.0 E30 ; Draw the second line
G92 E0 ; Reset Extruder
G1 Z2.0 F3000 ; Move Z Axis up little to prevent scratching of Heat Bed
G1 X5 Y20 Z0.3 F5000.0 ; Move over to prevent blob squish
M82 ;absolute extrusion mode
G92 E0
G92 E0
G1 F2700 E-5
;LAYER_COUNT:66
;LAYER:0
M107
;MESH:Bottom.stl(2)
G0 F6000 X73.719 Y86.642 Z0.2
;TYPE:WALL-INNER
G1 F2700 E0
G1 F1200 X73.488 Y86.688 E0.00783
G1 X70.898 Y86.682 E0.09398
G1 X70.71 Y86.621 E0.10055
G1 X70.562 Y86.511 E0.10668
G1 X70.424 Y86.296 E0.11518
G1 X70.389 Y86.134 E0.12069
G1 X70.393 Y85.144 E0.15362
G1 X70.469 Y84.926 E0.1613
G1 X70.782 Y84.666 E0.17483
G1 X70.469 Y84.406 E0.18837
G1 X70.39 Y84.158 E0.19703
G1 X70.388 Y80.94 E0.30406
G1 X70.434 Y80.709 E0.31189
G1 X70.628 Y80.459 E0.32242
G1 X70.905 Y80.34 E0.33244
G1 X71.504 Y80.34 E0.35237
G1 X71.797 Y80.416 E0.36243
G1 X71.996 Y80.595 E0.37134
G1 X72.104 Y80.94 E0.38336
G1 X72.104 Y81.048 E0.38695
G1 X73.488 Y81.048 E0.43298
G1 X73.776 Y81.121 E0.44287
G1 X73.992 Y81.32 E0.45263
G1 X74.088 Y81.648 E0.464
G1 X74.088 Y82.328 E0.48662
G1 X73.962 Y82.62 E0.4972
G1 X73.713 Y82.742 E0.50642
G1 X73.962 Y82.864 E0.51564
G1 X74.048 Y83.014 E0.52139
G1 X74.088 Y83.232 E0.52876
G1 X74.088 Y83.898 E0.55091
G1 X74.034 Y84.071 E0.55694
G1 X73.954 Y84.144 E0.56054
G1 X74.034 Y84.217 E0.56415
G1 X74.088 Y84.468 E0.57269
G1 X74.088 Y84.97 E0.58938
G1 X74.036 Y85.138 E0.59523
G1 X73.962 Y85.206 E0.59857
G1 X74.036 Y85.274 E0.60192
G1 X74.088 Y85.52 E0.61028
G1 X74.088 Y86.173 E0.632
G1 X73.969 Y86.449 E0.64199
G1 X73.719 Y86.642 E0.6525
G1 F2700 E-4.3475
G0 F6000 X73.487 Y86.869
G0 X67.867 Y114.127
G0 X73.636 Y114.436
G1 F2700 E0.6525
G1 F1200 X71.053 Y114.437 E0.73841
G1 X71.162 Y114.858 E0.75287
G1 X71.073 Y115.094 E0.76126
G1 X70.924 Y115.253 E0.76851
G1 X70.034 Y115.901 E0.80513
G1 X69.79 Y115.981 E0.81367
G1 X69.646 Y115.979 E0.81846
G1 X69.273 Y115.776 E0.83258
G1 X68.004 Y114.043 E0.90402
G1 X67.922 Y113.796 E0.91268
G1 X67.923 Y112.58 E0.95312
G1 X68.041 Y112.285 E0.96369
G1 X68.25 Y112.111 E0.97274
G1 X68.443 Y112.048 E0.97949
G1 X73.521 Y112.052 E1.14838
G1 X73.752 Y112.098 E1.15622
G1 X74.001 Y112.292 E1.16672
G1 X74.12 Y112.652 E1.17933
G1 X74.12 Y113.921 E1.22153
G1 X74.045 Y114.134 E1.22904
G1 X73.864 Y114.333 E1.23799
G1 X73.636 Y114.436 E1.24631
G1 F2700 E-3.75369
G0 F6000 X70.939 Y114.532
G0 X71.19 Y114.859
G0 X69.634 Y115.997
G0 X67.867 Y114.127
G0 X71.659 Y124.593
G0 X71.425 Y124.534
G1 F2700 E1.24631
G1 F1200 X71.703 Y124.37 E1.25705
G1 X71.872 Y124.127 E1.26689
G1 X71.94 Y123.793 E1.27823
G1 X71.859 Y123.43 E1.2906
G1 X71.604 Y123.15 E1.3032
G1 X71.467 Y122.931 E1.31179
G1 X71.434 Y122.788 E1.31667
G1 X71.45 Y122.578 E1.32367
G1 X71.595 Y122.316 E1.33363
G1 X71.919 Y121.972 E1.34935
G1 X70.001 Y121.973 E1.41314
G1 X70.361 Y122.331 E1.43003
G1 X70.513 Y122.591 E1.44005
G1 X70.535 Y122.8 E1.44704
G1 X70.506 Y122.944 E1.45192
G1 X70.374 Y123.166 E1.46051
G1 X70.212 Y123.324 E1.46804
G1 X70.095 Y123.601 E1.47804
G1 X70.096 Y123.943 E1.48942
G1 X70.222 Y124.24 E1.50015
G1 X70.453 Y124.458 E1.51071
G1 X70.804 Y124.59 E1.52318
G1 X71.221 Y124.59 E1.53705
G1 X71.425 Y124.534 E1.54409
G1 F2700 E-3.45591
G0 F6000 X71.382 Y124.429
G0 X71.256 Y124.759
G0 X71.521 Y126.892
G0 X71.943 Y132.484
G1 F2700 E1.54409
G1 F1100.9 X71.916 Y132.437 E1.54605
G1 X71.862 Y132.437 E1.54801
G1 X71.835 Y132.484 E1.54998
G1 X71.862 Y132.531 E1.55194
G1 X71.916 Y132.531 E1.5539
G1 X71.943 Y132.484 E1.55586
G1 F2700 E-3.44414
G0 F6000 X71.924 Y132.434
G0 X71.854 Y134.58
G0 X71.71 Y136.566
G0 X70.303 Y137.306
G1 F2700 E1.55586
G1 F1126.8 X70.434 Y137.107 E1.5643
G1 X70.743 Y136.767 E1.58058
G1 X69.73 Y136.766 E1.61646
G1 X70.303 Y137.306 E1.64435
G1 F2700 E-3.35565
G0 F6000 X70.252 Y136.986
G0 X70.356 Y137.622
G0 X71.69 Y137.658
G0 X71.536 Y139.973
G0 X71.893 Y140.98
G1 F2700 E1.64435
G1 F1165 X71.96 Y140.809 E1.65064
G1 X72.065 Y140.751 E1.65475
G1 X71.687 Y140.381 E1.67287
G1 X71.589 Y140.233 E1.67895
G1 X71.349 Y140.537 E1.69222
G1 X71.032 Y140.766 E1.70562
G1 X71.529 Y140.766 E1.72264
G1 X71.759 Y140.856 E1.73111
G1 X71.893 Y140.98 E1.73736
G1 F2700 E-3.26264
G0 F6000 X71.95 Y140.98
G0 X72.292 Y140.711
G0 X75.304 Y140.711
G0 X75.504 Y140.724
G1 F2700 E1.73736
G1 F1200 X75.504 Y78.928 E3.7927
G1 X54.824 Y78.928 E4.48052
G1 X54.824 Y156.071 E7.04631
G1 X54.87 Y156.104 E7.04819
G1 X75.471 Y156.104 E7.73338
G1 X75.504 Y156.058 E7.73527
G1 X75.504 Y140.724 E8.24528
G1 F2700 E3.24528
G0 F6000 X75.304 Y145.667
G0 X74.288 Y145.667
G0 X71.604 Y145.667
G1 F2700 E8.24528
G1 F1206 X72.35 Y145.214 E8.27416
G1 X71.135 Y145.214 E8.31437
G1 X71.316 Y145.349 E8.32184
G1 X71.604 Y145.667 E8.33604
G1 F2700 E3.33604
G0 F6000 X70.611 Y145.107
G0 X70.03 Y145.025
G0 X69.55 Y145.07
G0 X69.086 Y145.239
G0 X68.729 Y145.499
G0 X68.456 Y145.827
G0 X68.261 Y146.204
G0 X68.08 Y146.988
G0 X68.069 Y149.735
G0 X68.481 Y150.339
G0 X68.274 Y150.72
G0 X68.079 Y151.546
G0 X68.067 Y154.254
G0 X73.943 Y154.257
G0 X73.943 Y152.173
G0 X72.055 Y152.172
G0 X72.062 Y151.678
G0 X71.845 Y150.755
G0 X71.641 Y150.371
G0 X71.358 Y150.043
G0 X73.945 Y149.737
G0 X73.945 Y147.674
G0 X72.419 Y147.693
G0 X73.952 Y146.886
G0 X74.06 Y138.447
G0 X73.821 Y137.633
G0 X73.716 Y136.711
G1 F2700 E8.33604
G1 F1203 X73.312 Y136.756 E8.34953
G1 F1200 X73.713 Y137.168 E8.36865
G1 X73.957 Y137.566 E8.38418
G1 X74.118 Y137.983 E8.39904
G1 X74.212 Y138.467 E8.41544
G1 X74.236 Y138.819 E8.42718
G1 X74.218 Y139.196 E8.43973
G1 X74.184 Y139.5 E8.44991
G1 X74.108 Y139.812 E8.46059
G1 X74 Y140.155 E8.47255
G1 X73.797 Y140.605 E8.48897
G1 X73.869 Y140.648 E8.49176
G1 X74.034 Y140.838 E8.50013
G1 X74.108 Y141.128 E8.51008
G1 X74.108 Y144.697 E8.62879
G1 X74.039 Y144.898 E8.63585
G1 X73.927 Y145.012 E8.64117
G1 X74.039 Y145.126 E8.64648
G1 X74.108 Y145.408 E8.65614
G1 X74.108 Y146.703 E8.69921
G1 X74.016 Y146.94 E8.70767
G1 X73.795 Y147.148 E8.71776
G1 X73.123 Y147.512 E8.74318
G1 X73.504 Y147.512 E8.75585
G1 X73.794 Y147.586 E8.76581
G1 X74.014 Y147.794 E8.77588
G1 X74.104 Y148.112 E8.78687
G1 X74.104 Y149.381 E8.82908
G1 X73.995 Y149.644 E8.83855
G1 X73.758 Y149.84 E8.84877
G1 X73.504 Y149.896 E8.85743
G1 X71.435 Y149.896 E8.92624
G1 X71.768 Y150.284 E8.94325
G1 X71.989 Y150.701 E8.95894
G1 X72.128 Y151.16 E8.97489
G1 X72.204 Y151.612 E8.99014
G1 X72.215 Y152.008 E9.00332
G1 X73.598 Y152.008 E9.04931
G1 X73.758 Y152.064 E9.05495
G1 X73.995 Y152.26 E9.06518
G1 X74.104 Y152.608 E9.07731
G1 X74.104 Y153.896 E9.12015
G1 X74.037 Y154.094 E9.1271
G1 X73.872 Y154.291 E9.13565
G1 X73.588 Y154.416 E9.14597
G1 X68.504 Y154.416 E9.31506
G1 X68.221 Y154.346 E9.32476
G1 X68.024 Y154.176 E9.33341
G1 X67.904 Y153.94 E9.34222
G1 X67.904 Y151.958 E9.40814
G1 X67.924 Y151.558 E9.42146
G1 X68.002 Y151.088 E9.43731
G1 X68.131 Y150.668 E9.45192
G1 X68.357 Y150.249 E9.46776
G1 X68.664 Y149.897 E9.48329
G1 X68.307 Y149.864 E9.49522
G1 X68.059 Y149.699 E9.50512
G1 X67.947 Y149.521 E9.51212
G1 X67.904 Y149.319 E9.51899
G1 X67.905 Y147.344 E9.58468
G1 X67.932 Y146.946 E9.59794
G1 X67.997 Y146.553 E9.61119
G1 X68.116 Y146.155 E9.62501
G1 X68.328 Y145.744 E9.64039
G1 X68.596 Y145.418 E9.65443
G1 X68.862 Y145.212 E9.66562
G1 X68.47 Y145.211 E9.67865
G1 X68.144 Y145.09 E9.69022
G1 X67.975 Y144.89 E9.69893
G1 X67.91 Y144.665 E9.70672
G1 X67.912 Y141.179 E9.82266
G1 X68.011 Y140.914 E9.83207
G1 X68.215 Y140.728 E9.84125
G1 X68.46 Y140.653 E9.84978
G1 X68.635 Y140.651 E9.8556
G1 X68.253 Y140.218 E9.8748
G1 X68.031 Y139.81 E9.89025
G1 X67.899 Y139.423 E9.90385
G1 X67.812 Y139.008 E9.91795
G1 X67.78 Y138.56 E9.93289
G1 X67.83 Y138.01 E9.95126
G1 X67.967 Y137.499 E9.96886
G1 X68.21 Y136.968 E9.98828
G1 X68.394 Y136.72 E9.99855
G1 X68.194 Y136.662 E10.00548
G1 X67.976 Y136.423 E10.01624
G1 X67.914 Y136.208 E10.02368
G1 X67.915 Y132.727 E10.13946
G1 X68.009 Y132.464 E10.14875
G1 X68.237 Y132.328 E10.15758
G1 X68.009 Y132.192 E10.16641
G1 X67.913 Y131.903 E10.17653
G1 X67.912 Y130.408 E10.22626
G1 X68.02 Y130.143 E10.23578
G1 X68.195 Y129.978 E10.24378
G1 X69.648 Y129.079 E10.30061
G1 X68.521 Y129.088 E10.33809
G1 X68.197 Y128.997 E10.34928
G1 X68.023 Y128.831 E10.35728
G1 X67.916 Y128.599 E10.36578
G1 X67.918 Y127.262 E10.41025
G1 X68 Y127.008 E10.41913
G1 X68.202 Y126.805 E10.42865
G1 X68.466 Y126.717 E10.43791
G1 X69.386 Y126.717 E10.46851
G1 X69.167 Y126.591 E10.47691
G1 X68.722 Y126.228 E10.49601
G1 X68.329 Y125.748 E10.51664
G1 X68.125 Y125.369 E10.53096
G1 X68.002 Y125.078 E10.54147
G1 X67.904 Y124.756 E10.55266
G1 X67.827 Y124.412 E10.56439
G1 X67.796 Y124.117 E10.57425
G1 X67.773 Y123.694 E10.58834
G1 X67.836 Y123.203 E10.60481
G1 X67.912 Y122.865 E10.61633
G1 X68.021 Y122.528 E10.62811
G1 X68.185 Y122.152 E10.64175
G1 X68.336 Y121.928 E10.65074
G1 X68.113 Y121.818 E10.65901
G1 X67.986 Y121.656 E10.66585
G1 X67.919 Y121.439 E10.67341
G1 X67.923 Y117.947 E10.78955
G1 X68.036 Y117.653 E10.80003
G1 X68.263 Y117.465 E10.80983
G1 X68.474 Y117.409 E10.81709
G1 X69.644 Y117.412 E10.85601
G1 X69.94 Y117.56 E10.86701
G1 X70.048 Y117.798 E10.87571
G1 X70.212 Y117.595 E10.88439
G1 X70.392 Y117.532 E10.89073
G1 X71.59 Y117.533 E10.93058
G1 X71.92 Y117.809 E10.94488
G1 X72.078 Y117.445 E10.95808
G1 X72.215 Y117.349 E10.96365
G1 X72.424 Y117.287 E10.9709
G1 X73.636 Y117.288 E11.01121
G1 X73.864 Y117.391 E11.01953
G1 X74.045 Y117.59 E11.02848
G1 X74.12 Y117.885 E11.0386
G1 X74.116 Y121.456 E11.15737
G1 X74.024 Y121.692 E11.1658
G1 X73.874 Y121.855 E11.17316
G1 X73.683 Y121.948 E11.18023
G1 X73.817 Y122.16 E11.18857
G1 X73.998 Y122.509 E11.20165
G1 X74.093 Y122.777 E11.21111
G1 X74.196 Y123.181 E11.22497
G1 X74.232 Y123.453 E11.2341
G1 X74.248 Y123.854 E11.24745
G1 X74.233 Y124.179 E11.25827
G1 X74.196 Y124.484 E11.26849
G1 X74.115 Y124.815 E11.27982
G1 X74.003 Y125.162 E11.29195
G1 X73.882 Y125.414 E11.30124
G1 X73.69 Y125.776 E11.31487
G1 X73.379 Y126.145 E11.33092
G1 X72.976 Y126.512 E11.34905
G1 X72.614 Y126.721 E11.36296
G1 X73.6 Y126.725 E11.39575
G1 X73.919 Y126.874 E11.40746
G1 X74.116 Y127.322 E11.42374
G1 X74.112 Y128.776 E11.4721
G1 X73.937 Y129.131 E11.48526
G1 X72.354 Y130.105 E11.54708
G1 X73.506 Y130.096 E11.5854
G1 X73.827 Y130.185 E11.59648
G1 X73.956 Y130.291 E11.60203
G1 X74.112 Y130.696 E11.61647
G1 X74.112 Y131.942 E11.65791
G1 X74.02 Y132.188 E11.66664
G1 X73.878 Y132.266 E11.67203
G1 X74.02 Y132.344 E11.67742
G1 X74.112 Y132.664 E11.6885
G1 X74.112 Y136.242 E11.8075
G1 X73.982 Y136.53 E11.81801
G1 X73.751 Y136.707 E11.82769
G1 F1203 X73.716 Y136.711 E11.82886
G0 F6000 X73.558 Y136.356
;TYPE:WALL-OUTER
G1 F1148.3 X72.395 Y136.364 E11.86928
G1 F1176.5 X71.968 Y136.354 E11.88377
G1 X71.576 Y136.364 E11.89707
G1 F1200 X68.996 Y136.344 E11.98289
G1 F1227.6 X68.512 Y136.353 E11.99863
G1 F1200 X68.406 Y136.322 E12.0023
G1 X68.312 Y136.208 E12.00721
G1 X68.314 Y132.759 E12.12193
G1 X68.344 Y132.682 E12.12468
G1 F1108.5 X68.492 Y132.56 E12.13158
G1 F1032.3 X69.536 Y132.56 E12.17195
G1 F956.2 X69.775 Y132.627 E12.18231
G1 F952.4 X69.771 Y134.753 E12.27141
G1 F1021.3 X70.241 Y134.753 E12.28977
G1 F952.4 X70.241 Y132.699 E12.37585
G1 F898.9 X70.43 Y132.651 E12.38451
G1 F912.5 X71.444 Y132.651 E12.42886
G1 F991.7 X71.642 Y132.811 E12.4391
G1 F997.9 X71.703 Y132.912 E12.44382
G1 F926.6 X71.703 Y134.729 E12.52209
G1 X72.221 Y134.729 E12.5444
G1 X72.221 Y132.912 E12.62266
G1 F983.6 X72.264 Y132.627 E12.63435
G1 F1113.7 X72.445 Y132.465 E12.64306
G1 F1200 X73.512 Y132.465 E12.67855
G1 F1203 X73.682 Y132.557 E12.68496
G1 F1200 X73.712 Y132.664 E12.68866
G1 X73.71 Y136.191 E12.80597
G1 X73.669 Y136.281 E12.80925
G1 F1188.1 X73.572 Y136.356 E12.81337
G1 F1162.2 X73.558 Y136.356 E12.81385
G1 F2700 E7.81385
G0 F6000 X73.557 Y136.665
G0 X74.06 Y138.447
G0 X74.035 Y139.474
G0 X73.906 Y139.952
G0 X73.56 Y140.673
G0 X72.95 Y140.931
G1 F2700 E12.81385
G1 F1218.3 X72.916 Y140.932 E12.81497
G1 F2700 E7.81497
G0 F6000 X73.56 Y140.673
G0 X73.909 Y140.688
G0 X74.288 Y141.622
G0 X75.304 Y141.622
G0 X75.904 Y141.622
G1 F2700 E12.81497
G1 F1200 X75.904 Y78.961 E14.89908
G1 X75.859 Y78.752 E14.90619
G1 X75.725 Y78.607 E14.91276
G1 X75.546 Y78.528 E14.91927
G1 X54.784 Y78.528 E15.60981
G1 X54.604 Y78.61 E15.61639
G1 X54.472 Y78.753 E15.62287
G1 X54.424 Y78.959 E15.6299
G1 X54.424 Y156.072 E18.19469
G1 X54.462 Y156.263 E18.20117
G1 X54.605 Y156.423 E18.2083
G1 X54.784 Y156.504 E18.21484
G1 X75.472 Y156.504 E18.90292
G1 X75.663 Y156.466 E18.9094
G1 X75.823 Y156.323 E18.91654
G1 X75.904 Y156.144 E18.92307
G1 X75.904 Y141.622 E19.40608
G1 F2700 E14.40608
G0 F6000 X75.594 Y141.622
G0 X75.304 Y144.802
G0 X74.284 Y144.648
G0 X73.595 Y144.801
G1 F2700 E19.40608
G1 F1224.5 X71.155 Y144.815 E19.48561
G1 F1108.5 X70.537 Y144.847 E19.50789
G1 F1069 X70.02 Y144.829 E19.5272
G1 F1083.5 X69.566 Y144.839 E19.54393
G1 F1124.1 X69.121 Y144.813 E19.55976
G1 F1200 X68.495 Y144.812 E19.58058
G1 X68.386 Y144.772 E19.58444
G1 X68.308 Y144.63 E19.58983
G1 X68.312 Y141.209 E19.70361
G1 X68.429 Y141.052 E19.71012
G1 X69.588 Y141.057 E19.74867
G1 F1052.6 X69.771 Y141.138 E19.75626
G1 F979.6 X69.767 Y143.213 E19.8408
G1 F1021.3 X70.237 Y143.213 E19.85917
G1 F979.6 X70.237 Y141.21 E19.94078
G1 F983.6 X70.427 Y141.143 E19.94896
G1 F1106 X70.842 Y141.172 E19.96397
G1 F1200 X71.477 Y141.175 E19.98509
G1 F1137.4 X71.639 Y141.272 E19.99172
G1 F995.9 X71.699 Y141.372 E19.99639
G1 F926.6 X71.699 Y143.189 E20.07465
G1 X72.217 Y143.189 E20.09696
G1 X72.217 Y141.372 E20.17522
G1 F1045.8 X72.306 Y141.022 E20.18901
G1 F1200 X72.476 Y140.928 E20.19547
G1 F1212.1 X72.916 Y140.932 E20.20996
G1 F1218.3 X72.777 Y140.877 E20.21485
G1 F1182.3 X71.9 Y140.021 E20.25623
G1 F1034.5 X71.873 Y139.858 E20.2626
G1 F914.3 X72.198 Y139.447 E20.28547
G1 F866.4 X72.321 Y139.107 E20.30213
G1 F842.1 X72.358 Y138.815 E20.31608
G1 X72.31 Y138.608 E20.32615
G1 X72.233 Y138.497 E20.33255
G1 X72.106 Y138.467 E20.33874
G1 X71.977 Y138.506 E20.34513
G1 X71.827 Y138.797 E20.36064
G1 F845.1 X71.713 Y139.121 E20.37687
G1 F895.5 X71.378 Y139.863 E20.41315
G1 F1061.9 X71.07 Y140.242 E20.4315
G1 F1176.5 X70.59 Y140.579 E20.4514
G1 F1086 X70.313 Y140.691 E20.46238
G1 F944.9 X70.015 Y140.762 E20.47532
G1 F941.2 X69.922 Y140.725 E20.47957
G1 F1103.4 X69.665 Y140.664 E20.48912
G1 F1200 X69.507 Y140.639 E20.49444
G1 X69.122 Y140.483 E20.50826
G1 X68.817 Y140.256 E20.5209
G1 X68.597 Y140.004 E20.53203
G1 X68.399 Y139.654 E20.5454
G1 X68.28 Y139.301 E20.55779
G1 X68.206 Y138.939 E20.57008
G1 X68.18 Y138.56 E20.58272
G1 X68.23 Y138.064 E20.5993
G1 X68.346 Y137.627 E20.61434
G1 X68.566 Y137.161 E20.63148
G1 F1206 X68.836 Y136.798 E20.64645
G1 F1224.5 X68.963 Y136.726 E20.65121
G1 F1230.8 X69.132 Y136.772 E20.65689
G1 F1203 X69.996 Y137.585 E20.69625
G1 F1126.8 X70.024 Y137.747 E20.70207
G1 F1000 X69.838 Y138.023 E20.71535
G1 F923.1 X69.685 Y138.308 E20.72934
G1 F904 X69.648 Y138.58 E20.74146
G1 X69.683 Y138.844 E20.75322
G1 X69.83 Y138.999 E20.76265
G1 X69.943 Y138.999 E20.76764
G1 X70.051 Y138.88 E20.77474
G1 X70.192 Y138.485 E20.79325
G1 F979.6 X70.446 Y137.898 E20.81931
G1 F1116.3 X70.583 Y137.63 E20.83008
G1 F1182.3 X70.755 Y137.367 E20.84068
G1 F1200 X71.004 Y137.1 E20.85283
G1 X71.278 Y136.913 E20.86386
G1 F1173.6 X71.612 Y136.778 E20.87611
G1 X71.987 Y136.753 E20.88889
G1 X72.376 Y136.78 E20.90215
G1 X72.829 Y136.947 E20.91857
G1 F1200 X73.144 Y137.156 E20.93115
G1 X73.407 Y137.434 E20.94388
G1 X73.603 Y137.759 E20.9565
G1 X73.727 Y138.079 E20.96791
G1 X73.809 Y138.468 E20.98114
G1 X73.836 Y138.872 E20.9946
G1 X73.82 Y139.154 E21.004
