;FLAVOR:Marlin
;TIME:1063
;Filament used: 0.476185m
;Layer height: 0.12
;MINX:99.111
;MINY:92.654
;MINZ:0.2
;MAXX:135.889
;MAXY:142.342
;MAXZ:6.32
;TARGET_MACHINE.NAME:Creality Ender-3
;Generated with Cura_SteamEngine 5.11.0
M140 S60
M105
M190 S60
M104 S200
M105
M109 S200
; Ender 3 Custom Start G-code
G92 E0 ; Reset Extruder
G28 ; Home all axes
G1 Z2.0 F3000 ; Move Z Axis up little to prevent scratching of Heat Bed
G1 X0.1 Y20 Z0.3 F5000.0 ; Move to start position
G1 X0.1 Y200.0 Z0.3 F1500.0 E15 ; Draw the first line
G1 X0.4 Y200.0 Z0.3 F5000.0 ; Move to side a little
G1 X0.4 Y20 Z0.3 F1500.0 E30 ; Draw the second line
G92 E0 ; Reset Extruder
G1 Z2.0 F3000 ; Move Z Axis up little to prevent scratching of Heat Bed
G1 X5 Y20 Z0.3 F5000.0 ; Move over to prevent blob squish
M82 ;absolute extrusion mode
G92 E0
G92 E0
G1 F2700 E-5
;LAYER_COUNT:52
;LAYER:0
M107
G0 F6000 X101.715 Y96.011 Z0.2
;TYPE:SKIRT
G1 F2700 E0
G1 F1200 X102.667 Y95.084 E0.0442
G1 X103.52 Y94.436 E0.07982
G1 X104.898 Y93.644 E0.13269
G1 X105.842 Y93.253 E0.16667
G1 X107.889 Y92.738 E0.23688
G1 X108.336 Y92.689 E0.25183
G1 X125.89 Y92.654 E0.83568
G1 X127.876 Y92.899 E0.90224
G1 X129.681 Y93.456 E0.96507
G1 X130.706 Y93.956 E1.003
G1 X131.884 Y94.721 E1.04971
G1 X132.539 Y95.265 E1.07803
G1 X133.465 Y96.216 E1.12218
G1 X134.181 Y97.164 E1.1617
G1 X134.747 Y98.129 E1.1989
G1 X135.42 Y99.757 E1.2575
G1 X135.72 Y100.95 E1.29841
G1 X135.889 Y102.559 E1.35222
G1 X135.87 Y104.434 E1.41459
G1 X135.658 Y105.951 E1.46553
G1 X135.409 Y106.838 E1.49618
G1 X135.475 Y107.028 E1.50287
G1 X135.72 Y108.05 E1.53782
G1 X135.889 Y109.659 E1.59163
G1 X135.87 Y111.534 E1.654
G1 X135.658 Y113.051 E1.70494
G1 X135.409 Y113.938 E1.73558
G1 X135.475 Y114.128 E1.74227
G1 X135.72 Y115.15 E1.77723
G1 X135.889 Y116.759 E1.83104
G1 X135.87 Y118.634 E1.8934
G1 X135.658 Y120.151 E1.94435
G1 X135.409 Y121.038 E1.97499
G1 X135.475 Y121.228 E1.98168
G1 X135.72 Y122.25 E2.01664
G1 X135.889 Y123.859 E2.07045
G1 X135.87 Y125.734 E2.13281
G1 X135.658 Y127.251 E2.18376
G1 X135.409 Y128.138 E2.2144
G1 X135.475 Y128.328 E2.22109
G1 X135.72 Y129.35 E2.25605
G1 X135.887 Y130.912 E2.30829
G1 X135.867 Y132.883 E2.37385
G1 X135.678 Y134.277 E2.42064
G1 X135.412 Y135.279 E2.45512
G1 X134.501 Y137.313 E2.52925
G1 X133.837 Y138.323 E2.56945
G1 X133.321 Y138.946 E2.59636
G1 X132.19 Y140.038 E2.64865
G1 X131.497 Y140.554 E2.67738
G1 X130.317 Y141.248 E2.72292
G1 X128.796 Y141.879 E2.77769
G1 X127.944 Y142.097 E2.80694
G1 X125.955 Y142.342 E2.87359
G1 X108.345 Y142.296 E3.4593
G1 X106.973 Y142.088 E3.50546
G1 X106.29 Y141.906 E3.52897
G1 X104.08 Y140.92 E3.60946
G1 X103.116 Y140.279 E3.64796
G1 X102.461 Y139.735 E3.67628
G1 X101.535 Y138.784 E3.72043
G1 X100.819 Y137.836 E3.75994
G1 X100.253 Y136.871 E3.79715
G1 X99.58 Y135.243 E3.85574
G1 X99.28 Y134.05 E3.89666
G1 X99.111 Y132.441 E3.95047
G1 X99.13 Y130.566 E4.01283
G1 X99.342 Y129.049 E4.06378
G1 X99.591 Y128.162 E4.09442
G1 X99.525 Y127.972 E4.10111
G1 X99.28 Y126.95 E4.13606
G1 X99.111 Y125.341 E4.18987
G1 X99.13 Y123.466 E4.25224
G1 X99.342 Y121.949 E4.30319
G1 X99.591 Y121.062 E4.33383
G1 X99.525 Y120.872 E4.34052
G1 X99.28 Y119.85 E4.37547
G1 X99.111 Y118.241 E4.42928
G1 X99.13 Y116.366 E4.49165
G1 X99.342 Y114.849 E4.5426
G1 X99.591 Y113.962 E4.57324
G1 X99.525 Y113.772 E4.57993
G1 X99.28 Y112.75 E4.61488
G1 X99.111 Y111.141 E4.66869
G1 X99.13 Y109.266 E4.73106
G1 X99.342 Y107.749 E4.782
G1 X99.591 Y106.862 E4.81265
G1 X99.525 Y106.672 E4.81934
G1 X99.28 Y105.65 E4.85429
G1 X99.113 Y104.088 E4.90654
G1 X99.133 Y102.117 E4.9721
G1 X99.322 Y100.723 E5.01889
G1 X99.588 Y99.721 E5.05337
G1 X100.499 Y97.687 E5.1275
G1 X101.171 Y96.666 E5.16815
G1 X101.715 Y96.011 E5.19647
G0 F6000 X102.023 Y96.267
G1 F1200 X102.909 Y95.403 E5.23763
G1 X103.762 Y94.755 E5.27326
G1 X105.051 Y94.014 E5.32271
G1 X105.995 Y93.623 E5.35669
G1 X107.933 Y93.136 E5.42316
G1 X108.38 Y93.087 E5.43811
G1 X125.891 Y93.054 E6.02053
G1 X127.759 Y93.282 E6.08312
G1 X129.506 Y93.816 E6.14388
G1 X130.531 Y94.316 E6.18181
G1 X131.628 Y95.029 E6.22533
G1 X132.283 Y95.573 E6.25365
G1 X133.178 Y96.495 E6.29639
G1 X133.837 Y97.367 E6.33274
G1 X134.377 Y98.282 E6.36808
G1 X135.05 Y99.91 E6.42667
G1 X135.322 Y100.993 E6.46381
G1 X135.489 Y102.555 E6.51606
G1 X135.47 Y104.43 E6.57842
G1 X135.273 Y105.843 E6.62587
G1 X134.989 Y106.853 E6.66077
G1 X135.086 Y107.122 E6.67028
G1 X135.322 Y108.093 E6.70352
G1 X135.489 Y109.655 E6.75576
G1 X135.47 Y111.53 E6.81813
G1 X135.273 Y112.943 E6.86558
G1 X134.989 Y113.953 E6.90048
G1 X135.086 Y114.222 E6.90999
G1 X135.322 Y115.193 E6.94322
G1 X135.489 Y116.755 E6.99547
G1 X135.47 Y118.63 E7.05784
G1 X135.273 Y120.043 E7.10529
G1 X134.989 Y121.053 E7.14018
G1 X135.086 Y121.322 E7.1497
G1 X135.322 Y122.293 E7.18293
G1 X135.489 Y123.855 E7.23518
G1 X135.47 Y125.73 E7.29755
G1 X135.273 Y127.143 E7.345
G1 X134.989 Y128.153 E7.37989
G1 X135.086 Y128.422 E7.3894
G1 X135.322 Y129.393 E7.42264
G1 X135.489 Y130.955 E7.47489
G1 X135.467 Y132.878 E7.53885
G1 X135.291 Y134.174 E7.58235
G1 X135.025 Y135.176 E7.61683
G1 X134.166 Y137.094 E7.68673
G1 X133.528 Y138.069 E7.72549
G1 X133.043 Y138.659 E7.75089
G1 X131.951 Y139.718 E7.80148
G1 X131.294 Y140.209 E7.82876
G1 X130.114 Y140.903 E7.87429
G1 X128.695 Y141.492 E7.92539
G1 X127.894 Y141.7 E7.95292
G1 X125.956 Y141.942 E8.01788
G1 X108.404 Y141.9 E8.60166
G1 X107.076 Y141.701 E8.64632
G1 X106.393 Y141.519 E8.66983
G1 X104.301 Y140.586 E8.74602
G1 X103.372 Y139.971 E8.78308
G1 X102.717 Y139.427 E8.8114
G1 X101.822 Y138.505 E8.85413
G1 X101.163 Y137.633 E8.89049
G1 X100.623 Y136.718 E8.92582
G1 X99.95 Y135.09 E8.98442
G1 X99.678 Y134.007 E9.02156
G1 X99.511 Y132.445 E9.0738
G1 X99.53 Y130.57 E9.13617
G1 X99.727 Y129.157 E9.18362
G1 X100.011 Y128.147 E9.21852
G1 X99.914 Y127.878 E9.22803
G1 X99.678 Y126.907 E9.26126
G1 X99.511 Y125.345 E9.31351
G1 X99.53 Y123.47 E9.37588
G1 X99.727 Y122.057 E9.42333
G1 X100.011 Y121.047 E9.45822
G1 X99.914 Y120.778 E9.46774
G1 X99.678 Y119.807 E9.50097
G1 X99.511 Y118.245 E9.55322
G1 X99.53 Y116.37 E9.61559
G1 X99.727 Y114.957 E9.66304
G1 X100.011 Y113.947 E9.69793
G1 X99.914 Y113.678 E9.70744
G1 X99.678 Y112.707 E9.74068
G1 X99.511 Y111.145 E9.79293
G1 X99.53 Y109.27 E9.85529
G1 X99.727 Y107.857 E9.90274
G1 X100.011 Y106.847 E9.93764
G1 X99.914 Y106.578 E9.94715
G1 X99.678 Y105.607 E9.98039
G1 X99.511 Y104.045 E10.03263
G1 X99.533 Y102.122 E10.0966
G1 X99.709 Y100.826 E10.1401
G1 X99.975 Y99.824 E10.17458
G1 X100.834 Y97.906 E10.24448
G1 X101.479 Y96.922 E10.28361
G1 X102.023 Y96.267 E10.31193
G0 F6000 X102.331 Y96.523
G1 F1200 X103.151 Y95.722 E10.35006
G1 X104.004 Y95.074 E10.38568
G1 X105.204 Y94.384 E10.43172
G1 X106.148 Y93.993 E10.46571
G1 X107.977 Y93.534 E10.52843
G1 X108.424 Y93.485 E10.54338
G1 X125.892 Y93.454 E11.12437
G1 X127.71 Y93.679 E11.1853
G1 X129.331 Y94.176 E11.24169
G1 X130.356 Y94.676 E11.27963
G1 X131.372 Y95.337 E11.31994
G1 X132.027 Y95.881 E11.34826
G1 X132.859 Y96.737 E11.38796
G1 X133.493 Y97.572 E11.42283
G1 X134.007 Y98.435 E11.45624
G1 X134.68 Y100.063 E11.51483
G1 X134.924 Y101.036 E11.5482
G1 X135.091 Y102.598 E11.60045
G1 X135.07 Y104.425 E11.66122
G1 X134.888 Y105.735 E11.70521
G1 X134.569 Y106.87 E11.74442
G1 X134.698 Y107.218 E11.75676
G1 X134.924 Y108.136 E11.78821
G1 X135.091 Y109.698 E11.84046
G1 X135.07 Y111.525 E11.90123
G1 X134.888 Y112.835 E11.94521
G1 X134.569 Y113.97 E11.98443
G1 X134.698 Y114.318 E11.99677
G1 X134.924 Y115.236 E12.02822
G1 X135.091 Y116.798 E12.08046
G1 X135.07 Y118.625 E12.14124
G1 X134.888 Y119.935 E12.18522
G1 X134.569 Y121.07 E12.22444
G1 X134.698 Y121.418 E12.23678
G1 X134.924 Y122.336 E12.26823
G1 X135.091 Y123.898 E12.32047
G1 X135.07 Y125.725 E12.38124
G1 X134.888 Y127.035 E12.42523
G1 X134.569 Y128.17 E12.46445
G1 X134.698 Y128.518 E12.47679
G1 X134.924 Y129.436 E12.50824
G1 X135.091 Y130.998 E12.56048
G1 X135.067 Y132.873 E12.62285
G1 X134.904 Y134.071 E12.66306
G1 X134.638 Y135.073 E12.69755
G1 X133.801 Y136.93 E12.76529
G1 X133.218 Y137.816 E12.80057
G1 X132.764 Y138.372 E12.82444
G1 X131.71 Y139.398 E12.87337
G1 X131.091 Y139.864 E12.89914
G1 X129.911 Y140.558 E12.94467
G1 X128.593 Y141.105 E12.99213
G1 X127.844 Y141.303 E13.0179
G1 X125.957 Y141.542 E13.08116
G1 X108.405 Y141.5 E13.66494
G1 X107.179 Y141.314 E13.70619
G1 X106.496 Y141.132 E13.7297
G1 X104.521 Y140.252 E13.80161
G1 X103.628 Y139.663 E13.83719
G1 X102.973 Y139.119 E13.86551
G1 X102.141 Y138.263 E13.90521
G1 X101.507 Y137.428 E13.94009
G1 X100.993 Y136.565 E13.97349
G1 X100.32 Y134.937 E14.03209
G1 X100.076 Y133.964 E14.06545
G1 X99.909 Y132.402 E14.1177
G1 X99.93 Y130.575 E14.17847
G1 X100.112 Y129.265 E14.22246
G1 X100.431 Y128.13 E14.26167
G1 X100.302 Y127.782 E14.27402
G1 X100.076 Y126.864 E14.30546
G1 X99.909 Y125.302 E14.35771
G1 X99.93 Y123.475 E14.41848
G1 X100.112 Y122.165 E14.46247
G1 X100.431 Y121.03 E14.50168
G1 X100.302 Y120.682 E14.51402
G1 X100.076 Y119.764 E14.54547
G1 X99.909 Y118.202 E14.59772
G1 X99.93 Y116.375 E14.65849
G1 X100.112 Y115.065 E14.70248
G1 X100.431 Y113.93 E14.74169
G1 X100.302 Y113.582 E14.75403
G1 X100.076 Y112.664 E14.78548
G1 X99.909 Y111.102 E14.83773
G1 X99.93 Y109.275 E14.8985
G1 X100.112 Y107.965 E14.94249
G1 X100.431 Y106.83 E14.9817
G1 X100.302 Y106.482 E14.99404
G1 X100.076 Y105.564 E15.02549
G1 X99.909 Y104.002 E15.07774
G1 X99.933 Y102.127 E15.1401
G1 X100.096 Y100.929 E15.18032
G1 X100.362 Y99.927 E15.2148
G1 X101.199 Y98.07 E15.28255
G1 X101.787 Y97.178 E15.31808
G1 X102.331 Y96.523 E15.3464
G0 F6000 X102.639 Y96.779
G1 F1200 X103.43 Y96.009 E15.38312
G1 X104.204 Y95.42 E15.41546
G1 X105.357 Y94.754 E15.45975
G1 X106.301 Y94.363 E15.49374
G1 X108.021 Y93.932 E15.55271
G1 X108.468 Y93.883 E15.56767
G1 X125.893 Y93.854 E16.14723
G1 X127.66 Y94.076 E16.20646
G1 X129.156 Y94.536 E16.25852
G1 X130.181 Y95.036 E16.29645
G1 X131.116 Y95.645 E16.33356
G1 X131.771 Y96.189 E16.36188
G1 X132.541 Y96.98 E16.3986
G1 X133.149 Y97.777 E16.43194
G1 X133.663 Y98.64 E16.46535
G1 X134.31 Y100.215 E16.52198
G1 X134.526 Y101.079 E16.5516
G1 X134.693 Y102.641 E16.60385
G1 X134.67 Y104.42 E16.66302
G1 X134.503 Y105.627 E16.70355
G1 X134.148 Y106.889 E16.74715
G1 X134.31 Y107.315 E16.76231
G1 X134.526 Y108.179 E16.79193
G1 X134.693 Y109.741 E16.84418
G1 X134.67 Y111.52 E16.90336
G1 X134.503 Y112.727 E16.94388
G1 X134.148 Y113.989 E16.98749
G1 X134.31 Y114.415 E17.00265
G1 X134.526 Y115.279 E17.03227
G1 X134.693 Y116.841 E17.08452
G1 X134.67 Y118.62 E17.14369
G1 X134.503 Y119.827 E17.18422
G1 X134.148 Y121.089 E17.22782
G1 X134.31 Y121.515 E17.24298
G1 X134.526 Y122.379 E17.2726
G1 X134.693 Y123.941 E17.32485
G1 X134.67 Y125.72 E17.38402
G1 X134.503 Y126.927 E17.42455
G1 X134.148 Y128.189 E17.46815
G1 X134.31 Y128.615 E17.48331
G1 X134.526 Y129.479 E17.51293
G1 X134.693 Y131.041 E17.56518
G1 X134.667 Y132.867 E17.62592
G1 X134.517 Y133.968 E17.66288
G1 X134.251 Y134.97 E17.69736
G1 X133.437 Y136.765 E17.76291
G1 X132.908 Y137.563 E17.79476
G1 X132.454 Y138.119 E17.81863
G1 X131.469 Y139.079 E17.86438
G1 X130.888 Y139.519 E17.88862
G1 X129.708 Y140.213 E17.93415
G1 X128.489 Y140.719 E17.97805
G1 X127.793 Y140.906 E18.00202
G1 X125.958 Y141.142 E18.06356
G1 X108.464 Y141.104 E18.64541
G1 X107.282 Y140.927 E18.68516
G1 X106.599 Y140.745 E18.70867
G1 X104.741 Y139.918 E18.77631
G1 X103.884 Y139.355 E18.81042
G1 X103.229 Y138.811 E18.83874
G1 X102.459 Y138.02 E18.87545
G1 X101.851 Y137.223 E18.90879
G1 X101.337 Y136.36 E18.9422
G1 X100.69 Y134.785 E18.99883
G1 X100.474 Y133.921 E19.02846
G1 X100.307 Y132.359 E19.0807
G1 X100.33 Y130.58 E19.13988
G1 X100.497 Y129.373 E19.18041
G1 X100.852 Y128.111 E19.22401
G1 X100.69 Y127.685 E19.23917
G1 X100.474 Y126.821 E19.26879
G1 X100.307 Y125.259 E19.32104
G1 X100.33 Y123.48 E19.38021
G1 X100.497 Y122.273 E19.42074
G1 X100.852 Y121.011 E19.46434
G1 X100.69 Y120.585 E19.4795
G1 X100.474 Y119.721 E19.50912
G1 X100.307 Y118.159 E19.56137
G1 X100.33 Y116.38 E19.62055
G1 X100.497 Y115.173 E19.66107
G1 X100.852 Y113.911 E19.70468
G1 X100.69 Y113.485 E19.71984
G1 X100.474 Y112.621 E19.74946
G1 X100.307 Y111.059 E19.80171
G1 X100.33 Y109.28 E19.86088
G1 X100.497 Y108.073 E19.90141
G1 X100.852 Y106.811 E19.94501
G1 X100.69 Y106.385 E19.96017
G1 X100.474 Y105.521 E19.98979
G1 X100.307 Y103.959 E20.04204
G1 X100.333 Y102.133 E20.10278
G1 X100.483 Y101.032 E20.13974
G1 X100.749 Y100.03 E20.17422
G1 X101.563 Y98.235 E20.23977
G1 X102.095 Y97.434 E20.27175
G1 X102.639 Y96.779 E20.30007
G0 F6000 X102.918 Y97.066
G1 F1200 X103.709 Y96.296 E20.33679
G1 X104.445 Y95.739 E20.36749
G1 X105.51 Y95.124 E20.40839
G1 X106.454 Y94.733 E20.44238
G1 X108.065 Y94.33 E20.49761
G1 X108.512 Y94.281 E20.51257
G1 X125.894 Y94.254 E21.09069
G1 X127.544 Y94.459 E21.146
G1 X128.981 Y94.896 E21.19595
G1 X130.006 Y95.396 E21.23388
G1 X130.861 Y95.953 E21.26782
G1 X131.484 Y96.468 E21.29471
G1 X132.254 Y97.259 E21.33142
G1 X132.805 Y97.982 E21.36166
G1 X133.319 Y98.845 E21.39507
G1 X133.922 Y100.314 E21.44788
G1 X134.128 Y101.122 E21.47561
G1 X134.295 Y102.684 E21.52786
G1 X134.27 Y104.414 E21.58541
G1 X134.118 Y105.52 E21.62254
G1 X133.808 Y106.633 E21.66097
G1 X133.709 Y106.86 E21.6692
G1 X133.922 Y107.414 E21.68895
G1 X134.128 Y108.222 E21.71668
G1 X134.295 Y109.784 E21.76893
G1 X134.27 Y111.514 E21.82647
G1 X134.118 Y112.62 E21.86361
G1 X133.808 Y113.733 E21.90203
G1 X133.709 Y113.96 E21.91027
G1 X133.922 Y114.514 E21.93001
G1 X134.128 Y115.322 E21.95775
G1 X134.295 Y116.884 E22.00999
G1 X134.27 Y118.614 E22.06754
G1 X134.118 Y119.72 E22.10467
G1 X133.808 Y120.833 E22.1431
G1 X133.709 Y121.06 E22.15134
G1 X133.922 Y121.614 E22.17108
G1 X134.128 Y122.422 E22.19881
G1 X134.295 Y123.984 E22.25106
G1 X134.27 Y125.714 E22.3086
G1 X134.118 Y126.82 E22.34574
G1 X133.808 Y127.933 E22.38416
G1 X133.709 Y128.16 E22.3924
G1 X133.922 Y128.714 E22.41214
G1 X134.128 Y129.522 E22.43988
G1 X134.295 Y131.084 E22.49212
G1 X134.267 Y132.861 E22.55123
G1 X134.13 Y133.865 E22.58494
G1 X133.864 Y134.867 E22.61942
G1 X133.103 Y136.545 E22.6807
G1 X132.598 Y137.31 E22.71119
G1 X132.144 Y137.866 E22.73506
G1 X131.226 Y138.761 E22.7777
G1 X130.685 Y139.174 E22.80034
G1 X129.505 Y139.868 E22.84587
G1 X128.337 Y140.349 E22.88789
G1 X127.741 Y140.509 E22.90841
G1 X125.959 Y140.742 E22.96819
G1 X108.465 Y140.704 E23.55004
G1 X107.385 Y140.54 E23.58637
G1 X106.702 Y140.358 E23.60988
G1 X104.905 Y139.553 E23.67537
G1 X104.139 Y139.047 E23.70591
G1 X103.516 Y138.532 E23.73279
G1 X102.746 Y137.741 E23.76951
G1 X102.195 Y137.018 E23.79974
G1 X101.681 Y136.155 E23.83315
G1 X101.078 Y134.686 E23.88597
G1 X100.872 Y133.878 E23.9137
G1 X100.705 Y132.316 E23.96595
G1 X100.73 Y130.586 E24.02349
G1 X100.882 Y129.48 E24.06063
G1 X101.192 Y128.367 E24.09905
G1 X101.291 Y128.14 E24.10729
G1 X101.078 Y127.586 E24.12703
G1 X100.872 Y126.778 E24.15477
G1 X100.705 Y125.216 E24.20701
G1 X100.73 Y123.486 E24.26456
G1 X100.882 Y122.38 E24.30169
G1 X101.192 Y121.267 E24.34012
G1 X101.291 Y121.04 E24.34836
G1 X101.078 Y120.486 E24.3681
G1 X100.872 Y119.678 E24.39583
G1 X100.705 Y118.116 E24.44808
G1 X100.73 Y116.386 E24.50563
G1 X100.882 Y115.28 E24.54276
G1 X101.192 Y114.167 E24.58118
G1 X101.291 Y113.94 E24.58942
G1 X101.078 Y113.386 E24.60916
G1 X100.872 Y112.578 E24.6369
G1 X100.705 Y111.016 E24.68914
G1 X100.73 Y109.286 E24.74669
G1 X100.882 Y108.18 E24.78382
G1 X101.192 Y107.067 E24.82225
G1 X101.291 Y106.84 E24.83049
G1 X101.078 Y106.286 E24.85023
G1 X100.872 Y105.478 E24.87796
G1 X100.705 Y103.916 E24.93021
G1 X100.733 Y102.139 E24.98932
G1 X100.87 Y101.135 E25.02302
G1 X101.136 Y100.133 E25.0575
G1 X101.897 Y98.455 E25.11879
G1 X102.403 Y97.689 E25.14932
G1 X102.918 Y97.066 E25.1762
G0 F6000 X103.197 Y97.353
G1 F1200 X103.988 Y96.583 E25.21292
G1 X104.646 Y96.085 E25.24037
G1 X105.663 Y95.494 E25.27949
G1 X106.607 Y95.103 E25.31347
G1 X108.109 Y94.728 E25.36496
G1 X108.556 Y94.679 E25.37992
G1 X125.895 Y94.654 E25.95662
G1 X127.429 Y94.842 E26.00802
G1 X128.806 Y95.256 E26.05584
G1 X129.831 Y95.756 E26.09378
G1 X130.607 Y96.262 E26.12459
