;FLAVOR:Marlin
;TIME:2590
;Filament used: 1.40148m
;Layer height: 0.12
;MINX:70.515
;MINY:90.899
;MINZ:0.2
;MAXX:179.99
;MAXY:128.376
;MAXZ:7.64
;TARGET_MACHINE.NAME:Creality Ender-3
;Generated with Cura_SteamEngine 5.11.0
M140 S60
M105
M190 S60
M104 S200
M105
M109 S200
; Ender 3 Custom Start G-code
G92 E0 ; Reset Extruder
G28 ; Home all axes
G1 Z2.0 F3000 ; Move Z Axis up little to prevent scratching of Heat Bed
G1 X0.1 Y20 Z0.3 F5000.0 ; Move to start position
G1 X0.1 Y200.0 Z0.3 F1500.0 E15 ; Draw the first line
G1 X0.4 Y200.0 Z0.3 F5000.0 ; Move to side a little
G1 X0.4 Y20 Z0.3 F1500.0 E30 ; Draw the second line
G92 E0 ; Reset Extruder
G1 Z2.0 F3000 ; Move Z Axis up little to prevent scratching of Heat Bed
G1 X5 Y20 Z0.3 F5000.0 ; Move over to prevent blob squish
M82 ;absolute extrusion mode
G92 E0
G92 E0
G1 F2700 E-5
;LAYER_COUNT:63
;LAYER:0
M107
G0 F6000 X73.168 Y93.038 Z0.2
;TYPE:SKIRT
G1 F2700 E0
G1 F1200 X75.677 Y91.423 E0.09924
G1 X78.139 Y90.899 E0.18296
G1 X156.978 Y90.899 E2.80516
G1 X158.79 Y91.361 E2.86735
G1 X160.263 Y91.926 E2.91983
G1 X162.001 Y93.283 E2.99317
G1 X163.459 Y95.101 E3.07068
G1 X164.394 Y94.814 E3.10321
G1 X166.248 Y94.518 E3.16565
G1 X167.044 Y94.494 E3.19214
G1 X169.838 Y94.529 E3.28508
G1 X170.605 Y94.615 E3.31075
G1 X171.89 Y94.888 E3.35444
G1 X172.781 Y95.168 E3.3855
G1 X173.459 Y95.446 E3.40988
G1 X174.785 Y96.151 E3.45982
G1 X175.601 Y96.706 E3.49265
G1 X176.2 Y97.191 E3.51828
G1 X177.653 Y98.71 E3.5882
G1 X177.989 Y99.165 E3.60701
G1 X178.786 Y100.512 E3.65906
G1 X179.364 Y101.84 E3.70724
G1 X179.588 Y102.555 E3.73216
G1 X179.973 Y104.848 E3.80949
G1 X179.99 Y105.475 E3.83035
G1 X179.96 Y114.174 E4.11968
G1 X179.833 Y115.356 E4.15922
G1 X179.694 Y116.023 E4.18188
G1 X179.095 Y117.858 E4.24609
G1 X178.901 Y118.281 E4.26156
G1 X177.764 Y120.132 E4.33382
G1 X177.375 Y120.619 E4.35455
G1 X175.68 Y122.225 E4.43221
G1 X175.163 Y122.594 E4.45334
G1 X173.713 Y123.419 E4.50882
G1 X172.515 Y123.907 E4.55185
G1 X171.645 Y124.163 E4.58201
G1 X169.633 Y124.477 E4.64974
G1 X168.981 Y124.494 E4.67143
G1 X166.32 Y124.464 E4.75994
G1 X165.351 Y124.365 E4.79234
G1 X163.777 Y124.014 E4.84598
G1 X163.506 Y123.921 E4.85551
G1 X163.156 Y124.682 E4.88337
G1 X161.611 Y126.347 E4.95891
G1 X160.317 Y127.28 E5.01197
G1 X158.304 Y128.162 E5.08507
G1 X156.905 Y128.34 E5.13198
G1 X78.002 Y128.376 E7.7563
G1 X76.39 Y128.039 E7.81108
G1 X74.757 Y127.28 E7.87097
G1 X73.583 Y126.564 E7.91671
G1 X72.07 Y124.916 E7.99111
G1 X71.002 Y123.06 E8.06234
G1 X70.515 Y120.807 E8.139
G1 X70.516 Y98.306 E8.88739
G1 X71.021 Y96.461 E8.95101
G1 X71.572 Y95.072 E9.00071
G1 X73.168 Y93.038 E9.0867
G0 F6000 X73.443 Y93.336
G1 F1200 X75.831 Y91.799 E9.18116
G1 X78.18 Y91.299 E9.26104
G1 X156.926 Y91.299 E11.88014
G1 X158.691 Y91.749 E11.94072
G1 X160.065 Y92.278 E11.98969
G1 X161.718 Y93.569 E12.05945
G1 X163.083 Y95.271 E12.13201
G1 X163.226 Y95.592 E12.1437
G1 X164.458 Y95.209 E12.18661
G1 X166.26 Y94.918 E12.24732
G1 X167.039 Y94.894 E12.27325
G1 X169.793 Y94.927 E12.36485
G1 X170.56 Y95.013 E12.39052
G1 X171.77 Y95.27 E12.43166
G1 X172.661 Y95.55 E12.46273
G1 X173.271 Y95.799 E12.48464
G1 X174.597 Y96.504 E12.53459
G1 X175.349 Y97.017 E12.56487
G1 X175.948 Y97.502 E12.5905
G1 X177.331 Y98.948 E12.65705
G1 X177.667 Y99.403 E12.67587
G1 X178.441 Y100.715 E12.72653
G1 X178.982 Y101.96 E12.77168
G1 X179.206 Y102.675 E12.7966
G1 X179.573 Y104.859 E12.87026
G1 X179.59 Y105.474 E12.89072
G1 X179.562 Y114.132 E13.17869
G1 X179.441 Y115.274 E13.21689
G1 X179.302 Y115.941 E13.23955
G1 X178.731 Y117.691 E13.30077
G1 X178.537 Y118.114 E13.31625
G1 X177.451 Y119.882 E13.38526
G1 X177.062 Y120.369 E13.40599
G1 X175.448 Y121.899 E13.47996
G1 X174.931 Y122.268 E13.50109
G1 X173.562 Y123.049 E13.55351
G1 X172.402 Y123.523 E13.59519
G1 X171.532 Y123.779 E13.62535
G1 X169.622 Y124.077 E13.68965
G1 X168.985 Y124.094 E13.71084
G1 X166.361 Y124.066 E13.79812
G1 X165.392 Y123.967 E13.83052
G1 X163.907 Y123.636 E13.88112
G1 X163.294 Y123.426 E13.90267
G1 X162.82 Y124.456 E13.94038
G1 X161.344 Y126.046 E14.01254
G1 X160.117 Y126.932 E14.06288
G1 X158.199 Y127.772 E14.13252
G1 X156.855 Y127.943 E14.17758
G1 X78.046 Y127.976 E16.79878
G1 X76.515 Y127.656 E16.8508
G1 X74.965 Y126.938 E16.90762
G1 X73.838 Y126.251 E16.95152
G1 X72.395 Y124.679 E17.02249
G1 X71.38 Y122.915 E17.09018
G1 X70.915 Y120.764 E17.16338
G1 X70.916 Y98.36 E17.90854
G1 X71.393 Y96.609 E17.9689
G1 X71.923 Y95.273 E18.0167
G1 X73.443 Y93.336 E18.09859
G0 F6000 X73.718 Y93.634
G1 F1200 X75.985 Y92.175 E18.18826
G1 X78.221 Y91.699 E18.2643
G1 X156.874 Y91.699 E20.88031
G1 X158.592 Y92.137 E20.93927
G1 X159.867 Y92.631 E20.98475
G1 X161.435 Y93.855 E21.05091
G1 X162.771 Y95.521 E21.12194
G1 X162.999 Y96.124 E21.14338
G1 X163.346 Y95.974 E21.15596
G1 X164.523 Y95.604 E21.19699
G1 X166.273 Y95.318 E21.25597
G1 X167.034 Y95.294 E21.28129
G1 X169.748 Y95.325 E21.37157
G1 X170.515 Y95.411 E21.39724
G1 X171.65 Y95.652 E21.43583
G1 X172.541 Y95.932 E21.46689
G1 X173.084 Y96.153 E21.48639
G1 X174.372 Y96.835 E21.53486
G1 X175.097 Y97.328 E21.56403
G1 X175.696 Y97.813 E21.58966
G1 X177.009 Y99.186 E21.65285
G1 X177.345 Y99.641 E21.67166
G1 X178.074 Y100.875 E21.71933
G1 X178.6 Y102.08 E21.76306
G1 X178.824 Y102.795 E21.78798
G1 X179.173 Y104.87 E21.85796
G1 X179.19 Y105.473 E21.87803
G1 X179.164 Y114.09 E22.16463
G1 X179.049 Y115.192 E22.20148
G1 X178.91 Y115.859 E22.22414
G1 X178.367 Y117.524 E22.28239
G1 X178.173 Y117.947 E22.29787
G1 X177.138 Y119.632 E22.36364
G1 X176.749 Y120.119 E22.38437
G1 X175.215 Y121.574 E22.45469
G1 X174.732 Y121.921 E22.47448
G1 X173.41 Y122.679 E22.52516
G1 X172.289 Y123.139 E22.56546
G1 X171.419 Y123.395 E22.59562
G1 X169.611 Y123.677 E22.65649
G1 X168.989 Y123.694 E22.67718
G1 X166.402 Y123.668 E22.76323
G1 X165.433 Y123.569 E22.79563
G1 X164.037 Y123.258 E22.8432
G1 X163.38 Y123.033 E22.86629
G1 X163.095 Y122.902 E22.87673
G1 X162.484 Y124.23 E22.92535
G1 X161.077 Y125.746 E22.99414
G1 X159.917 Y126.584 E23.04174
G1 X158.094 Y127.382 E23.10792
G1 X156.805 Y127.546 E23.15114
G1 X78.09 Y127.576 E25.76921
G1 X76.64 Y127.273 E25.81848
G1 X75.173 Y126.596 E25.87222
G1 X74.093 Y125.938 E25.91428
G1 X72.721 Y124.443 E25.98177
G1 X71.757 Y122.768 E26.04605
G1 X71.315 Y120.722 E26.11567
G1 X71.316 Y98.414 E26.85764
G1 X71.765 Y96.757 E26.91474
G1 X72.274 Y95.474 E26.96065
G1 X73.718 Y93.634 E27.03844
G0 F6000 X73.993 Y93.932
G1 F1200 X76.139 Y92.551 E27.12332
G1 X78.262 Y92.099 E27.19551
G1 X156.822 Y92.099 E29.80843
G1 X158.493 Y92.525 E29.86578
G1 X159.669 Y92.983 E29.90776
G1 X161.152 Y94.141 E29.97034
G1 X162.419 Y95.721 E30.0377
G1 X162.774 Y96.659 E30.07106
G1 X163.466 Y96.356 E30.09618
G1 X164.643 Y95.986 E30.13722
G1 X166.286 Y95.718 E30.19259
G1 X167.03 Y95.694 E30.21735
G1 X169.703 Y95.723 E30.30626
G1 X170.47 Y95.809 E30.33193
G1 X171.567 Y96.043 E30.36923
G1 X172.391 Y96.303 E30.39797
G1 X172.897 Y96.507 E30.41612
G1 X174.185 Y97.189 E30.46459
G1 X174.845 Y97.639 E30.49116
G1 X175.444 Y98.124 E30.51679
G1 X176.687 Y99.424 E30.57662
G1 X177.023 Y99.879 E30.59543
G1 X177.708 Y101.036 E30.64015
G1 X178.218 Y102.2 E30.68242
G1 X178.442 Y102.915 E30.70734
G1 X178.773 Y104.882 E30.77368
G1 X178.79 Y105.472 E30.79331
G1 X178.766 Y114.049 E31.07859
G1 X178.657 Y115.11 E31.11406
G1 X178.518 Y115.777 E31.13672
G1 X178.003 Y117.357 E31.19199
G1 X177.809 Y117.78 E31.20747
G1 X176.825 Y119.382 E31.27
G1 X176.436 Y119.869 E31.29073
G1 X174.981 Y121.25 E31.35746
G1 X174.532 Y121.574 E31.37587
G1 X173.257 Y122.309 E31.42482
G1 X172.176 Y122.755 E31.46371
G1 X171.306 Y123.011 E31.49388
G1 X169.6 Y123.277 E31.5513
G1 X168.993 Y123.294 E31.5715
G1 X166.443 Y123.27 E31.65632
G1 X165.474 Y123.171 E31.68871
G1 X164.166 Y122.879 E31.73329
G1 X163.547 Y122.669 E31.75503
G1 X162.899 Y122.372 E31.77874
G1 X162.148 Y124.004 E31.83849
G1 X160.81 Y125.446 E31.90392
G1 X159.717 Y126.236 E31.94877
G1 X157.989 Y126.992 E32.01151
G1 X156.755 Y127.149 E32.05288
G1 X78.134 Y127.176 E34.66783
G1 X76.766 Y126.89 E34.71431
G1 X75.381 Y126.254 E34.765
G1 X74.348 Y125.625 E34.80523
G1 X73.047 Y124.207 E34.86923
G1 X72.134 Y122.621 E34.9301
G1 X71.715 Y120.68 E34.99614
G1 X71.716 Y98.466 E35.73498
G1 X72.137 Y96.905 E35.78876
G1 X72.625 Y95.675 E35.83277
G1 X73.993 Y93.932 E35.90647
G0 F6000 X74.268 Y94.23
G1 F1200 X76.293 Y92.927 E35.98656
G1 X78.303 Y92.499 E36.05491
G1 X156.771 Y92.499 E38.66476
G1 X158.348 Y92.898 E38.71887
G1 X159.471 Y93.335 E38.75895
G1 X160.869 Y94.427 E38.81795
G1 X162.067 Y95.921 E38.88164
G1 X162.557 Y97.216 E38.92769
G1 X162.784 Y97.091 E38.93631
G1 X163.586 Y96.738 E38.96546
G1 X164.763 Y96.368 E39.00649
G1 X166.299 Y96.118 E39.05825
G1 X167.026 Y96.094 E39.08245
G1 X169.658 Y96.121 E39.16999
G1 X170.425 Y96.207 E39.19566
G1 X171.447 Y96.425 E39.23042
G1 X172.243 Y96.675 E39.25817
G1 X172.71 Y96.861 E39.27489
G1 X173.96 Y97.52 E39.32189
G1 X174.593 Y97.95 E39.34734
G1 X175.192 Y98.435 E39.37297
G1 X176.365 Y99.662 E39.42943
G1 X176.701 Y100.117 E39.44824
G1 X177.363 Y101.239 E39.49157
G1 X177.836 Y102.32 E39.53082
G1 X178.06 Y103.035 E39.55574
G1 X178.373 Y104.894 E39.61844
G1 X178.39 Y105.471 E39.63764
G1 X178.368 Y114.009 E39.92162
G1 X178.265 Y115.028 E39.95568
G1 X178.126 Y115.695 E39.97834
G1 X177.639 Y117.19 E40.03064
G1 X177.445 Y117.613 E40.04612
G1 X176.512 Y119.132 E40.10541
G1 X176.123 Y119.619 E40.12614
G1 X174.746 Y120.926 E40.18928
G1 X174.332 Y121.227 E40.20631
G1 X173.057 Y121.962 E40.25526
G1 X172.063 Y122.371 E40.291
G1 X171.193 Y122.627 E40.32117
G1 X169.589 Y122.877 E40.37516
G1 X168.997 Y122.894 E40.39486
G1 X166.483 Y122.872 E40.47848
G1 X165.56 Y122.78 E40.50933
G1 X164.295 Y122.5 E40.55242
G1 X163.676 Y122.29 E40.57416
G1 X162.632 Y121.808 E40.61241
G1 X162.559 Y122.156 E40.62423
G1 X161.812 Y123.778 E40.68363
G1 X160.543 Y125.146 E40.74569
G1 X159.517 Y125.888 E40.7878
G1 X157.884 Y126.602 E40.84708
G1 X156.705 Y126.752 E40.88661
G1 X78.178 Y126.776 E43.49843
G1 X76.892 Y126.507 E43.54213
G1 X75.548 Y125.89 E43.59132
G1 X74.604 Y125.313 E43.62812
G1 X73.373 Y123.971 E43.68868
G1 X72.511 Y122.474 E43.74614
G1 X72.115 Y120.638 E43.80861
G1 X72.116 Y98.518 E44.54432
G1 X72.509 Y97.053 E44.59477
G1 X72.976 Y95.876 E44.63689
G1 X74.268 Y94.23 E44.70649
G0 F6000 X74.543 Y94.528
G1 F1200 X76.447 Y93.303 E44.78179
G1 X78.344 Y92.899 E44.8463
G1 X156.72 Y92.899 E47.45309
G1 X158.25 Y93.286 E47.50558
G1 X159.271 Y93.686 E47.54206
G1 X160.586 Y94.713 E47.59755
G1 X161.715 Y96.121 E47.65758
G1 X162.348 Y97.793 E47.71704
G1 X162.946 Y97.457 E47.73985
G1 X163.706 Y97.12 E47.76751
G1 X164.883 Y96.75 E47.80854
G1 X166.313 Y96.518 E47.85672
G1 X167.022 Y96.494 E47.88032
G1 X169.613 Y96.519 E47.9665
G1 X170.38 Y96.605 E47.99217
G1 X171.363 Y96.816 E48.02561
G1 X172.095 Y97.047 E48.05114
G1 X172.562 Y97.233 E48.06786
G1 X173.736 Y97.851 E48.11199
G1 X174.341 Y98.261 E48.13629
G1 X174.94 Y98.746 E48.16193
G1 X176.043 Y99.9 E48.21502
G1 X176.379 Y100.355 E48.23384
G1 X176.997 Y101.4 E48.27422
G1 X177.454 Y102.44 E48.312
G1 X177.678 Y103.155 E48.33692
G1 X177.973 Y104.906 E48.39598
G1 X177.99 Y105.47 E48.41475
G1 X177.97 Y113.969 E48.69743
G1 X177.873 Y114.946 E48.73008
G1 X177.734 Y115.613 E48.75274
G1 X177.275 Y117.023 E48.80206
G1 X177.081 Y117.446 E48.81754
G1 X176.199 Y118.882 E48.87359
G1 X175.81 Y119.369 E48.89432
G1 X174.511 Y120.602 E48.95389
G1 X174.097 Y120.903 E48.97091
G1 X172.904 Y121.592 E49.01673
G1 X171.95 Y121.987 E49.05108
G1 X171.08 Y122.243 E49.08124
G1 X169.577 Y122.477 E49.13183
G1 X169 Y122.494 E49.15103
G1 X166.523 Y122.474 E49.23342
G1 X165.6 Y122.382 E49.26427
G1 X164.424 Y122.121 E49.30434
G1 X163.805 Y121.911 E49.32608
G1 X162.657 Y121.379 E49.36816
G1 X162.353 Y121.19 E49.38007
G1 X162.177 Y122.029 E49.40858
G1 X161.476 Y123.552 E49.46434
G1 X160.278 Y124.843 E49.52292
G1 X159.318 Y125.538 E49.56234
G1 X157.776 Y126.212 E49.61831
G1 X156.654 Y126.355 E49.65593
G1 X78.222 Y126.376 E52.26459
G1 X77.018 Y126.124 E52.3055
G1 X75.715 Y125.526 E52.35319
G1 X74.861 Y125.001 E52.38653
G1 X73.698 Y123.734 E52.44373
G1 X72.889 Y122.328 E52.49768
G1 X72.515 Y120.596 E52.55662
G1 X72.516 Y98.573 E53.28911
G1 X72.881 Y97.201 E53.33633
G1 X73.327 Y96.077 E53.37655
G1 X74.543 Y94.528 E53.44205
G0 F6000 X74.818 Y94.826
G1 F1200 X76.601 Y93.679 E53.51256
G1 X78.385 Y93.299 E53.57323
G1 X156.669 Y93.299 E56.17696
G1 X158.152 Y93.674 E56.22784
G1 X159.072 Y94.038 E56.26075
G1 X160.303 Y94.999 E56.31269
G1 X161.363 Y96.321 E56.36905
G1 X162.069 Y98.186 E56.43537
G1 X162.095 Y98.443 E56.44397
G1 X162.434 Y98.204 E56.45776
G1 X163.109 Y97.822 E56.48356
G1 X163.826 Y97.502 E56.50967
G1 X165.003 Y97.132 E56.55071
G1 X166.327 Y96.918 E56.59532
G1 X167.018 Y96.894 E56.61831
G1 X169.568 Y96.917 E56.70313
G1 X170.335 Y97.003 E56.7288
G1 X171.278 Y97.207 E56.76089
G1 X171.947 Y97.419 E56.78423
G1 X172.414 Y97.605 E56.80095
G1 X173.512 Y98.182 E56.84221
G1 X174.089 Y98.572 E56.86537
G1 X174.688 Y99.057 E56.891
G1 X175.721 Y100.138 E56.94074
G1 X176.057 Y100.593 E56.95955
G1 X176.652 Y101.603 E56.99854
G1 X177.072 Y102.56 E57.0333
G1 X177.296 Y103.275 E57.05822
G1 X177.573 Y104.918 E57.11363
G1 X177.59 Y105.469 E57.13197
G1 X177.572 Y113.93 E57.41338
G1 X177.481 Y114.864 E57.4446
G1 X177.342 Y115.531 E57.46726
G1 X176.911 Y116.856 E57.5136
G1 X176.717 Y117.279 E57.52908
G1 X175.886 Y118.632 E57.58189
G1 X175.497 Y119.119 E57.60262
G1 X174.276 Y120.278 E57.65861
G1 X173.862 Y120.579 E57.67564
G1 X172.75 Y121.223 E57.71838
G1 X171.837 Y121.603 E57.75127
G1 X170.967 Y121.859 E57.78143
G1 X169.565 Y122.077 E57.82862
G1 X169.003 Y122.094 E57.84732
G1 X166.563 Y122.076 E57.92848
G1 X165.64 Y121.984 E57.95933
G1 X164.553 Y121.742 E57.99637
G1 X163.934 Y121.532 E58.01811
G1 X162.868 Y121.039 E58.05718
G1 X162.08 Y120.549 E58.08804
G1 X161.795 Y121.903 E58.13406
G1 X161.14 Y123.326 E58.18616
G1 X160.013 Y124.541 E58.24128
G1 X159.119 Y125.188 E58.27799
G1 X157.668 Y125.822 E58.33065
G1 X156.603 Y125.958 E58.36636
G1 X78.266 Y125.976 E60.97186
G1 X77.142 Y125.741 E61.01005
G1 X75.924 Y125.185 E61.05459
G1 X75.12 Y124.691 E61.08597
G1 X74.023 Y123.496 E61.13992
G1 X73.266 Y122.181 E61.19039
G1 X72.915 Y120.554 E61.24575
G1 X72.916 Y98.626 E61.97508
G1 X73.253 Y97.349 E62.01901
G1 X73.678 Y96.278 E62.05733
G1 X74.818 Y94.826 E62.11873
G0 F6000 X75.093 Y95.124
G1 F1200 X76.755 Y94.055 E62.18445
G1 X78.426 Y93.699 E62.24128
G1 X156.619 Y93.699 E64.84199
G1 X158.005 Y94.046 E64.88951
G1 X158.872 Y94.389 E64.92052
G1 X160.02 Y95.285 E64.96896
G1 X161.011 Y96.521 E65.02165
G1 X161.695 Y98.328 E65.08591
G1 X161.695 Y99.219 E65.11555
G1 X162.632 Y98.552 E65.1538
G1 X163.273 Y98.187 E65.17833
G1 X163.946 Y97.884 E65.20288
G1 X165.123 Y97.514 E65.24392
G1 X166.341 Y97.318 E65.28495
G1 X167.015 Y97.294 E65.30738
G1 X169.523 Y97.315 E65.3908
G1 X170.29 Y97.401 E65.41647
G1 X171.158 Y97.589 E65.44601
G1 X171.799 Y97.791 E65.46836
G1 X172.266 Y97.977 E65.48508
G1 X173.289 Y98.514 E65.52351
G1 X173.837 Y98.883 E65.54549
G1 X174.436 Y99.368 E65.57112
G1 X175.399 Y100.376 E65.61749
G1 X175.735 Y100.831 E65.6363
G1 X176.286 Y101.765 E65.67237
G1 X176.69 Y102.68 E65.70563
G1 X176.914 Y103.395 E65.73056
G1 X177.173 Y104.931 E65.78236
G1 X177.19 Y105.468 E65.80023
G1 X177.174 Y113.892 E66.08042
G1 X177.089 Y114.784 E66.11022
G1 X176.961 Y115.408 E66.13141
G1 X176.547 Y116.689 E66.17618
G1 X176.353 Y117.112 E66.19166
G1 X175.573 Y118.382 E66.24123
G1 X175.184 Y118.869 E66.26196
G1 X174.041 Y119.954 E66.31438
G1 X173.627 Y120.255 E66.3314
G1 X172.596 Y120.854 E66.37106
G1 X171.724 Y121.219 E66.4025
G1 X170.854 Y121.475 E66.43267
G1 X169.553 Y121.677 E66.47646
G1 X169.006 Y121.694 E66.49466
G1 X166.603 Y121.678 E66.57458
G1 X165.68 Y121.586 E66.60544
G1 X164.682 Y121.363 E66.63945
G1 X164.063 Y121.153 E66.66119
G1 X163.079 Y120.699 E66.69723
G1 X162.238 Y120.176 E66.73017
G1 X161.685 Y119.748 E66.75343
G1 X161.685 Y120.507 E66.77867
G1 X161.413 Y121.778 E66.8219
G1 X160.804 Y123.1 E66.87032
G1 X159.746 Y124.241 E66.92207
G1 X158.922 Y124.837 E66.95589
