;FLAVOR:Marlin
;TIME:2648
;Filament used: 1.60914m
;Layer height: 0.12
;MINX:70.511
;MINY:98.761
;MINZ:0.2
;MAXX:164.489
;MAXY:136.239
;MAXZ:8
;TARGET_MACHINE.NAME:Creality Ender-3
;Generated with Cura_SteamEngine 5.11.0
M140 S60
M105
M190 S60
M104 S200
M105
M109 S200
; Ender 3 Custom Start G-code
G92 E0 ; Reset Extruder
G28 ; Home all axes
G1 Z2.0 F3000 ; Move Z Axis up little to prevent scratching of Heat Bed
G1 X0.1 Y20 Z0.3 F5000.0 ; Move to start position
G1 X0.1 Y200.0 Z0.3 F1500.0 E15 ; Draw the first line
G1 X0.4 Y200.0 Z0.3 F5000.0 ; Move to side a little
G1 X0.4 Y20 Z0.3 F1500.0 E30 ; Draw the second line
G92 E0 ; Reset Extruder
G1 Z2.0 F3000 ; Move Z Axis up little to prevent scratching of Heat Bed
G1 X5 Y20 Z0.3 F5000.0 ; Move over to prevent blob squish
M82 ;absolute extrusion mode
G92 E0
G92 E0
G1 F2700 E-5
;LAYER_COUNT:66
;LAYER:0
M107
G0 F6000 X73.931 Y100.345 Z0.2
;TYPE:SKIRT
G1 F2700 E0
G1 F1200 X75.859 Y99.242 E0.07388
G1 X78.104 Y98.765 E0.15021
G1 X156.805 Y98.761 E2.76782
G1 X158.688 Y99.141 E2.83171
G1 X160.751 Y100.062 E2.90685
G1 X162.474 Y101.643 E2.98463
G1 X163.425 Y102.988 E3.03942
G1 X164.096 Y104.643 E3.09882
G1 X164.488 Y106.019 E3.1464
G1 X164.489 Y128.694 E3.90058
G1 X164.129 Y130.413 E3.95899
G1 X163.445 Y131.892 E4.01319
G1 X162.674 Y133.159 E4.06252
G1 X161.069 Y134.655 E4.13549
G1 X159.141 Y135.758 E4.20937
G1 X156.896 Y136.235 E4.28571
G1 X78.056 Y136.239 E6.90794
G1 X76.337 Y135.879 E6.96635
G1 X74.858 Y135.195 E7.02055
G1 X73.591 Y134.424 E7.06988
G1 X72.095 Y132.819 E7.14285
G1 X70.992 Y130.891 E7.21673
G1 X70.515 Y128.646 E7.29307
G1 X70.511 Y106.306 E8.0361
G1 X70.871 Y104.587 E8.09451
G1 X71.555 Y103.108 E8.14871
G1 X72.326 Y101.841 E8.19804
G1 X73.931 Y100.345 E8.27102
G0 F6000 X74.172 Y100.668
G1 F1200 X76.004 Y99.62 E8.34122
G1 X78.145 Y99.165 E8.41402
G1 X156.766 Y99.161 E11.02896
G1 X158.566 Y99.524 E11.09003
G1 X160.526 Y100.399 E11.16143
G1 X162.175 Y101.913 E11.23588
G1 X163.07 Y103.177 E11.28739
G1 X163.711 Y104.753 E11.34398
G1 X164.088 Y106.076 E11.38974
G1 X164.089 Y128.655 E12.14072
G1 X163.747 Y130.286 E12.19614
G1 X163.103 Y131.684 E12.24734
G1 X162.361 Y132.903 E12.2948
G1 X160.828 Y134.332 E12.36451
G1 X158.996 Y135.38 E12.43471
G1 X156.855 Y135.835 E12.50751
G1 X78.095 Y135.839 E15.12707
G1 X76.464 Y135.497 E15.1825
G1 X75.066 Y134.853 E15.2337
G1 X73.847 Y134.111 E15.28116
G1 X72.418 Y132.578 E15.35086
G1 X71.37 Y130.746 E15.42106
G1 X70.915 Y128.605 E15.49386
G1 X70.911 Y106.345 E16.23423
G1 X71.253 Y104.714 E16.28966
G1 X71.897 Y103.316 E16.34085
G1 X72.639 Y102.097 E16.38832
G1 X74.172 Y100.668 E16.45802
G0 F6000 X74.413 Y100.991
G1 F1200 X76.149 Y99.998 E16.52454
G1 X78.186 Y99.565 E16.59381
G1 X156.727 Y99.561 E19.20609
G1 X158.444 Y99.907 E19.26435
G1 X160.303 Y100.737 E19.33206
G1 X161.872 Y102.177 E19.40289
G1 X162.716 Y103.37 E19.4515
G1 X163.34 Y104.904 E19.50658
G1 X163.688 Y106.132 E19.54903
G1 X163.689 Y128.616 E20.29685
G1 X163.366 Y130.156 E20.34919
G1 X162.761 Y131.476 E20.39748
G1 X162.048 Y132.647 E20.44308
G1 X160.587 Y134.009 E20.50951
G1 X158.851 Y135.002 E20.57603
G1 X156.814 Y135.435 E20.6453
G1 X78.134 Y135.439 E23.2622
G1 X76.594 Y135.116 E23.31454
G1 X75.274 Y134.511 E23.36283
G1 X74.103 Y133.798 E23.40843
G1 X72.741 Y132.337 E23.47487
G1 X71.748 Y130.601 E23.54138
G1 X71.315 Y128.564 E23.61065
G1 X71.311 Y106.384 E24.34836
G1 X71.634 Y104.844 E24.40069
G1 X72.239 Y103.524 E24.44899
G1 X72.952 Y102.353 E24.49459
G1 X74.413 Y100.991 E24.56102
G0 F6000 X74.654 Y101.314
G1 F1200 X76.294 Y100.376 E24.62386
G1 X78.227 Y99.965 E24.68959
G1 X156.688 Y99.961 E27.29921
G1 X158.322 Y100.29 E27.35465
G1 X160.078 Y101.074 E27.41861
G1 X161.57 Y102.444 E27.48598
G1 X162.364 Y103.566 E27.5317
G1 X162.955 Y105.013 E27.58369
G1 X163.288 Y106.188 E27.62431
G1 X163.289 Y128.577 E28.36897
G1 X162.985 Y130.026 E28.41821
G1 X162.397 Y131.309 E28.46515
G1 X161.736 Y132.39 E28.5073
G1 X160.346 Y133.686 E28.5705
G1 X158.706 Y134.624 E28.63334
G1 X156.773 Y135.035 E28.69907
G1 X78.173 Y135.039 E31.31332
G1 X76.724 Y134.735 E31.36256
G1 X75.441 Y134.147 E31.4095
G1 X74.36 Y133.486 E31.45165
G1 X73.064 Y132.096 E31.51485
G1 X72.126 Y130.456 E31.57769
G1 X71.715 Y128.523 E31.64342
G1 X71.711 Y106.423 E32.37847
G1 X72.015 Y104.974 E32.42771
G1 X72.603 Y103.691 E32.47466
G1 X73.264 Y102.61 E32.5168
G1 X74.654 Y101.314 E32.58001
G0 F6000 X74.895 Y101.637
G1 F1200 X76.439 Y100.754 E32.63917
G1 X78.268 Y100.365 E32.70136
G1 X156.649 Y100.361 E35.30832
G1 X158.2 Y100.673 E35.36094
G1 X159.855 Y101.412 E35.42123
G1 X161.267 Y102.708 E35.48497
G1 X162.012 Y103.761 E35.52787
G1 X162.57 Y105.122 E35.5768
G1 X162.888 Y106.244 E35.61559
G1 X162.889 Y128.538 E36.35709
G1 X162.604 Y129.896 E36.40324
G1 X162.033 Y131.142 E36.44883
G1 X161.424 Y132.133 E36.48751
G1 X160.105 Y133.363 E36.5475
G1 X158.561 Y134.246 E36.60666
G1 X156.732 Y134.635 E36.66885
G1 X78.212 Y134.639 E39.28044
G1 X76.854 Y134.354 E39.32659
G1 X75.608 Y133.783 E39.37217
G1 X74.617 Y133.174 E39.41086
G1 X73.387 Y131.855 E39.47085
G1 X72.504 Y130.311 E39.53
G1 X72.115 Y128.482 E39.5922
G1 X72.111 Y106.462 E40.32459
G1 X72.396 Y105.104 E40.37074
G1 X72.967 Y103.858 E40.41632
G1 X73.576 Y102.867 E40.45501
G1 X74.895 Y101.637 E40.515
G0 F6000 X75.134 Y101.96
G1 F1200 X76.583 Y101.132 E40.5705
G1 X78.309 Y100.765 E40.62919
G1 X156.61 Y100.761 E43.23349
G1 X158.078 Y101.056 E43.2833
G1 X159.632 Y101.75 E43.3399
G1 X160.964 Y102.972 E43.40002
G1 X161.66 Y103.956 E43.44011
G1 X162.185 Y105.231 E43.48597
G1 X162.488 Y106.3 E43.52293
G1 X162.489 Y128.499 E44.26127
G1 X162.223 Y129.766 E44.30433
G1 X161.669 Y130.975 E44.34856
G1 X161.112 Y131.877 E44.38382
G1 X159.866 Y133.04 E44.44051
G1 X158.417 Y133.868 E44.49602
G1 X156.691 Y134.235 E44.55471
G1 X78.251 Y134.239 E47.16363
G1 X76.984 Y133.973 E47.20669
G1 X75.775 Y133.419 E47.25093
G1 X74.873 Y132.862 E47.28619
G1 X73.71 Y131.616 E47.34288
G1 X72.882 Y130.167 E47.39838
G1 X72.515 Y128.441 E47.45707
G1 X72.511 Y106.501 E48.1868
G1 X72.777 Y105.234 E48.22986
G1 X73.331 Y104.025 E48.27409
G1 X73.888 Y103.123 E48.30935
G1 X75.134 Y101.96 E48.36604
G0 F6000 X75.373 Y102.283
G1 F1200 X76.727 Y101.51 E48.4179
G1 X78.35 Y101.165 E48.47308
G1 X156.571 Y101.161 E51.07473
G1 X157.956 Y101.439 E51.12171
G1 X159.407 Y102.087 E51.17456
G1 X160.665 Y103.242 E51.23137
G1 X161.306 Y104.147 E51.26825
G1 X161.8 Y105.34 E51.3112
G1 X162.088 Y106.356 E51.34632
G1 X162.089 Y128.46 E52.0815
G1 X161.842 Y129.636 E52.12147
G1 X161.305 Y130.808 E52.16435
G1 X160.799 Y131.622 E52.19623
G1 X159.627 Y132.717 E52.24957
G1 X158.273 Y133.49 E52.30143
G1 X156.65 Y133.835 E52.35662
G1 X78.29 Y133.839 E54.96288
G1 X77.114 Y133.592 E55.00285
G1 X75.942 Y133.055 E55.04573
G1 X75.128 Y132.549 E55.07761
G1 X74.033 Y131.377 E55.13095
G1 X73.26 Y130.023 E55.18281
G1 X72.915 Y128.4 E55.238
G1 X72.911 Y106.54 E55.96506
G1 X73.158 Y105.364 E56.00503
G1 X73.695 Y104.192 E56.04791
G1 X74.201 Y103.378 E56.07979
G1 X75.373 Y102.283 E56.13313
G0 F6000 X75.613 Y102.606
G1 F1200 X76.87 Y101.888 E56.18128
G1 X78.391 Y101.565 E56.233
G1 X156.532 Y101.561 E58.83198
G1 X157.834 Y101.822 E58.87615
G1 X159.184 Y102.425 E58.92532
G1 X160.362 Y103.506 E58.9785
G1 X160.955 Y104.344 E59.01264
G1 X161.415 Y105.449 E59.05245
G1 X161.688 Y106.412 E59.08575
G1 X161.689 Y128.421 E59.81777
G1 X161.461 Y129.506 E59.85464
G1 X160.941 Y130.641 E59.89617
G1 X160.487 Y131.366 E59.92462
G1 X159.387 Y132.394 E59.97469
G1 X158.13 Y133.112 E60.02284
G1 X156.609 Y133.435 E60.07456
G1 X78.329 Y133.439 E62.67816
G1 X77.244 Y133.211 E62.71504
G1 X76.109 Y132.691 E62.75656
G1 X75.384 Y132.237 E62.78501
G1 X74.356 Y131.137 E62.83509
G1 X73.638 Y129.88 E62.88324
G1 X73.315 Y128.359 E62.93495
G1 X73.311 Y106.579 E63.65936
G1 X73.539 Y105.494 E63.69623
G1 X74.059 Y104.359 E63.73776
G1 X74.513 Y103.634 E63.76621
G1 X75.613 Y102.606 E63.81628
G0 F6000 X75.853 Y102.929
G1 F1200 X77.013 Y102.266 E63.86072
G1 X78.432 Y101.965 E63.90897
G1 X156.493 Y101.961 E66.50529
G1 X157.712 Y102.205 E66.54664
G1 X158.959 Y102.762 E66.59206
G1 X160.063 Y103.776 E66.64192
G1 X160.601 Y104.536 E66.67289
G1 X161.03 Y105.558 E66.70975
G1 X161.288 Y106.468 E66.74121
G1 X161.289 Y128.382 E67.47008
G1 X161.08 Y129.376 E67.50386
G1 X160.577 Y130.474 E67.54403
G1 X160.177 Y131.109 E67.56899
G1 X159.147 Y132.071 E67.61587
G1 X157.987 Y132.734 E67.66031
G1 X156.568 Y133.035 E67.70855
G1 X78.368 Y133.039 E70.30949
G1 X77.374 Y132.83 E70.34328
G1 X76.276 Y132.327 E70.38345
G1 X75.641 Y131.927 E70.40841
G1 X74.679 Y130.897 E70.45528
G1 X74.016 Y129.737 E70.49972
G1 X73.715 Y128.318 E70.54797
G1 X73.711 Y106.618 E71.26971
G1 X73.92 Y105.624 E71.3035
G1 X74.423 Y104.526 E71.34367
G1 X74.823 Y103.891 E71.36863
G1 X75.853 Y102.929 E71.4155
G0 F6000 X76.091 Y103.254
G1 F1200 X77.158 Y102.644 E71.45638
G1 X78.473 Y102.365 E71.50109
G1 X156.455 Y102.361 E74.09479
G1 X157.59 Y102.588 E74.13328
G1 X158.736 Y103.1 E74.17503
G1 X159.76 Y104.04 E74.22126
G1 X160.251 Y104.734 E74.24954
G1 X160.645 Y105.667 E74.28322
G1 X160.888 Y106.524 E74.31285
G1 X160.889 Y128.343 E75.03855
G1 X160.699 Y129.246 E75.06925
G1 X160.213 Y130.307 E75.10806
G1 X159.866 Y130.852 E75.12955
G1 X158.909 Y131.746 E75.17311
G1 X157.842 Y132.356 E75.21399
G1 X156.527 Y132.635 E75.2587
G1 X78.407 Y132.639 E77.85698
G1 X77.504 Y132.449 E77.88767
G1 X76.443 Y131.963 E77.92649
G1 X75.898 Y131.616 E77.94797
G1 X75.004 Y130.659 E77.99153
G1 X74.394 Y129.592 E78.03241
G1 X74.115 Y128.277 E78.07712
G1 X74.111 Y106.657 E78.79621
G1 X74.301 Y105.754 E78.8269
G1 X74.787 Y104.693 E78.86571
G1 X75.134 Y104.148 E78.8872
G1 X76.091 Y103.254 E78.93076
G0 F6000 X76.329 Y103.579
G1 F1200 X77.303 Y103.022 E78.96808
G1 X78.514 Y102.765 E79.00925
G1 X156.417 Y102.761 E81.60032
G1 X157.468 Y102.971 E81.63597
G1 X158.511 Y103.437 E81.67396
G1 X159.461 Y104.31 E81.71687
G1 X159.898 Y104.927 E81.74202
G1 X160.26 Y105.776 E81.77272
G1 X160.488 Y106.58 E81.80051
G1 X160.489 Y128.304 E82.52306
G1 X160.318 Y129.118 E82.55072
G1 X159.875 Y130.092 E82.58631
G1 X159.554 Y130.597 E82.60621
G1 X158.671 Y131.421 E82.64638
G1 X157.697 Y131.978 E82.6837
G1 X156.486 Y132.235 E82.72488
G1 X78.446 Y132.239 E85.3205
G1 X77.632 Y132.068 E85.34816
G1 X76.658 Y131.625 E85.38375
G1 X76.153 Y131.304 E85.40365
G1 X75.329 Y130.421 E85.44382
G1 X74.772 Y129.447 E85.48114
G1 X74.515 Y128.236 E85.52232
G1 X74.511 Y106.696 E86.23874
G1 X74.682 Y105.882 E86.2664
G1 X75.125 Y104.908 E86.30199
G1 X75.446 Y104.403 E86.3219
G1 X76.329 Y103.579 E86.36207
G0 F6000 X76.57 Y103.902
G1 F1200 X77.448 Y103.4 E86.3957
G1 X78.555 Y103.165 E86.43334
G1 X156.379 Y103.161 E89.02178
G1 X157.346 Y103.354 E89.05458
G1 X158.288 Y103.775 E89.08889
G1 X159.16 Y104.577 E89.1283
G1 X159.547 Y105.123 E89.15056
G1 X159.875 Y105.885 E89.17815
G1 X160.088 Y106.636 E89.20411
G1 X160.089 Y128.265 E89.9235
G1 X159.937 Y128.99 E89.94814
G1 X159.537 Y129.878 E89.98053
G1 X159.245 Y130.338 E89.99865
G1 X158.43 Y131.098 E90.03571
G1 X157.552 Y131.6 E90.06935
G1 X156.445 Y131.835 E90.10699
G1 X78.485 Y131.839 E92.69995
G1 X77.76 Y131.687 E92.72459
G1 X76.872 Y131.287 E92.75698
G1 X76.412 Y130.995 E92.77511
G1 X75.652 Y130.18 E92.81217
G1 X75.15 Y129.302 E92.84581
G1 X74.915 Y128.195 E92.88345
G1 X74.911 Y106.735 E93.59721
G1 X75.063 Y106.01 E93.62185
G1 X75.463 Y105.122 E93.65424
G1 X75.755 Y104.662 E93.67236
G1 X76.57 Y103.902 E93.70943
G0 F6000 X76.811 Y104.225
G1 F1200 X77.593 Y103.778 E93.73939
G1 X78.596 Y103.565 E93.77349
G1 X156.341 Y103.561 E96.3593
G1 X157.224 Y103.737 E96.38925
G1 X158.065 Y104.113 E96.41989
G1 X158.857 Y104.842 E96.45569
G1 X159.196 Y105.319 E96.47515
G1 X159.49 Y105.994 E96.49964
G1 X159.688 Y106.692 E96.52377
G1 X159.689 Y128.221 E97.23983
G1 X159.554 Y128.867 E97.26178
G1 X159.172 Y129.714 E97.29268
G1 X158.936 Y130.079 E97.30714
G1 X158.189 Y130.775 E97.3411
G1 X157.407 Y131.222 E97.37106
G1 X156.404 Y131.435 E97.40516
G1 X78.529 Y131.439 E99.99529
G1 X77.883 Y131.304 E100.01724
G1 X77.036 Y130.922 E100.04815
G1 X76.671 Y130.686 E100.0626
G1 X75.975 Y129.939 E100.09656
G1 X75.528 Y129.157 E100.12652
G1 X75.315 Y128.154 E100.16062
G1 X75.311 Y106.779 E100.87156
G1 X75.446 Y106.133 E100.89351
G1 X75.828 Y105.286 E100.92441
G1 X76.064 Y104.921 E100.93887
G1 X76.811 Y104.225 E100.97283
G0 F6000 X77.049 Y104.55
G1 F1200 X77.738 Y104.156 E100.99923
G1 X78.637 Y103.965 E101.0298
G1 X156.303 Y103.961 E103.61298
G1 X157.102 Y104.12 E103.64007
G1 X157.842 Y104.451 E103.66704
G1 X158.554 Y105.107 E103.69924
G1 X158.845 Y105.516 E103.71593
G1 X159.123 Y106.154 E103.73908
G1 X159.288 Y106.746 E103.75952
G1 X159.289 Y128.177 E104.47232
G1 X159.17 Y128.746 E104.49165
G1 X158.836 Y129.497 E104.51899
G1 X158.627 Y129.821 E104.53181
G1 X157.951 Y130.45 E104.56252
G1 X157.262 Y130.844 E104.58892
G1 X156.363 Y131.035 E104.61949
G1 X78.573 Y131.039 E107.2068
G1 X78.004 Y130.92 E107.22613
G1 X77.253 Y130.586 E107.25347
G1 X76.929 Y130.377 E107.26629
G1 X76.3 Y129.701 E107.297
G1 X75.906 Y129.012 E107.3234
G1 X75.715 Y128.113 E107.35397
G1 X75.711 Y106.823 E108.06208
G1 X75.83 Y106.254 E108.08141
G1 X76.164 Y105.503 E108.10875
G1 X76.373 Y105.179 E108.12157
G1 X77.049 Y104.55 E108.15229
G0 F6000 X77.287 Y104.875
G1 F1200 X77.883 Y104.534 E108.17512
G1 X78.678 Y104.365 E108.20216
G1 X156.265 Y104.361 E110.78271
G1 X156.98 Y104.503 E110.80696
G1 X157.619 Y104.789 E110.83024
G1 X158.251 Y105.372 E110.85884
G1 X158.494 Y105.713 E110.87277
G1 X158.756 Y106.314 E110.89457
G1 X158.888 Y106.801 E110.91135
G1 X158.889 Y128.133 E111.62086
G1 X158.787 Y128.621 E111.63744
G1 X158.47 Y129.334 E111.66339
G1 X158.317 Y129.563 E111.67255
G1 X157.713 Y130.125 E111.69999
G1 X157.117 Y130.466 E111.72283
G1 X156.322 Y130.635 E111.74986
G1 X78.617 Y130.639 E114.33434
G1 X78.129 Y130.537 E114.35093
G1 X77.416 Y130.22 E114.37688
G1 X77.187 Y130.067 E114.38604
G1 X76.625 Y129.463 E114.41348
G1 X76.284 Y128.867 E114.43632
G1 X76.115 Y128.072 E114.46335
G1 X76.111 Y106.867 E115.16863
G1 X76.213 Y106.379 E115.18521
G1 X76.53 Y105.666 E115.21116
G1 X76.683 Y105.437 E115.22033
G1 X77.287 Y104.875 E115.24777
G0 F6000 X77.525 Y105.2
G1 F1200 X78.028 Y104.912 E115.26704
G1 X78.719 Y104.765 E115.29054
G1 X156.227 Y104.761 E117.86847
G1 X156.858 Y104.886 E117.88986
G1 X157.394 Y105.126 E117.90939
G1 X157.951 Y105.641 E117.93463
G1 X158.143 Y105.909 E117.94559
G1 X158.389 Y106.474 E117.96609
G1 X158.488 Y106.854 E117.97915
G1 X158.489 Y128.089 E118.68543
G1 X158.403 Y128.501 E118.69943
G1 X158.105 Y129.171 E118.72381
G1 X158.011 Y129.302 E118.72918
G1 X157.475 Y129.8 E118.75351
G1 X156.972 Y130.088 E118.77279
G1 X156.281 Y130.235 E118.79629
G1 X78.661 Y130.239 E121.37794
G1 X78.249 Y130.153 E121.39194
G1 X77.579 Y129.855 E121.41633
G1 X77.448 Y129.761 E121.42169
G1 X76.95 Y129.225 E121.44602
G1 X76.662 Y128.722 E121.4653
G1 X76.515 Y128.031 E121.4888
G1 X76.511 Y106.911 E122.19125
G1 X76.597 Y106.499 E122.20525
G1 X76.895 Y105.829 E122.22964
G1 X76.989 Y105.698 E122.235
G1 X77.525 Y105.2 E122.25934
G0 F6000 X77.763 Y105.525
G1 F1200 X78.173 Y105.29 E122.27506
G1 X78.76 Y105.165 E122.29502
G1 X156.189 Y105.161 E124.87032
G1 X156.734 Y105.269 E124.88879
G1 X157.171 Y105.465 E124.90472
G1 X157.68 Y105.935 E124.92777
G1 X157.776 Y106.069 E124.93325
G1 X158.022 Y106.634 E124.95375
G1 X158.088 Y106.906 E124.96306
G1 X158.089 Y128.05 E125.66631
G1 X158.021 Y128.374 E125.67732
G1 X157.739 Y129.009 E125.70043
G1 X157.237 Y129.475 E125.72321
G1 X156.827 Y129.71 E125.73893
G1 X156.24 Y129.835 E125.75889
G1 X78.7 Y129.839 E128.33788
G1 X78.376 Y129.771 E128.34889
G1 X77.741 Y129.489 E128.372
G1 X77.275 Y128.987 E128.39478
G1 X77.04 Y128.577 E128.4105
G1 X76.915 Y127.99 E128.43046
G1 X76.911 Y106.95 E129.13025
G1 X76.979 Y106.626 E129.14127
G1 X77.261 Y105.991 E129.16437
G1 X77.763 Y105.525 E129.18716
G0 F6000 X78.001 Y105.85
G1 F1200 X78.318 Y105.668 E129.19931
G1 X78.801 Y105.565 E129.21574
G1 X156.151 Y105.561 E131.78841
G1 X156.61 Y105.652 E131.80397
G1 X156.948 Y105.804 E131.8163
