;FLAVOR:Marlin
;TIME:5014
;Filament used: 5.3194m
;Layer height: 0.2
;MINX:75.322
;MINY:80.823
;MINZ:0.2
;MAXX:159.642
;MAXY:179.678
;MAXZ:7
;TARGET_MACHINE.NAME:Creality Ender-3
;Generated with Cura_SteamEngine 5.11.0
M140 S60
M105
M190 S60
M104 S200
M105
M109 S200
; Ender 3 Custom Start G-code
G92 E0 ; Reset Extruder
G28 ; Home all axes
G1 Z2.0 F3000 ; Move Z Axis up little to prevent scratching of Heat Bed
G1 X0.1 Y20 Z0.3 F5000.0 ; Move to start position
G1 X0.1 Y200.0 Z0.3 F1500.0 E15 ; Draw the first line
G1 X0.4 Y200.0 Z0.3 F5000.0 ; Move to side a little
G1 X0.4 Y20 Z0.3 F1500.0 E30 ; Draw the second line
G92 E0 ; Reset Extruder
G1 Z2.0 F3000 ; Move Z Axis up little to prevent scratching of Heat Bed
G1 X5 Y20 Z0.3 F5000.0 ; Move over to prevent blob squish
M82 ;absolute extrusion mode
G92 E0
G92 E0
G1 F2700 E-5
;LAYER_COUNT:35
;LAYER:0
M107
G0 F6000 X77.993 Y83.119 Z0.2
;TYPE:SKIRT
G1 F2700 E0
G1 F1200 X80.188 Y81.621 E0.08839
G1 X82.751 Y80.823 E0.17767
G1 X100.915 Y80.825 E0.78181
G1 X102.934 Y81.231 E0.8503
G1 X104.758 Y82.254 E0.91986
G1 X105.678 Y81.626 E0.95691
G1 X108.251 Y80.823 E1.04656
G1 X126.415 Y80.825 E1.65069
G1 X128.434 Y81.231 E1.71919
G1 X130.258 Y82.254 E1.78875
G1 X131.178 Y81.626 E1.8258
G1 X133.751 Y80.823 E1.91545
G1 X151.915 Y80.825 E2.51958
G1 X153.933 Y81.231 E2.58805
G1 X155.971 Y82.383 E2.66591
G1 X156.994 Y83.133 E2.7081
G1 X158.401 Y84.886 E2.78286
G1 X159.382 Y86.841 E2.85561
G1 X159.642 Y89.005 E2.92811
G1 X159.601 Y146.564 E4.84253
G1 X159.42 Y147.808 E4.88434
G1 X158.632 Y149.832 E4.95658
G1 X157.125 Y151.69 E5.03615
G1 X155.814 Y152.779 E5.09283
G1 X154.176 Y153.568 E5.1533
G1 X154.175 Y171.915 E5.76353
G1 X153.769 Y173.934 E5.83202
G1 X152.67 Y175.888 E5.90659
G1 X151.866 Y176.994 E5.95207
G1 X150.11 Y178.403 E6.02695
G1 X148.162 Y179.376 E6.09937
G1 X146.258 Y179.627 E6.16325
G1 X88.251 Y179.678 E8.09257
G1 X85.368 Y178.783 E8.19297
G1 X83.119 Y177.007 E8.28828
G1 X81.621 Y174.812 E8.37667
G1 X80.823 Y172.249 E8.46595
G1 X80.825 Y154.097 E9.06969
G1 X80.908 Y153.681 E9.0838
G1 X79.112 Y152.67 E9.15235
G1 X78.006 Y151.866 E9.19783
G1 X76.597 Y150.11 E9.27271
G1 X75.624 Y148.162 E9.34513
G1 X75.373 Y146.258 E9.40901
G1 X75.322 Y88.251 E11.33833
G1 X76.217 Y85.368 E11.43873
G1 X77.993 Y83.119 E11.53405
G0 F6000 X78.271 Y83.413
G1 F1200 X80.362 Y81.986 E11.61825
G1 X82.812 Y81.223 E11.70359
G1 X100.876 Y81.225 E12.3044
G1 X102.792 Y81.61 E12.3694
G1 X104.778 Y82.724 E12.44514
G1 X105.852 Y81.991 E12.48839
G1 X108.312 Y81.223 E12.5741
G1 X126.376 Y81.225 E13.17491
G1 X128.292 Y81.61 E13.23991
G1 X130.278 Y82.724 E13.31565
G1 X131.352 Y81.991 E13.3589
G1 X133.812 Y81.223 E13.44461
G1 X151.876 Y81.225 E14.04542
G1 X153.792 Y81.61 E14.11043
G1 X155.735 Y82.706 E14.18462
G1 X156.716 Y83.425 E14.22508
G1 X158.061 Y85.101 E14.29655
G1 X158.993 Y86.959 E14.36569
G1 X159.242 Y89.005 E14.43424
G1 X159.205 Y146.507 E16.34676
G1 X159.031 Y147.705 E16.38703
G1 X158.282 Y149.628 E16.45567
G1 X156.838 Y151.409 E16.53193
G1 X155.596 Y152.44 E16.58561
G1 X153.898 Y153.259 E16.64832
G1 X153.668 Y153.337 E16.65639
G1 X153.776 Y153.659 E16.66769
G1 X153.775 Y171.876 E17.27359
G1 X153.39 Y173.792 E17.33859
G1 X152.346 Y175.653 E17.40956
G1 X151.573 Y176.717 E17.4533
G1 X149.895 Y178.063 E17.52485
G1 X148.044 Y178.988 E17.59367
G1 X146.206 Y179.23 E17.65533
G1 X88.312 Y179.278 E19.5809
G1 X85.558 Y178.423 E19.67681
G1 X83.413 Y176.729 E19.76772
G1 X81.986 Y174.638 E19.85192
G1 X81.223 Y172.188 E19.93726
G1 X81.225 Y154.135 E20.53771
G1 X81.367 Y153.422 E20.56189
G1 X81.154 Y153.36 E20.56927
G1 X79.347 Y152.346 E20.63818
G1 X78.283 Y151.573 E20.68193
G1 X76.937 Y149.895 E20.75347
G1 X76.012 Y148.044 E20.8223
G1 X75.77 Y146.206 E20.88396
G1 X75.722 Y88.312 E22.80952
G1 X76.577 Y85.558 E22.90543
G1 X78.271 Y83.413 E22.99634
G0 F6000 X78.549 Y83.707
G1 F1200 X80.536 Y82.351 E23.07635
G1 X82.873 Y81.623 E23.15776
G1 X100.837 Y81.625 E23.75525
G1 X102.65 Y81.989 E23.81675
G1 X104.457 Y83.003 E23.88567
G1 X104.76 Y83.221 E23.89808
G1 X106.028 Y82.355 E23.94915
G1 X108.373 Y81.623 E24.03086
G1 X126.337 Y81.625 E24.62835
G1 X128.15 Y81.989 E24.68985
G1 X129.957 Y83.003 E24.75877
G1 X130.26 Y83.221 E24.77118
G1 X131.528 Y82.355 E24.82225
G1 X133.873 Y81.623 E24.90396
G1 X151.837 Y81.625 E25.50145
G1 X153.65 Y81.989 E25.56295
G1 X155.498 Y83.029 E25.63348
G1 X156.439 Y83.719 E25.67229
G1 X157.721 Y85.316 E25.7404
G1 X158.604 Y87.077 E25.80592
G1 X158.842 Y89.005 E25.87054
G1 X158.809 Y146.45 E27.78117
G1 X158.642 Y147.602 E27.81988
G1 X157.932 Y149.424 E27.88492
G1 X156.551 Y151.128 E27.95787
G1 X155.378 Y152.101 E28.00856
G1 X153.769 Y152.88 E28.06802
G1 X153.161 Y153.087 E28.08938
G1 X153.376 Y153.724 E28.11174
G1 X153.375 Y171.837 E28.71418
G1 X153.011 Y173.65 E28.77569
G1 X151.997 Y175.457 E28.8446
G1 X151.28 Y176.439 E28.88504
G1 X149.68 Y177.723 E28.95328
G1 X147.926 Y178.6 E29.0185
G1 X146.154 Y178.833 E29.07795
G1 X88.373 Y178.878 E30.99975
G1 X85.748 Y178.063 E31.09117
G1 X83.707 Y176.451 E31.17767
G1 X82.351 Y174.464 E31.25768
G1 X81.623 Y172.127 E31.3391
G1 X81.625 Y154.173 E31.93625
G1 X81.837 Y153.109 E31.97233
G1 X81.35 Y153.011 E31.98886
G1 X79.543 Y151.997 E32.05777
G1 X78.561 Y151.28 E32.09821
G1 X77.277 Y149.68 E32.16645
G1 X76.4 Y147.926 E32.23167
G1 X76.167 Y146.154 E32.29112
G1 X76.122 Y88.373 E34.21292
G1 X76.937 Y85.748 E34.30434
G1 X78.549 Y83.707 E34.39084
G0 F6000 X78.827 Y84.001
G1 F1200 X80.71 Y82.716 E34.46666
G1 X82.934 Y82.023 E34.54414
G1 X100.798 Y82.025 E35.1383
G1 X102.508 Y82.368 E35.19631
G1 X104.261 Y83.352 E35.26317
G1 X104.752 Y83.711 E35.2834
G1 X106.204 Y82.719 E35.34189
G1 X108.434 Y82.023 E35.41959
G1 X126.298 Y82.025 E36.01375
G1 X128.008 Y82.368 E36.07176
G1 X129.761 Y83.352 E36.13862
G1 X130.252 Y83.711 E36.15885
G1 X131.704 Y82.719 E36.21734
G1 X133.934 Y82.023 E36.29504
G1 X151.798 Y82.025 E36.8892
G1 X153.508 Y82.368 E36.9472
G1 X155.261 Y83.352 E37.01407
G1 X156.162 Y84.013 E37.05123
G1 X157.381 Y85.531 E37.11599
G1 X158.215 Y87.195 E37.17789
G1 X158.442 Y89.005 E37.23857
G1 X158.413 Y146.392 E39.14726
G1 X158.252 Y147.499 E39.18447
G1 X157.582 Y149.22 E39.2459
G1 X156.264 Y150.847 E39.31554
G1 X155.161 Y151.761 E39.36318
G1 X153.64 Y152.501 E39.41944
G1 X152.654 Y152.836 E39.45408
G1 X152.976 Y153.79 E39.48757
G1 X152.975 Y171.798 E40.08651
G1 X152.632 Y173.508 E40.14452
G1 X151.648 Y175.261 E40.21138
G1 X150.988 Y176.16 E40.24848
G1 X149.465 Y177.383 E40.31344
G1 X147.805 Y178.213 E40.37517
G1 X146.154 Y178.433 E40.43057
G1 X88.434 Y178.478 E42.35035
G1 X85.938 Y177.703 E42.43727
G1 X84.001 Y176.173 E42.51937
G1 X82.716 Y174.29 E42.59519
G1 X82.023 Y172.066 E42.67267
G1 X82.025 Y154.211 E43.26653
G1 X82.307 Y152.796 E43.31452
G1 X81.492 Y152.632 E43.34217
G1 X79.739 Y151.648 E43.40903
G1 X78.84 Y150.988 E43.44613
G1 X77.617 Y149.465 E43.51109
G1 X76.787 Y147.805 E43.57282
G1 X76.567 Y146.154 E43.62822
G1 X76.522 Y88.434 E45.548
G1 X77.297 Y85.938 E45.63492
G1 X78.827 Y84.001 E45.71702
G0 F6000 X79.103 Y84.297
G1 F1200 X80.886 Y83.08 E45.78882
G1 X82.995 Y82.423 E45.86229
G1 X100.759 Y82.425 E46.45312
G1 X102.366 Y82.747 E46.50764
G1 X104.065 Y83.701 E46.57244
G1 X104.743 Y84.201 E46.60046
G1 X106.38 Y83.083 E46.6664
G1 X108.495 Y82.423 E46.74009
G1 X126.259 Y82.425 E47.33092
G1 X127.866 Y82.747 E47.38543
G1 X129.565 Y83.701 E47.45024
G1 X130.243 Y84.201 E47.47826
G1 X131.88 Y83.083 E47.54419
G1 X133.995 Y82.423 E47.61788
G1 X151.759 Y82.425 E48.20872
G1 X153.366 Y82.747 E48.26323
G1 X155.065 Y83.701 E48.32804
G1 X155.881 Y84.303 E48.36176
G1 X157.043 Y85.749 E48.42346
G1 X157.826 Y87.313 E48.48163
G1 X158.042 Y89.005 E48.53837
G1 X158.017 Y146.335 E50.44517
G1 X157.863 Y147.396 E50.48083
G1 X157.232 Y149.016 E50.53865
G1 X155.977 Y150.566 E50.60499
G1 X154.941 Y151.424 E50.64973
G1 X153.511 Y152.122 E50.70265
G1 X152.147 Y152.586 E50.75057
G1 X152.576 Y153.856 E50.79516
G1 X152.575 Y171.759 E51.39061
G1 X152.253 Y173.366 E51.44513
G1 X151.299 Y175.065 E51.50993
G1 X150.697 Y175.881 E51.54366
G1 X149.25 Y177.043 E51.60539
G1 X147.687 Y177.825 E51.66351
G1 X146.101 Y178.036 E51.71673
G1 X88.495 Y178.078 E53.63271
G1 X86.128 Y177.343 E53.71515
G1 X84.297 Y175.897 E53.79275
G1 X83.08 Y174.114 E53.86455
G1 X82.423 Y172.005 E53.93802
G1 X82.425 Y154.249 E54.52859
G1 X82.732 Y152.71 E54.58078
G1 X82.83 Y152.493 E54.5887
G1 X81.634 Y152.253 E54.62927
G1 X79.935 Y151.299 E54.69408
G1 X79.119 Y150.697 E54.72781
G1 X77.957 Y149.25 E54.78953
G1 X77.175 Y147.687 E54.84766
G1 X76.964 Y146.101 E54.90088
G1 X76.922 Y88.495 E56.81686
G1 X77.657 Y86.128 E56.8993
G1 X79.103 Y84.297 E56.9769
G0 F6000 X79.381 Y84.591
G1 F1200 X81.06 Y83.445 E57.04451
G1 X83.056 Y82.823 E57.11404
G1 X100.72 Y82.825 E57.70155
G1 X102.226 Y83.127 E57.75264
G1 X103.828 Y84.023 E57.81369
G1 X104.56 Y84.563 E57.84394
G1 X104.743 Y84.768 E57.85308
G1 X104.936 Y84.553 E57.86269
G1 X106.556 Y83.447 E57.92793
G1 X108.556 Y82.823 E57.99762
G1 X126.22 Y82.825 E58.58512
G1 X127.726 Y83.127 E58.63621
G1 X129.328 Y84.023 E58.69726
G1 X130.06 Y84.563 E58.72751
G1 X130.243 Y84.768 E58.73665
G1 X130.436 Y84.553 E58.74626
G1 X132.056 Y83.447 E58.81151
G1 X134.056 Y82.823 E58.88119
G1 X151.72 Y82.825 E59.46869
G1 X153.226 Y83.127 E59.51978
G1 X154.828 Y84.023 E59.58083
G1 X155.602 Y84.594 E59.61282
G1 X156.703 Y85.965 E59.67131
G1 X157.438 Y87.431 E59.72585
G1 X157.642 Y89.005 E59.77864
G1 X157.621 Y146.278 E61.68355
G1 X157.474 Y147.293 E61.71766
G1 X156.882 Y148.812 E61.77188
G1 X155.69 Y150.285 E61.83491
G1 X154.723 Y151.086 E61.87667
G1 X153.382 Y151.743 E61.92634
G1 X152.108 Y152.176 E61.97109
G1 X151.529 Y152.176 E61.99035
G1 X151.723 Y152.58 E62.00526
G1 X152.176 Y153.922 E62.05236
G1 X152.175 Y171.72 E62.64433
G1 X151.873 Y173.226 E62.69542
G1 X150.977 Y174.828 E62.75647
G1 X150.406 Y175.602 E62.78846
G1 X149.035 Y176.703 E62.84694
G1 X147.569 Y177.437 E62.90147
G1 X146.048 Y177.639 E62.9525
G1 X88.556 Y177.678 E64.86469
G1 X86.318 Y176.983 E64.94264
G1 X84.591 Y175.619 E65.01583
G1 X83.445 Y173.94 E65.08344
G1 X82.823 Y171.944 E65.15298
G1 X82.825 Y154.287 E65.74025
G1 X83.124 Y152.788 E65.79109
G1 X83.457 Y152.175 E65.8143
G1 X83.24 Y152.167 E65.82152
G1 X81.774 Y151.873 E65.87125
G1 X80.172 Y150.977 E65.9323
G1 X79.398 Y150.406 E65.96429
G1 X78.297 Y149.035 E66.02277
G1 X77.563 Y147.569 E66.0773
G1 X77.361 Y146.048 E66.12834
G1 X77.322 Y88.556 E68.04053
G1 X78.017 Y86.318 E68.11847
G1 X79.381 Y84.591 E68.19167
G0 F6000 X79.659 Y84.885
G1 F1200 X81.234 Y83.81 E68.25509
G1 X83.117 Y83.223 E68.32069
G1 X100.681 Y83.225 E68.90487
G1 X102.086 Y83.507 E68.95253
G1 X103.591 Y84.345 E69.00983
G1 X104.323 Y84.885 E69.04008
G1 X104.745 Y85.41 E69.06248
G1 X105.162 Y84.883 E69.08484
G1 X106.732 Y83.811 E69.14807
G1 X108.617 Y83.223 E69.21374
G1 X126.181 Y83.225 E69.79792
G1 X127.586 Y83.507 E69.84558
G1 X129.091 Y84.345 E69.90288
G1 X129.823 Y84.885 E69.93313
G1 X130.245 Y85.41 E69.95554
G1 X130.662 Y84.883 E69.97789
G1 X132.232 Y83.811 E70.04112
G1 X134.117 Y83.223 E70.10679
G1 X151.681 Y83.225 E70.69097
G1 X153.086 Y83.507 E70.73864
G1 X154.591 Y84.345 E70.79593
G1 X155.323 Y84.885 E70.82618
G1 X156.363 Y86.18 E70.88143
G1 X157.049 Y87.549 E70.93236
G1 X157.242 Y89.005 E70.98121
G1 X157.225 Y146.22 E72.88418
G1 X157.084 Y147.19 E72.91679
G1 X156.532 Y148.608 E72.9674
G1 X155.403 Y150.004 E73.02711
G1 X154.506 Y150.747 E73.06585
G1 X153.253 Y151.364 E73.1123
G1 X152.041 Y151.776 E73.15488
G1 X150.888 Y151.776 E73.19323
G1 X151.344 Y152.708 E73.22774
G1 X151.776 Y153.988 E73.27267
G1 X151.775 Y171.681 E73.86114
G1 X151.493 Y173.086 E73.90881
G1 X150.655 Y174.591 E73.9661
G1 X150.115 Y175.323 E73.99635
G1 X148.82 Y176.363 E74.0516
G1 X147.451 Y177.049 E74.10253
G1 X145.995 Y177.242 E74.15138
G1 X88.617 Y177.278 E76.05978
G1 X86.508 Y176.623 E76.13323
G1 X84.885 Y175.341 E76.20202
G1 X83.81 Y173.766 E76.26544
G1 X83.223 Y171.883 E76.33104
G1 X83.225 Y154.325 E76.91502
G1 X83.504 Y152.925 E76.9625
G1 X84.129 Y151.775 E77.00604
G1 X83.319 Y151.775 E77.03298
G1 X81.914 Y151.493 E77.08064
G1 X80.409 Y150.655 E77.13793
G1 X79.677 Y150.115 E77.16819
G1 X78.637 Y148.82 E77.22343
G1 X77.951 Y147.451 E77.27436
G1 X77.758 Y145.995 E77.32321
G1 X77.722 Y88.617 E79.23161
G1 X78.377 Y86.508 E79.30506
G1 X79.659 Y84.885 E79.37385
G0 F6000 X79.937 Y85.179
G1 F1200 X81.408 Y84.175 E79.43309
G1 X83.178 Y83.623 E79.49475
G1 X100.642 Y83.625 E80.07561
G1 X101.945 Y83.887 E80.11981
G1 X103.353 Y84.667 E80.17335
G1 X104.045 Y85.178 E80.20196
G1 X104.747 Y86.052 E80.23925
G1 X105.438 Y85.179 E80.27628
G1 X106.908 Y84.175 E80.33549
G1 X108.678 Y83.623 E80.39715
G1 X126.142 Y83.625 E80.97801
G1 X127.445 Y83.887 E81.02221
G1 X128.853 Y84.667 E81.07575
G1 X129.545 Y85.178 E81.10436
G1 X130.247 Y86.052 E81.14164
G1 X130.938 Y85.179 E81.17868
G1 X132.408 Y84.175 E81.23788
G1 X134.178 Y83.623 E81.29955
G1 X151.642 Y83.625 E81.88041
G1 X152.945 Y83.887 E81.92461
G1 X154.353 Y84.667 E81.97815
G1 X155.045 Y85.178 E82.00676
G1 X156.023 Y86.396 E82.05871
G1 X156.662 Y87.67 E82.10612
G1 X156.842 Y89.005 E82.15092
G1 X156.829 Y146.163 E84.052
G1 X156.695 Y147.087 E84.08306
G1 X156.181 Y148.406 E84.13014
G1 X155.118 Y149.721 E84.18638
G1 X154.287 Y150.409 E84.22226
G1 X153.124 Y150.985 E84.26543
G1 X151.974 Y151.376 E84.30583
G1 X150.131 Y151.376 E84.36713
G1 X150.413 Y151.718 E84.38187
G1 X150.965 Y152.836 E84.42334
G1 X151.376 Y154.054 E84.4661
G1 X151.375 Y171.642 E85.05108
G1 X151.113 Y172.945 E85.09528
G1 X150.333 Y174.353 E85.14882
G1 X149.822 Y175.045 E85.17743
G1 X148.604 Y176.023 E85.22938
G1 X147.33 Y176.662 E85.27679
G1 X145.995 Y176.842 E85.32159
G1 X88.678 Y176.878 E87.22796
G1 X86.698 Y176.263 E87.29692
G1 X85.179 Y175.063 E87.36131
G1 X84.175 Y173.592 E87.42054
G1 X83.623 Y171.822 E87.48221
G1 X83.625 Y154.363 E88.0629
G1 X83.884 Y153.065 E88.10692
G1 X84.586 Y151.772 E88.15585
G1 X84.869 Y151.375 E88.17207
G1 X83.358 Y151.375 E88.22233
G1 X82.055 Y151.113 E88.26653
G1 X80.647 Y150.333 E88.32007
G1 X79.955 Y149.822 E88.34868
G1 X78.977 Y148.604 E88.40063
G1 X78.338 Y147.33 E88.44804
G1 X78.158 Y145.995 E88.49284
G1 X78.122 Y88.678 E90.39921
G1 X78.737 Y86.698 E90.46817
G1 X79.937 Y85.179 E90.53256
G0 F6000 X80.215 Y85.473
G1 F1200 X81.582 Y84.54 E90.5876
G1 X83.239 Y84.023 E90.64534
G1 X100.603 Y84.025 E91.22287
G1 X101.806 Y84.267 E91.26368
G1 X103.115 Y84.989 E91.3134
G1 X103.765 Y85.469 E91.34028
G1 X104.75 Y86.694 E91.39256
G1 X105.715 Y85.473 E91.44432
G1 X107.082 Y84.54 E91.49937
G1 X108.739 Y84.023 E91.5571
G1 X126.103 Y84.025 E92.13463
G1 X127.306 Y84.267 E92.17544
G1 X128.615 Y84.989 E92.22516
G1 X129.265 Y85.469 E92.25204
G1 X130.25 Y86.694 E92.30432
G1 X131.215 Y85.473 E92.35608
G1 X132.582 Y84.54 E92.41113
G1 X134.239 Y84.023 E92.46886
G1 X151.603 Y84.025 E93.04639
G1 X152.806 Y84.267 E93.0872
G1 X154.115 Y84.989 E93.13692
G1 X154.765 Y85.469 E93.1638
G1 X155.685 Y86.614 E93.21265
G1 X156.275 Y87.791 E93.25644
G1 X156.442 Y89.005 E93.2972
G1 X156.433 Y146.105 E95.19635
G1 X156.305 Y146.984 E95.2259
G1 X155.83 Y148.204 E95.26944
G1 X154.833 Y149.438 E95.32221
G1 X154.069 Y150.07 E95.35519
G1 X152.995 Y150.606 E95.39511
G1 X151.907 Y150.976 E95.43333
G1 X149.202 Y150.976 E95.5233
G1 X149.464 Y151.197 E95.5347
G1 X150.077 Y151.94 E95.56674
G1 X150.586 Y152.964 E95.60477
G1 X150.976 Y154.12 E95.64535
G1 X150.975 Y171.603 E96.22684
G1 X150.733 Y172.806 E96.26765
G1 X150.011 Y174.115 E96.31737
G1 X149.531 Y174.765 E96.34425
G1 X148.386 Y175.685 E96.3931
G1 X147.209 Y176.275 E96.43689
G1 X145.995 Y176.442 E96.47765
G1 X88.739 Y176.478 E98.38199
G1 X86.888 Y175.903 E98.44646
G1 X85.473 Y174.785 E98.50644
G1 X84.54 Y173.418 E98.56148
G1 X84.023 Y171.761 E98.61922
G1 X84.025 Y154.401 E99.19661
G1 X84.264 Y153.202 E99.23728
G1 X84.937 Y151.963 E99.28417
G1 X85.452 Y151.251 E99.3134
G1 X85.796 Y150.975 E99.32807
G1 X83.397 Y150.975 E99.40786
G1 X82.194 Y150.733 E99.44867
G1 X80.885 Y150.011 E99.49839
G1 X80.235 Y149.531 E99.52527
G1 X79.315 Y148.386 E99.57412
G1 X78.725 Y147.209 E99.61791
