;FLAVOR:Marlin
;TIME:1199
;Filament used: 0.674626m
;Layer height: 0.12
;MINX:104.842
;MINY:84.7
;MINZ:0.2
;MAXX:129.3
;MAXY:127.8
;MAXZ:5
;TARGET_MACHINE.NAME:Creality Ender-3
;Generated with Cura_SteamEngine 5.11.0
M140 S70
M105
M190 S70
M104 S240
M105
M109 S240
; Ender 3 Custom Start G-code
G92 E0 ; Reset Extruder
G28 ; Home all axes
G1 Z2.0 F3000 ; Move Z Axis up little to prevent scratching of Heat Bed
G1 X0.1 Y20 Z0.3 F5000.0 ; Move to start position
G1 X0.1 Y200.0 Z0.3 F1500.0 E15 ; Draw the first line
G1 X0.4 Y200.0 Z0.3 F5000.0 ; Move to side a little
G1 X0.4 Y20 Z0.3 F1500.0 E30 ; Draw the second line
G92 E0 ; Reset Extruder
G1 Z2.0 F3000 ; Move Z Axis up little to prevent scratching of Heat Bed
G1 X5 Y20 Z0.3 F5000.0 ; Move over to prevent blob squish
M82 ;absolute extrusion mode
G92 E0
G92 E0
G1 F2700 E-5
;LAYER_COUNT:41
;LAYER:0
M107
;MESH:Base.stl
G0 F6000 X117.5 Y99.1 Z0.2
;TYPE:WALL-INNER
G1 F2700 E0
G1 F1200 X116.516 Y99.1 E0.03273
G1 X116.245 Y98.953 E0.04298
G1 X116.076 Y98.707 E0.05291
G1 X116.04 Y98.495 E0.06006
G1 X116.051 Y96.92 E0.11245
G1 X115.396 Y98.707 E0.17575
G1 X115.227 Y98.953 E0.18568
G1 X114.913 Y99.1 E0.19721
G1 X113.521 Y99.1 E0.24351
G1 X113.253 Y98.956 E0.25362
G1 X113.079 Y98.703 E0.26384
G1 X112.472 Y97.004 E0.32384
G1 X112.484 Y98.495 E0.37344
G1 X112.449 Y98.703 E0.38045
G1 X112.275 Y98.956 E0.39067
G1 X112.007 Y99.1 E0.40078
G1 X110.175 Y99.104 E0.46172
G1 X109.976 Y99.015 E0.46897
G1 X109.837 Y98.897 E0.47503
G1 X109.692 Y98.576 E0.48675
G1 X109.688 Y91.505 E0.72193
G1 X109.728 Y91.287 E0.7293
G1 X109.834 Y91.11 E0.73616
G1 X109.974 Y90.992 E0.74225
G1 X110.287 Y90.904 E0.75307
G1 X112.792 Y90.9 E0.83638
G1 X112.97 Y90.968 E0.84272
G1 X113.214 Y91.176 E0.85339
G1 X114.292 Y94.214 E0.9606
G1 X115.282 Y91.299 E1.06299
G1 X115.367 Y91.141 E1.06896
G1 X115.57 Y90.968 E1.07783
G1 X115.748 Y90.9 E1.08417
G1 X118.357 Y90.903 E1.17095
G1 X118.545 Y90.957 E1.17745
G1 X118.671 Y91.158 E1.18534
G1 X118.796 Y90.956 E1.19324
G1 X118.985 Y90.9 E1.1998
G1 X124.704 Y90.896 E1.39001
G1 X125.02 Y90.984 E1.40092
G1 X125.159 Y91.103 E1.40701
G1 X125.265 Y91.279 E1.41384
G1 X125.305 Y91.496 E1.42118
G1 X125.304 Y93.01 E1.47154
G1 X125.18 Y93.304 E1.48215
G1 X124.923 Y93.496 E1.49282
G1 X124.706 Y93.536 E1.50016
G1 X123.329 Y93.539 E1.54596
G1 X123.332 Y98.617 E1.71485
G1 X123.237 Y98.822 E1.72237
G1 X123.023 Y99.022 E1.73211
G1 X122.837 Y99.096 E1.73877
G1 X120.952 Y99.096 E1.80147
G1 X120.64 Y98.944 E1.81301
G1 X120.516 Y98.79 E1.81958
G1 X120.442 Y98.55 E1.82794
G1 X120.436 Y93.54 E1.99457
G1 X119.06 Y93.54 E2.04034
G1 X118.888 Y93.396 E2.0478
G1 X118.89 Y98.552 E2.21929
G1 X118.817 Y98.792 E2.22763
G1 X118.693 Y98.947 E2.23423
G1 X118.37 Y99.1 E2.24612
G1 X117.5 Y99.1 E2.27506
G1 F2700 E-2.72494
G0 F6000 X117.497 Y104.151
G0 X117.5 Y104.332
G1 F2700 E2.27506
G1 F1200 X128.328 Y104.335 E2.6352
G1 X128.334 Y85.665 E3.25616
G1 X106.668 Y85.665 E3.97678
G1 X106.665 Y104.328 E4.59751
G1 X117.5 Y104.332 E4.95789
G0 F6000 X117.5 Y104.732
;TYPE:WALL-OUTER
G1 F1200 X128.467 Y104.736 E5.32265
G1 X128.627 Y104.69 E5.32819
G1 X128.728 Y104.509 E5.33508
G1 X128.735 Y85.488 E5.96772
G1 X128.658 Y85.333 E5.97348
G1 X128.501 Y85.265 E5.97917
G1 X106.527 Y85.264 E6.71003
G1 X106.37 Y85.307 E6.71544
G1 X106.268 Y85.488 E6.72235
G1 X106.264 Y104.469 E7.35366
G1 X106.307 Y104.626 E7.35908
G1 X106.488 Y104.728 E7.36599
G1 X117.5 Y104.732 E7.73225
G1 F2700 E2.73225
G0 F6000 X117.501 Y104.424
G0 X117.497 Y104.151
G0 X117.497 Y99.28
G0 X117.5 Y98.699
G1 F2700 E7.73225
G1 F1200 X116.597 Y98.7 E7.76228
G1 X116.44 Y98.551 E7.76948
G1 X116.468 Y94.623 E7.90013
G1 X114.996 Y98.636 E8.0423
G1 X114.867 Y98.698 E8.04706
G1 X113.595 Y98.7 E8.08937
G1 X113.455 Y98.568 E8.09577
G1 X112.051 Y94.64 E8.23451
G1 X112.084 Y98.551 E8.36459
G1 X112.015 Y98.652 E8.36866
G1 X111.919 Y98.698 E8.3722
G1 X110.253 Y98.704 E8.42761
G1 X110.14 Y98.635 E8.43202
G1 X110.095 Y98.539 E8.43554
G1 X110.088 Y91.453 E8.67122
G1 X110.244 Y91.304 E8.6784
G1 X112.741 Y91.305 E8.76145
G1 X112.881 Y91.433 E8.76776
G1 X114.301 Y95.434 E8.90896
G1 X115.673 Y91.392 E9.05094
G1 X115.799 Y91.305 E9.05603
G1 X118.364 Y91.302 E9.14134
G1 F1221.4 X118.481 Y91.5 E9.14886
G1 X118.492 Y98.518 E9.37819
G1 F1200 X118.426 Y98.649 E9.38307
G1 X118.327 Y98.698 E9.38674
G1 X117.5 Y98.699 E9.41425
G1 F2700 E4.41425
G0 F6000 X117.5 Y99.01
G0 X118.928 Y98.911
G0 X119.061 Y93.712
G0 X120.264 Y93.712
G0 X120.479 Y99.008
G0 X120.997 Y99.008
G0 X120.997 Y98.692
G1 F2700 E9.41425
G1 F1200 X120.906 Y98.646 E9.41764
G1 X120.84 Y98.514 E9.42255
G1 X120.836 Y93.14 E9.60129
G1 X119.06 Y93.14 E9.66036
G1 F1215.2 X118.868 Y92.974 E9.6687
G1 F1237.1 X118.867 Y91.498 E9.71632
G1 F1221.4 X118.983 Y91.297 E9.7239
G1 F1200 X124.744 Y91.296 E9.91551
G1 X124.856 Y91.365 E9.91989
G1 X124.905 Y91.496 E9.92454
G1 X124.902 Y92.971 E9.9736
G1 X124.863 Y93.059 E9.9768
G1 X124.76 Y93.136 E9.98108
G1 X122.929 Y93.14 E10.04197
G1 X122.93 Y98.531 E10.22128
G1 X122.901 Y98.605 E10.22392
G1 X122.783 Y98.69 E10.22876
G1 X120.997 Y98.692 E10.28816
G1 F2700 E5.28816
G0 F6000 X120.997 Y99.008
G0 X120.722 Y99.209
G0 X120.719 Y104.152
G0 X117.5 Y103.97
;TYPE:SKIN
G1 F2700 E10.28816
G1 F1200 X107.024 Y103.968 E10.6366
G1 X107.028 Y86.024 E11.23342
G1 X127.971 Y86.025 E11.92998
G1 X127.968 Y103.971 E12.52687
G1 X117.5 Y103.97 E12.87504
G1 F2700 E7.87504
G0 F6000 X117.499 Y104.231
G0 X117.497 Y99.28
G0 X117.5 Y99.458
G1 F2700 E12.87504
G1 F1200 X118.423 Y99.458 E12.90574
G1 X118.695 Y99.369 E12.91525
G1 X118.931 Y99.212 E12.92468
G1 X119.132 Y98.965 E12.93527
G1 X119.248 Y98.578 E12.94871
G1 X119.248 Y93.9 E13.1043
G1 X120.076 Y93.9 E13.13184
G1 X120.08 Y98.578 E13.28743
G1 X120.196 Y98.966 E13.3009
G1 X120.401 Y99.212 E13.31155
G1 X120.637 Y99.369 E13.32098
G1 X120.891 Y99.456 E13.32991
G1 X122.933 Y99.454 E13.39783
G1 X123.379 Y99.204 E13.41483
G1 X123.544 Y99.012 E13.42325
G1 X123.658 Y98.751 E13.43273
G1 X123.693 Y98.487 E13.44158
G1 X123.689 Y93.9 E13.59415
G1 X124.742 Y93.893 E13.62917
G1 X125.05 Y93.831 E13.63962
G1 X125.288 Y93.696 E13.64872
G1 X125.479 Y93.498 E13.65787
G1 X125.662 Y93.169 E13.67039
G1 X125.661 Y91.454 E13.72743
G1 X125.602 Y91.148 E13.7378
G1 X125.434 Y90.862 E13.74883
G1 X125.186 Y90.665 E13.75937
G1 X124.952 Y90.569 E13.76778
G1 X124.724 Y90.537 E13.77544
G1 X119.036 Y90.537 E13.96462
G1 X118.668 Y90.62 E13.97717
G1 X118.436 Y90.542 E13.98531
G1 X115.681 Y90.542 E14.07694
G1 X115.406 Y90.643 E14.08668
G1 X115.084 Y90.913 E14.10066
G1 X114.943 Y91.173 E14.1105
G1 X114.284 Y93.113 E14.17864
G1 X113.585 Y91.146 E14.24807
G1 X113.452 Y90.913 E14.257
G1 X113.149 Y90.655 E14.27023
G1 X112.856 Y90.54 E14.2807
G1 X110.266 Y90.545 E14.36685
G1 X110.037 Y90.574 E14.37452
G1 X109.802 Y90.673 E14.383
G1 X109.56 Y90.869 E14.39336
G1 X109.385 Y91.157 E14.40457
G1 X109.328 Y91.501 E14.41617
G1 X109.334 Y98.627 E14.65318
G1 X109.386 Y98.824 E14.65996
G1 X109.543 Y99.106 E14.67069
G1 X109.763 Y99.306 E14.68058
G1 X110.01 Y99.42 E14.68963
G1 X110.269 Y99.462 E14.69836
G1 X112.015 Y99.458 E14.75643
G1 X112.293 Y99.366 E14.76617
G1 X112.518 Y99.224 E14.77502
G1 X112.764 Y98.865 E14.78949
G1 X113.009 Y99.228 E14.80406
G1 X113.446 Y99.46 E14.82051
G1 X115.038 Y99.458 E14.87346
G1 X115.471 Y99.219 E14.88991
G1 X115.733 Y98.827 E14.9056
G1 X115.998 Y99.22 E14.92136
G1 X116.361 Y99.417 E14.9351
G1 X116.614 Y99.458 E14.94362
G1 X117.5 Y99.458 E14.97309
G1 F2700 E9.97309
G0 F6000 X117.5 Y99.2
G0 X116.127 Y99.089
G0 X116.124 Y104.151
G0 X107.728 Y103.768
G1 F2700 E14.97309
G1 F1200 X107.224 Y103.264 E14.9968
G0 F6000 X107.224 Y102.699
G1 F1200 X108.293 Y103.768 E15.04708
G0 F6000 X108.859 Y103.768
G1 F1200 X107.224 Y102.133 E15.12399
G0 F6000 X107.224 Y101.567
G1 F1200 X109.425 Y103.768 E15.22751
G0 F6000 X109.99 Y103.768
G1 F1200 X107.224 Y101.002 E15.35762
G0 F6000 X107.224 Y100.436
G1 F1200 X110.556 Y103.768 E15.51434
G0 F6000 X111.122 Y103.768
G1 F1200 X107.225 Y99.871 E15.69765
G0 F6000 X107.225 Y99.305
G1 F1200 X111.688 Y103.769 E15.9076
G0 F6000 X112.254 Y103.769
G1 F1200 X107.225 Y98.74 E16.14415
G0 F6000 X107.225 Y98.174
G1 F1200 X112.82 Y103.769 E16.40732
G0 F6000 X113.385 Y103.769
G1 F1200 X107.225 Y97.608 E16.69709
G0 F6000 X107.225 Y97.043
G1 F1200 X109.343 Y99.16 E16.79669
G0 F6000 X109.604 Y99.421
G1 F1200 X113.951 Y103.769 E17.00118
G0 F6000 X114.517 Y103.769
G1 F1200 X110.408 Y99.66 E17.19446
G0 F6000 X110.972 Y99.658
G1 F1200 X115.082 Y103.769 E17.3878
G0 F6000 X115.649 Y103.769
G1 F1200 X111.535 Y99.656 E17.58129
G0 F6000 X112.088 Y99.643
G1 F1200 X116.214 Y103.769 E17.77536
G0 F6000 X116.78 Y103.769
G1 F1200 X112.489 Y99.478 E17.9772
G0 F6000 X113.056 Y99.479
G1 F1200 X117.346 Y103.769 E18.17899
G0 F6000 X117.911 Y103.769
G1 F1200 X113.801 Y99.659 E18.37231
G0 F6000 X114.365 Y99.658
G1 F1200 X118.477 Y103.769 E18.5657
G0 F6000 X119.043 Y103.769
G1 F1200 X114.93 Y99.656 E18.75916
G0 F6000 X115.352 Y99.513
G1 F1200 X119.609 Y103.77 E18.9594
G0 F6000 X120.175 Y103.77
G1 F1200 X115.671 Y99.266 E19.17125
G0 F6000 X115.301 Y99.011
G0 X115.85 Y98.03
G0 X116.142 Y98.929
G0 X116.646 Y99.201
G0 X116.626 Y99.655
G1 F1200 X120.741 Y103.77 E19.36481
G0 F6000 X121.306 Y103.77
G1 F1200 X117.192 Y99.655 E19.55835
G0 F6000 X117.757 Y99.655
G1 F1200 X121.872 Y103.77 E19.7519
G0 F6000 X122.438 Y103.77
G1 F1200 X118.323 Y99.655 E19.94546
G0 F6000 X118.781 Y99.547
G1 F1200 X123.003 Y103.77 E20.14407
G0 F6000 X123.569 Y103.77
G1 F1200 X119.107 Y99.308 E20.35395
G0 F6000 X119.338 Y98.974
G1 F1200 X124.135 Y103.771 E20.57959
G0 F6000 X124.701 Y103.771
G1 F1200 X120.342 Y99.411 E20.78465
G0 F6000 X120.141 Y99.211
G1 F1200 X119.447 Y98.516 E20.81731
G0 F6000 X119.881 Y98.385
G1 F1200 X119.447 Y97.951 E20.83773
G0 F6000 X119.88 Y97.818
G1 F1200 X119.447 Y97.385 E20.85809
G0 F6000 X119.879 Y97.252
G1 F1200 X119.447 Y96.819 E20.87844
G0 F6000 X119.879 Y96.686
G1 F1200 X119.447 Y96.254 E20.89876
G0 F6000 X119.879 Y96.12
G1 F1200 X119.447 Y95.689 E20.91905
G0 F6000 X119.878 Y95.553
G1 F1200 X119.447 Y95.123 E20.9393
G0 F6000 X119.877 Y94.987
G1 F1200 X119.447 Y94.557 E20.95953
G0 F6000 X119.877 Y94.421
G1 F1200 X119.556 Y94.1 E20.97463
G0 F6000 X119.556 Y93.64
G0 X120.6 Y93.379
G0 X120.604 Y98.936
G0 X123.17 Y98.935
G0 X123.167 Y93.379
G0 X125.144 Y93.377
G0 X125.144 Y91.058
G0 X119.754 Y90.796
G0 X119.754 Y90.339
G1 F1200 X115.64 Y86.225 E21.16814
G0 F6000 X115.075 Y86.225
G1 F1200 X119.189 Y90.339 E21.36165
G0 F6000 X118.693 Y90.409
G1 F1200 X114.509 Y86.225 E21.55845
G0 F6000 X113.943 Y86.225
G1 F1200 X118.062 Y90.343 E21.75217
G0 F6000 X117.496 Y90.343
G1 F1200 X113.378 Y86.225 E21.94587
G0 F6000 X112.812 Y86.225
G1 F1200 X116.931 Y90.344 E22.13961
G0 F6000 X116.366 Y90.344
G1 F1200 X112.246 Y86.225 E22.33338
G0 F6000 X111.68 Y86.225
G1 F1200 X115.8 Y90.344 E22.52715
G0 F6000 X115.344 Y90.454
G1 F1200 X111.115 Y86.225 E22.72607
G0 F6000 X110.549 Y86.225
G1 F1200 X115.025 Y90.701 E22.93661
G0 F6000 X114.792 Y91.033
G1 F1200 X109.983 Y86.225 E23.16279
G0 F6000 X109.418 Y86.225
G1 F1200 X114.639 Y91.446 E23.40837
G0 F6000 X114.496 Y91.869
G1 F1200 X113.814 Y91.187 E23.44044
G0 F6000 X114.124 Y92.062
G1 F1200 X114.353 Y92.291 E23.45122
G0 F6000 X114.788 Y92.439
G0 X114.288 Y93.645
G0 X112.854 Y90.817
G0 X113.016 Y90.389
G1 F1200 X108.852 Y86.225 E23.64708
G0 F6000 X108.286 Y86.225
G1 F1200 X112.402 Y90.34 E23.84066
G0 F6000 X111.837 Y90.341
G1 F1200 X107.721 Y86.225 E24.03426
G0 F6000 X107.227 Y86.297
G1 F1200 X111.272 Y90.342 E24.22453
G0 F6000 X110.707 Y90.343
G1 F1200 X107.227 Y86.862 E24.38824
G0 F6000 X107.227 Y87.428
G1 F1200 X110.157 Y90.358 E24.52606
G0 F6000 X109.722 Y90.488
G1 F1200 X107.227 Y87.994 E24.64339
G0 F6000 X107.227 Y88.559
G1 F1200 X109.406 Y90.739 E24.74591
G0 F6000 X109.193 Y91.091
G1 F1200 X107.227 Y89.125 E24.83838
G0 F6000 X107.227 Y89.691
G1 F1200 X109.128 Y91.592 E24.9278
G0 F6000 X109.129 Y92.159
G1 F1200 X107.226 Y90.256 E25.01731
G0 F6000 X107.226 Y90.822
G1 F1200 X109.13 Y92.725 E25.10685
G0 F6000 X109.131 Y93.291
G1 F1200 X107.226 Y91.387 E25.19643
G0 F6000 X107.226 Y91.953
G1 F1200 X109.131 Y93.858 E25.28603
G0 F6000 X109.132 Y94.424
G1 F1200 X107.226 Y92.519 E25.37566
G0 F6000 X107.226 Y93.084
G1 F1200 X109.133 Y94.991 E25.46536
G0 F6000 X109.133 Y95.557
G1 F1200 X107.226 Y93.649 E25.55508
G0 F6000 X107.226 Y94.215
G1 F1200 X109.134 Y96.123 E25.64483
G0 F6000 X109.135 Y96.69
G1 F1200 X107.226 Y94.781 E25.73462
G0 F6000 X107.226 Y95.346
G1 F1200 X109.136 Y97.256 E25.82446
G0 F6000 X109.136 Y97.823
G1 F1200 X107.226 Y95.912 E25.91433
G0 F6000 X107.226 Y96.478
G1 F1200 X109.137 Y98.389 E26.00422
G0 F6000 X109.592 Y98.389
G0 X109.856 Y98.942
G0 X112.327 Y98.941
G0 X112.676 Y98.147
G0 X113.334 Y98.944
G0 X115.141 Y98.944
G0 X115.85 Y98.03
G0 X116.201 Y98.938
G0 X118.835 Y99.034
G0 X119.061 Y93.712
G0 X120.264 Y93.712
G0 X120.647 Y99.161
G0 X121.152 Y99.196
G0 X121.152 Y99.656
G1 F1200 X125.267 Y103.771 E26.19777
G0 F6000 X125.832 Y103.771
G1 F1200 X121.716 Y99.655 E26.39138
G0 F6000 X122.281 Y99.653
G1 F1200 X126.398 Y103.771 E26.58505
G0 F6000 X126.964 Y103.771
G1 F1200 X122.845 Y99.652 E26.7788
G0 F6000 X123.262 Y99.503
G1 F1200 X127.53 Y103.771 E26.97955
G0 F6000 X127.769 Y103.444
G1 F1200 X123.589 Y99.264 E27.17616
G0 F6000 X123.802 Y98.912
G1 F1200 X127.769 Y102.878 E27.36274
G0 F6000 X127.769 Y102.313
G1 F1200 X123.892 Y98.436 E27.5451
G0 F6000 X123.892 Y97.871
G1 F1200 X127.769 Y101.747 E27.72744
G0 F6000 X127.769 Y101.181
G1 F1200 X123.891 Y97.304 E27.90982
G0 F6000 X123.891 Y96.739
G1 F1200 X127.769 Y100.616 E28.09221
G0 F6000 X127.769 Y100.05
G1 F1200 X123.891 Y96.172 E28.27462
G0 F6000 X123.89 Y95.606
G1 F1200 X127.769 Y99.484 E28.45705
G0 F6000 X127.769 Y98.919
G1 F1200 X123.89 Y95.04 E28.63951
G0 F6000 X123.889 Y94.474
G1 F1200 X127.769 Y98.354 E28.82201
G0 F6000 X127.769 Y97.788
G1 F1200 X124.08 Y94.098 E28.99555
G0 F6000 X124.643 Y94.096
G1 F1200 X127.769 Y97.222 E29.14259
G0 F6000 X127.769 Y96.657
G1 F1200 X125.127 Y94.015 E29.26686
G0 F6000 X125.468 Y93.79
G1 F1200 X127.769 Y96.091 E29.37509
G0 F6000 X127.769 Y95.525
G1 F1200 X125.719 Y93.475 E29.47152
G0 F6000 X125.859 Y93.049
G1 F1200 X127.77 Y94.96 E29.56141
G0 F6000 X127.77 Y94.395
G1 F1200 X125.861 Y92.485 E29.65122
G0 F6000 X125.863 Y91.922
G1 F1200 X127.77 Y93.829 E29.74092
G0 F6000 X127.77 Y93.263
G1 F1200 X125.837 Y91.33 E29.83185
G0 F6000 X125.388 Y91.413
G0 X124.797 Y90.81
G0 X124.862 Y90.356
G1 F1200 X120.732 Y86.225 E30.02613
G0 F6000 X120.166 Y86.225
G1 F1200 X124.28 Y90.339 E30.21964
G0 F6000 X123.714 Y90.339
G1 F1200 X119.601 Y86.225 E30.41313
G0 F6000 X119.035 Y86.225
G1 F1200 X123.148 Y90.339 E30.60662
G0 F6000 X122.583 Y90.339
G1 F1200 X118.469 Y86.225 E30.80013
G0 F6000 X117.904 Y86.225
G1 F1200 X122.017 Y90.339 E30.99361
G0 F6000 X121.451 Y90.339
G1 F1200 X117.337 Y86.225 E31.18712
G0 F6000 X116.772 Y86.225
G1 F1200 X120.886 Y90.339 E31.38063
G0 F6000 X120.32 Y90.339
G1 F1200 X116.206 Y86.225 E31.57414
G0 F6000 X116.206 Y85.765
G0 X121.298 Y85.765
G0 X121.298 Y86.225
G1 F1200 X127.77 Y92.697 E31.87856
G0 F6000 X127.77 Y92.132
G1 F1200 X121.863 Y86.225 E32.15641
G0 F6000 X122.429 Y86.225
G1 F1200 X127.77 Y91.566 E32.40764
G0 F6000 X127.77 Y91
G1 F1200 X122.995 Y86.225 E32.63224
G0 F6000 X123.561 Y86.225
G1 F1200 X127.771 Y90.435 E32.83026
G0 F6000 X127.771 Y89.87
G1 F1200 X124.126 Y86.225 E33.00171
G0 F6000 X124.692 Y86.225
G1 F1200 X127.771 Y89.304 E33.14654
G0 F6000 X127.771 Y88.738
G1 F1200 X125.258 Y86.225 E33.26474
G0 F6000 X125.823 Y86.225
G1 F1200 X127.771 Y88.173 E33.35637
G0 F6000 X127.771 Y87.607
G1 F1200 X126.389 Y86.225 E33.42138
G0 F6000 X126.955 Y86.225
G1 F1200 X127.771 Y87.041 E33.45976
G0 F6000 X127.771 Y86.476
G1 F1200 X127.52 Y86.225 E33.47156
G1 F2700 E28.47156
;MESH:Top.stl
G0 F6000 X127.52 Y85.765
G0 X128.162 Y85.837
G0 X128.156 Y104.163
G0 X117.507 Y104.504
G0 X117.507 Y105.599
G0 X117.505 Y106.899
G0 X117.5 Y126.831
;TYPE:WALL-INNER
G1 F2700 E33.47156
G1 F1200 X128.336 Y126.834 E33.83197
G1 X128.336 Y108.164 E34.45294
G1 X106.664 Y108.164 E35.17375
