;FLAVOR:Marlin
;TIME:668
;Filament used: 0.318773m
;Layer height: 0.12
;MINX:105.7
;MINY:107.2
;MINZ:0.2
;MAXX:129.3
;MAXY:127.8
;MAXZ:4.04
;TARGET_MACHINE.NAME:Creality Ender-3
;Generated with Cura_SteamEngine 5.11.0
M140 S70
M105
M190 S70
M104 S240
M105
M109 S240
; Ender 3 Custom Start G-code
G92 E0 ; Reset Extruder
G28 ; Home all axes
G1 Z2.0 F3000 ; Move Z Axis up little to prevent scratching of Heat Bed
G1 X0.1 Y20 Z0.3 F5000.0 ; Move to start position
G1 X0.1 Y200.0 Z0.3 F1500.0 E15 ; Draw the first line
G1 X0.4 Y200.0 Z0.3 F5000.0 ; Move to side a little
G1 X0.4 Y20 Z0.3 F1500.0 E30 ; Draw the second line
G92 E0 ; Reset Extruder
G1 Z2.0 F3000 ; Move Z Axis up little to prevent scratching of Heat Bed
G1 X5 Y20 Z0.3 F5000.0 ; Move over to prevent blob squish
M82 ;absolute extrusion mode
G92 E0
G92 E0
G1 F2700 E-5
;LAYER_COUNT:33
;LAYER:0
M107
;MESH:Top.stl
G0 F6000 X117.5 Y126.831 Z0.2
;TYPE:WALL-INNER
G1 F2700 E0
G1 F1200 X128.336 Y126.834 E0.36041
G1 X128.336 Y108.164 E0.98137
G1 X106.664 Y108.164 E1.70219
G1 X106.664 Y126.828 E2.32295
G1 X117.5 Y126.831 E2.68336
G0 F6000 X117.5 Y127.231
;TYPE:WALL-OUTER
G1 F1200 X128.55 Y127.235 E3.05089
G1 X128.696 Y127.111 E3.05726
G1 X128.736 Y127.013 E3.06078
G1 X128.736 Y107.987 E3.69358
G1 X128.658 Y107.833 E3.69933
G1 X128.501 Y107.764 E3.70503
G1 X106.537 Y107.764 E4.43556
G1 X106.346 Y107.835 E4.44233
G1 X106.264 Y107.946 E4.44692
G1 X106.264 Y126.969 E5.07963
G1 X106.307 Y127.126 E5.08504
G1 X106.488 Y127.228 E5.09196
G1 X117.5 Y127.231 E5.45822
G0 F6000 X117.5 Y126.47
;TYPE:SKIN
G1 F1200 X107.025 Y126.468 E5.80662
G1 X107.025 Y108.525 E6.4034
G1 X127.976 Y108.524 E7.10024
G1 X127.976 Y126.471 E7.69715
G1 X117.5 Y126.47 E8.04559
G0 F6000 X117.499 Y126.73
G0 X106.836 Y126.656
G0 X106.764 Y125.893
G0 X107.225 Y125.893
G1 F1200 X107.6 Y126.267 E8.0632
G0 F6000 X108.165 Y126.267
G1 F1200 X107.225 Y125.327 E8.10742
G0 F6000 X107.225 Y124.761
G1 F1200 X108.731 Y126.267 E8.17826
G0 F6000 X109.297 Y126.267
G1 F1200 X107.225 Y124.196 E8.27569
G0 F6000 X107.225 Y123.63
G1 F1200 X109.862 Y126.267 E8.39973
G0 F6000 X110.428 Y126.267
G1 F1200 X107.225 Y123.064 E8.55039
G0 F6000 X107.225 Y122.498
G1 F1200 X110.994 Y126.267 E8.72767
G0 F6000 X111.56 Y126.268
G1 F1200 X107.225 Y121.933 E8.93158
G0 F6000 X107.225 Y121.367
G1 F1200 X112.126 Y126.268 E9.1621
G0 F6000 X112.692 Y126.268
G1 F1200 X107.225 Y120.801 E9.41925
G0 F6000 X107.225 Y120.236
G1 F1200 X113.257 Y126.268 E9.70298
G0 F6000 X113.823 Y126.268
G1 F1200 X107.225 Y119.67 E10.01333
G0 F6000 X107.225 Y119.104
G1 F1200 X114.389 Y126.268 E10.3503
G0 F6000 X114.954 Y126.268
G1 F1200 X107.225 Y118.539 E10.71385
G0 F6000 X107.225 Y117.973
G1 F1200 X115.521 Y126.269 E11.10407
G0 F6000 X116.086 Y126.269
G1 F1200 X107.225 Y117.407 E11.52089
G0 F6000 X107.225 Y116.842
G1 F1200 X116.652 Y126.269 E11.96431
G0 F6000 X117.218 Y126.269
G1 F1200 X107.225 Y116.276 E12.43435
G0 F6000 X107.225 Y115.71
G1 F1200 X117.783 Y126.269 E12.93099
G0 F6000 X118.349 Y126.269
G1 F1200 X107.225 Y115.145 E13.45422
G0 F6000 X107.225 Y114.579
G1 F1200 X118.915 Y126.269 E14.00409
G0 F6000 X119.481 Y126.269
G1 F1200 X107.225 Y114.013 E14.58057
G0 F6000 X107.225 Y113.448
G1 F1200 X120.047 Y126.269 E15.18365
G0 F6000 X120.613 Y126.269
G1 F1200 X107.225 Y112.882 E15.81336
G0 F6000 X107.225 Y112.316
G1 F1200 X121.178 Y126.269 E16.46967
G0 F6000 X121.744 Y126.269
G1 F1200 X107.225 Y111.75 E17.1526
G0 F6000 X107.225 Y111.185
G1 F1200 X122.31 Y126.269 E17.86213
G0 F6000 X122.875 Y126.269
G1 F1200 X107.225 Y110.619 E18.59825
G0 F6000 X107.225 Y110.053
G1 F1200 X123.441 Y126.269 E19.361
G0 F6000 X124.007 Y126.27
G1 F1200 X107.225 Y109.488 E20.15038
G0 F6000 X107.225 Y108.922
G1 F1200 X124.573 Y126.27 E20.96638
G0 F6000 X125.139 Y126.27
G1 F1200 X107.594 Y108.725 E21.79164
G0 F6000 X108.16 Y108.725
G1 F1200 X125.704 Y126.27 E22.61688
G0 F6000 X126.27 Y126.27
G1 F1200 X108.725 Y108.725 E23.44214
G0 F6000 X109.291 Y108.725
G1 F1200 X126.836 Y126.27 E24.2674
G0 F6000 X127.402 Y126.27
G1 F1200 X109.857 Y108.725 E25.09267
G0 F6000 X110.423 Y108.725
G1 F1200 X127.776 Y126.079 E25.90892
G0 F6000 X127.776 Y125.514
G1 F1200 X110.988 Y108.725 E26.6986
G0 F6000 X111.554 Y108.725
G1 F1200 X127.776 Y124.948 E27.46166
G0 F6000 X127.776 Y124.382
G1 F1200 X112.12 Y108.725 E28.19809
G0 F6000 X112.685 Y108.725
G1 F1200 X127.776 Y123.817 E28.90795
G0 F6000 X127.776 Y123.251
G1 F1200 X113.251 Y108.725 E29.59119
G0 F6000 X113.817 Y108.725
G1 F1200 X127.776 Y122.685 E30.2478
G0 F6000 X127.776 Y122.119
G1 F1200 X114.382 Y108.725 E30.87781
G0 F6000 X114.948 Y108.725
G1 F1200 X127.776 Y121.554 E31.48122
G0 F6000 X127.776 Y120.988
G1 F1200 X115.514 Y108.725 E32.05801
G0 F6000 X116.079 Y108.725
G1 F1200 X127.776 Y120.422 E32.6082
G0 F6000 X127.776 Y119.857
G1 F1200 X116.645 Y108.725 E33.1318
G0 F6000 X117.211 Y108.725
G1 F1200 X127.776 Y119.291 E33.62876
G0 F6000 X127.776 Y118.725
G1 F1200 X117.776 Y108.725 E34.09913
G0 F6000 X118.341 Y108.725
G1 F1200 X127.776 Y118.16 E34.54293
G0 F6000 X127.776 Y117.594
G1 F1200 X118.907 Y108.725 E34.9601
G0 F6000 X119.473 Y108.725
G1 F1200 X127.776 Y117.028 E35.35065
G0 F6000 X127.776 Y116.463
G1 F1200 X120.038 Y108.725 E35.71462
G0 F6000 X120.604 Y108.725
G1 F1200 X127.776 Y115.897 E36.05197
G0 F6000 X127.776 Y115.331
G1 F1200 X121.17 Y108.725 E36.36269
G0 F6000 X121.736 Y108.725
G1 F1200 X127.776 Y114.766 E36.64682
G0 F6000 X127.776 Y114.2
G1 F1200 X122.301 Y108.725 E36.90435
G0 F6000 X122.867 Y108.725
G1 F1200 X127.776 Y113.634 E37.13525
G0 F6000 X127.776 Y113.068
G1 F1200 X123.433 Y108.725 E37.33953
G0 F6000 X123.998 Y108.725
G1 F1200 X127.776 Y112.503 E37.51724
G0 F6000 X127.776 Y111.937
G1 F1200 X124.564 Y108.725 E37.66832
G0 F6000 X125.13 Y108.725
G1 F1200 X127.776 Y111.371 E37.79278
G0 F6000 X127.776 Y110.806
G1 F1200 X125.695 Y108.725 E37.89066
G0 F6000 X126.261 Y108.725
G1 F1200 X127.776 Y110.24 E37.96192
G0 F6000 X127.776 Y109.674
G1 F1200 X126.827 Y108.725 E38.00656
G0 F6000 X127.392 Y108.725
G1 F1200 X127.776 Y109.109 E38.02463
;MESH:NONMESH
G0 F300 X127.776 Y109.109 Z0.32
G0 F6000 X128.236 Y109.109
G0 X128.164 Y108.336
G0 X106.836 Y108.336
G0 X106.574 Y114.849
G0 X106.415 Y114.848
;TIME_ELAPSED:67.716372
;LAYER:1
M106 S85
;TYPE:WALL-INNER
;MESH:Top.stl
G1 F2240 X106.419 Y120.249 E38.12567
G0 F10500 X106.604 Y126.892
G0 X117.5 Y127.066
G1 F2100 X128.486 Y127.068 E38.34491
G1 X128.568 Y127.025 E38.34676
G1 X128.568 Y108.021 E38.726
G1 X128.52 Y107.928 E38.72809
G1 X106.51 Y107.928 E39.16732
G1 X106.428 Y107.969 E39.16915
G1 X106.429 Y113.677 E39.28306
G1 F2181.8 X106.415 Y114.848 E39.30556
G1 X107 Y114.248 E39.32165
G1 F2100 X112.391 Y114.248 E39.42924
G1 X112.66 Y114.368 E39.43511
G1 X112.81 Y114.53 E39.43952
G1 X112.896 Y114.777 E39.44474
G1 X112.896 Y120.219 E39.55334
G1 X112.854 Y120.379 E39.55664
G1 X112.746 Y120.551 E39.56069
G1 X112.555 Y120.692 E39.56543
G1 X112.391 Y120.748 E39.56889
G1 X107 Y120.748 E39.67647
G1 F2153.8 X106.419 Y120.249 E39.69138
G1 X106.431 Y121.317 E39.71216
G1 F2100 X106.432 Y126.992 E39.82541
G1 X106.462 Y127.064 E39.82696
G1 X117.5 Y127.066 E40.04724
G0 F10500 X117.5 Y127.466
;TYPE:WALL-OUTER
G1 F2100 X128.551 Y127.468 E40.26777
G1 X128.724 Y127.41 E40.27142
G1 X128.92 Y127.202 E40.27712
G1 X128.968 Y126.997 E40.28132
G1 X128.968 Y107.93 E40.66182
G1 X128.854 Y107.695 E40.66704
G1 X128.728 Y107.59 E40.67031
G1 X128.547 Y107.528 E40.67413
G1 X106.445 Y107.528 E41.1152
G1 X106.271 Y107.586 E41.11886
G1 X106.076 Y107.794 E41.12455
G1 X106.028 Y108.003 E41.12883
G1 X106.032 Y127.053 E41.50899
G1 X106.168 Y127.332 E41.51518
G1 X106.443 Y127.464 E41.52127
G1 X117.5 Y127.466 E41.74192
G1 F2700 E36.74192
G0 F10500 X117.501 Y127.159
G0 X106.604 Y126.892
G0 X106.614 Y120.601
G0 X112.344 Y120.66
G0 X112.344 Y120.344
G1 F2700 E41.74192
G1 F2100 X107 Y120.348 E41.84857
G1 X106.803 Y120.183 E41.8537
G1 X106.8 Y114.848 E41.96016
G1 X107 Y114.648 E41.96581
G1 X112.344 Y114.652 E42.07245
G1 X112.449 Y114.714 E42.07489
G1 X112.499 Y114.824 E42.0773
G1 X112.499 Y120.172 E42.18402
G1 X112.449 Y120.283 E42.18645
G1 X112.344 Y120.344 E42.18888
G0 F10500 X112.344 Y120.66
G0 X106.614 Y120.601
G0 X106.604 Y126.892
G0 X117.499 Y126.965
G0 X117.5 Y126.704
;TYPE:SKIN
G1 F2100 X106.792 Y126.704 E42.40257
G1 X106.789 Y120.981 E42.51677
G1 X107.012 Y121.108 E42.5219
G1 X112.451 Y121.106 E42.63044
G1 X112.714 Y121.016 E42.63598
G1 X113.012 Y120.792 E42.64342
G1 X113.185 Y120.518 E42.64989
G1 X113.251 Y120.26 E42.6552
G1 X113.251 Y114.736 E42.76544
G1 X113.185 Y114.474 E42.77083
G1 X113.014 Y114.202 E42.77725
G1 X112.712 Y113.974 E42.7848
G1 X112.416 Y113.888 E42.79095
G1 X107.016 Y113.888 E42.89871
G1 X106.789 Y114.03 E42.90405
G1 X106.788 Y108.288 E43.01864
G1 X128.208 Y108.288 E43.4461
G1 X128.208 Y126.704 E43.81361
G1 X117.5 Y126.704 E44.0273
G0 F10500 X117.499 Y126.965
G0 X127.488 Y126.966
G0 X127.489 Y126.504
G1 F2100 X128.008 Y125.985 E44.04195
G0 F10500 X128.008 Y125.42
G1 F2100 X126.923 Y126.504 E44.07256
G0 F10500 X126.357 Y126.504
G1 F2100 X128.008 Y124.854 E44.11914
G0 F10500 X128.008 Y124.288
G1 F2100 X125.791 Y126.504 E44.18169
G0 F10500 X125.226 Y126.504
G1 F2100 X128.008 Y123.722 E44.26021
G0 F10500 X128.008 Y123.157
G1 F2100 X124.66 Y126.504 E44.35468
G0 F10500 X124.094 Y126.504
G1 F2100 X128.008 Y122.591 E44.46513
G0 F10500 X128.008 Y122.025
G1 F2100 X123.529 Y126.504 E44.59153
G0 F10500 X122.963 Y126.504
G1 F2100 X128.008 Y121.46 E44.7339
G0 F10500 X128.008 Y120.894
G1 F2100 X122.397 Y126.504 E44.89224
G0 F10500 X121.832 Y126.504
G1 F2100 X128.008 Y120.328 E45.06654
G0 F10500 X128.008 Y119.763
G1 F2100 X121.266 Y126.504 E45.2568
G0 F10500 X120.7 Y126.504
G1 F2100 X128.008 Y119.197 E45.46303
G0 F10500 X128.008 Y118.631
G1 F2100 X120.135 Y126.504 E45.68523
G0 F10500 X119.569 Y126.504
G1 F2100 X128.008 Y118.066 E45.92338
G0 F10500 X128.008 Y117.5
G1 F2100 X119.003 Y126.504 E46.17751
G0 F10500 X118.438 Y126.504
G1 F2100 X128.008 Y116.934 E46.44759
G0 F10500 X128.008 Y116.369
G1 F2100 X117.872 Y126.504 E46.73364
G0 F10500 X117.306 Y126.504
G1 F2100 X128.008 Y115.803 E47.03566
G0 F10500 X128.008 Y115.237
G1 F2100 X116.741 Y126.504 E47.35364
G0 F10500 X116.175 Y126.504
G1 F2100 X128.008 Y114.672 E47.68758
G0 F10500 X128.008 Y114.106
G1 F2100 X115.609 Y126.504 E48.03749
G0 F10500 X115.043 Y126.504
G1 F2100 X128.008 Y113.54 E48.40337
G0 F10500 X128.008 Y112.974
G1 F2100 X114.478 Y126.504 E48.78522
G0 F10500 X113.912 Y126.504
G1 F2100 X128.008 Y112.409 E49.18303
G0 F10500 X128.008 Y111.843
G1 F2100 X113.346 Y126.504 E49.5968
G0 F10500 X112.781 Y126.504
G1 F2100 X128.008 Y111.277 E50.02654
G0 F10500 X128.008 Y110.712
G1 F2100 X112.215 Y126.504 E50.47224
G0 F10500 X111.649 Y126.504
G1 F2100 X128.008 Y110.146 E50.93391
G0 F10500 X128.008 Y109.58
G1 F2100 X111.084 Y126.504 E51.41155
G0 F10500 X110.518 Y126.504
G1 F2100 X128.008 Y109.015 E51.90514
G0 F10500 X127.969 Y108.488
G1 F2100 X109.952 Y126.504 E52.4136
G0 F10500 X109.387 Y126.504
G1 F2100 X127.403 Y108.488 E52.92205
G0 F10500 X126.837 Y108.488
G1 F2100 X108.821 Y126.504 E53.4305
G0 F10500 X108.255 Y126.504
G1 F2100 X126.272 Y108.488 E53.93897
G0 F10500 X125.706 Y108.488
G1 F2100 X107.69 Y126.504 E54.44742
G0 F10500 X107.124 Y126.504
G1 F2100 X112.325 Y121.303 E54.5942
G0 F10500 X111.76 Y121.303
G1 F2100 X106.992 Y126.07 E54.72875
G0 F10500 X106.992 Y125.504
G1 F2100 X111.193 Y121.303 E54.84731
G0 F10500 X110.627 Y121.304
G1 F2100 X106.992 Y124.939 E54.9499
G0 F10500 X106.991 Y124.374
G1 F2100 X110.06 Y121.305 E55.03651
G0 F10500 X109.495 Y121.305
G1 F2100 X106.991 Y123.809 E55.10718
G0 F10500 X106.99 Y123.244
G1 F2100 X108.928 Y121.306 E55.16188
G0 F10500 X108.362 Y121.306
G1 F2100 X106.99 Y122.678 E55.2006
G0 F10500 X106.989 Y122.113
G1 F2100 X107.796 Y121.306 E55.22337
G0 F10500 X107.23 Y121.307
G1 F2100 X106.989 Y121.547 E55.23016
G0 F10500 X106.53 Y121.547
G0 X106.614 Y120.601
G0 X112.738 Y120.588
G0 X112.995 Y120.178
G0 X113.45 Y120.178
G1 F2100 X125.14 Y108.488 E55.56008
G0 F10500 X124.575 Y108.488
G1 F2100 X113.45 Y119.612 E55.87403
G0 F10500 X113.45 Y119.046
G1 F2100 X124.009 Y108.488 E56.17202
G0 F10500 X123.443 Y108.488
G1 F2100 X113.45 Y118.481 E56.45404
G0 F10500 X113.45 Y117.915
G1 F2100 X122.877 Y108.488 E56.72009
G0 F10500 X122.312 Y108.488
G1 F2100 X113.45 Y117.349 E56.97018
G0 F10500 X113.45 Y116.784
G1 F2100 X121.746 Y108.488 E57.20431
G0 F10500 X121.18 Y108.488
G1 F2100 X113.45 Y116.218 E57.42247
G0 F10500 X113.45 Y115.652
G1 F2100 X120.615 Y108.488 E57.62467
G0 F10500 X120.049 Y108.488
G1 F2100 X113.45 Y115.087 E57.81091
G0 F10500 X113.411 Y114.56
G1 F2100 X119.483 Y108.488 E57.98227
G0 F10500 X118.918 Y108.488
G1 F2100 X113.229 Y114.177 E58.14283
G0 F10500 X112.941 Y113.899
G1 F2100 X118.352 Y108.488 E58.29554
G0 F10500 X117.786 Y108.488
G1 F2100 X112.55 Y113.724 E58.44331
G0 F10500 X112.021 Y113.688
G1 F2100 X117.221 Y108.488 E58.59006
G0 F10500 X116.655 Y108.488
G1 F2100 X111.455 Y113.688 E58.73682
G0 F10500 X110.889 Y113.688
G1 F2100 X116.089 Y108.488 E58.88357
G0 F10500 X115.524 Y108.488
G1 F2100 X110.324 Y113.688 E59.03033
G0 F10500 X109.758 Y113.688
G1 F2100 X114.958 Y108.488 E59.17709
G0 F10500 X114.392 Y108.488
G1 F2100 X109.192 Y113.688 E59.32384
G0 F10500 X108.626 Y113.688
G1 F2100 X113.827 Y108.488 E59.47061
G0 F10500 X113.261 Y108.488
G1 F2100 X108.061 Y113.688 E59.61736
G0 F10500 X107.495 Y113.688
G1 F2100 X112.695 Y108.488 E59.76412
G0 F10500 X112.129 Y108.488
G1 F2100 X106.988 Y113.629 E59.90921
G0 F10500 X106.988 Y113.064
G1 F2100 X111.564 Y108.488 E60.03835
G0 F10500 X110.998 Y108.488
G1 F2100 X106.988 Y112.498 E60.15153
G0 F10500 X106.988 Y111.932
G1 F2100 X110.432 Y108.488 E60.24872
G0 F10500 X109.867 Y108.488
G1 F2100 X106.988 Y111.366 E60.32996
G0 F10500 X106.988 Y110.801
G1 F2100 X109.301 Y108.488 E60.39524
G0 F10500 X108.735 Y108.488
G1 F2100 X106.988 Y110.235 E60.44454
G0 F10500 X106.988 Y109.669
G1 F2100 X108.17 Y108.488 E60.47789
G0 F10500 X107.604 Y108.488
G1 F2100 X106.988 Y109.104 E60.49527
;MESH:NONMESH
G0 F300 X106.988 Y109.104 Z0.44
G0 F10500 X106.529 Y109.104
G0 X106.358 Y114.848
;TIME_ELAPSED:111.647825
;LAYER:2
M106 S170
;TYPE:WALL-INNER
;MESH:Top.stl
G1 F2449 X106.362 Y120.259 E60.62755
G0 F15000 X106.488 Y127.008
G0 X117.5 Y127.182
G1 F3000 X128.503 Y127.184 E60.84713
G1 X128.607 Y127.128 E60.84948
G1 X128.68 Y126.981 E60.85276
G1 X128.68 Y108.025 E61.23105
G1 X128.63 Y107.886 E61.23399
G1 X128.508 Y107.816 E61.2368
G1 X106.491 Y107.816 E61.67617
G1 X106.387 Y107.871 E61.67852
G1 X106.316 Y108.017 E61.68176
G1 X106.316 Y114.206 E61.80527
G1 F2714.9 X106.358 Y114.848 E61.81946
G1 X106.639 Y114.368 E61.83172
G1 F3000 X107 Y114.248 E61.83931
G1 X112.384 Y114.248 E61.94676
G1 X112.714 Y114.413 E61.95412
G1 X112.83 Y114.565 E61.95794
G1 X112.897 Y114.785 E61.96253
G1 X112.897 Y120.212 E62.07083
G1 X112.78 Y120.509 E62.0772
G1 X112.631 Y120.649 E62.08128
G1 X112.393 Y120.748 E62.08642
G1 X107 Y120.748 E62.19405
G1 X106.639 Y120.628 E62.20164
G1 F2678.6 X106.362 Y120.259 E62.21195
G1 X106.316 Y120.79 E62.22386
G1 F3000 X106.316 Y126.956 E62.34691
G1 X106.361 Y127.11 E62.35011
G1 X106.531 Y127.18 E62.35378
G1 X117.5 Y127.182 E62.57268
G0 F15000 X117.5 Y127.582
;TYPE:WALL-OUTER
G1 F3000 X128.603 Y127.584 E62.79425
G1 X128.877 Y127.437 E62.80046
G1 X129.031 Y127.225 E62.80569
G1 X129.08 Y127.031 E62.80968
G1 X129.08 Y107.971 E63.19004
G1 X129.013 Y107.727 E63.19509
G1 X128.898 Y107.578 E63.19885
G1 X128.613 Y107.416 E63.20539
G1 X106.393 Y107.416 E63.64882
G1 X106.119 Y107.56 E63.65499
G1 X105.965 Y107.77 E63.66019
G1 X105.916 Y107.969 E63.66428
G1 X105.916 Y127.012 E64.0443
G1 X105.995 Y127.29 E64.05007
G1 X106.211 Y127.505 E64.05615
G1 X106.476 Y127.58 E64.06165
G1 X117.5 Y127.582 E64.28164
G1 F2700 E59.28164
G0 F15000 X117.501 Y127.274
G0 X106.488 Y127.008
G0 X106.495 Y120.758
G0 X112.34 Y120.66
G0 X112.34 Y120.345
G1 F2700 E64.28164
G1 F3000 X107 Y120.348 E64.38821
G1 X106.879 Y120.308 E64.39075
G1 X106.803 Y120.183 E64.39367
G1 X106.8 Y114.848 E64.50014
G1 X106.879 Y114.688 E64.5037
