;FLAVOR:Marlin
;TIME:2406
;Filament used: 1.45919m
;Layer height: 0.12
;MINX:105.372
;MINY:77.124
;MINZ:0.2
;MAXX:129.658
;MAXY:157.908
;MAXZ:8
;TARGET_MACHINE.NAME:Creality Ender-3
;Generated with Cura_SteamEngine 5.11.0
M140 S60
M105
M190 S60
M104 S200
M105
M109 S200
; Ender 3 Custom Start G-code
G92 E0 ; Reset Extruder
G28 ; Home all axes
G1 Z2.0 F3000 ; Move Z Axis up little to prevent scratching of Heat Bed
G1 X0.1 Y20 Z0.3 F5000.0 ; Move to start position
G1 X0.1 Y200.0 Z0.3 F1500.0 E15 ; Draw the first line
G1 X0.4 Y200.0 Z0.3 F5000.0 ; Move to side a little
G1 X0.4 Y20 Z0.3 F1500.0 E30 ; Draw the second line
G92 E0 ; Reset Extruder
G1 Z2.0 F3000 ; Move Z Axis up little to prevent scratching of Heat Bed
G1 X5 Y20 Z0.3 F5000.0 ; Move over to prevent blob squish
M82 ;absolute extrusion mode
G92 E0
G92 E0
G1 F2700 E-5
;LAYER_COUNT:66
;LAYER:0
M107
;MESH:Bottom.stl
G0 F6000 X123.234 Y86.666 Z0.2
;TYPE:WALL-INNER
G1 F2700 E0
G1 F1200 X123.046 Y86.605 E0.00657
G1 X122.897 Y86.495 E0.01273
G1 X122.76 Y86.28 E0.02121
G1 X122.725 Y86.118 E0.02673
G1 X122.729 Y85.128 E0.05965
G1 X122.805 Y84.909 E0.06736
G1 X123.119 Y84.65 E0.0809
G1 X122.805 Y84.391 E0.09444
G1 X122.726 Y84.142 E0.10313
G1 X122.724 Y80.924 E0.21016
G1 X122.77 Y80.693 E0.21799
G1 X122.964 Y80.443 E0.22852
G1 X123.241 Y80.324 E0.23855
G1 X123.84 Y80.324 E0.25847
G1 X124.132 Y80.399 E0.2685
G1 X124.331 Y80.578 E0.2774
G1 X124.44 Y80.924 E0.28946
G1 X124.44 Y81.028 E0.29292
G1 X125.824 Y81.028 E0.33895
G1 X126.111 Y81.101 E0.3488
G1 X126.327 Y81.3 E0.35857
G1 X126.424 Y81.628 E0.36995
G1 X126.424 Y82.307 E0.39253
G1 X126.298 Y82.602 E0.4032
G1 X126.046 Y82.724 E0.41251
G1 X126.298 Y82.846 E0.42183
G1 X126.384 Y82.997 E0.42761
G1 X126.424 Y83.216 E0.43501
G1 X126.424 Y83.883 E0.45719
G1 X126.369 Y84.056 E0.46323
G1 X126.29 Y84.128 E0.46679
G1 X126.369 Y84.2 E0.47034
G1 X126.424 Y84.452 E0.47892
G1 X126.424 Y84.954 E0.49562
G1 X126.372 Y85.122 E0.50147
G1 X126.298 Y85.19 E0.50481
G1 X126.372 Y85.258 E0.50815
G1 X126.424 Y85.504 E0.51652
G1 X126.424 Y86.158 E0.53827
G1 X126.305 Y86.432 E0.5482
G1 X126.055 Y86.626 E0.55873
G1 X125.824 Y86.672 E0.56656
G1 X123.234 Y86.666 E0.65271
G1 F2700 E-4.34729
G0 F6000 X120.098 Y113.795
G0 X122.123 Y115.961
G1 F2700 E0.65271
G1 F1200 X121.976 Y115.959 E0.6576
G1 X121.604 Y115.755 E0.67171
G1 X120.312 Y113.989 E0.74448
G1 X120.258 Y113.78 E0.75166
G1 X120.259 Y112.564 E0.79211
G1 X120.377 Y112.269 E0.80268
G1 X120.542 Y112.12 E0.81007
G1 X120.802 Y112.034 E0.81918
G1 X125.857 Y112.036 E0.98731
G1 X126.088 Y112.082 E0.99514
G1 X126.337 Y112.275 E1.00562
G1 X126.456 Y112.636 E1.01826
G1 X126.456 Y113.902 E1.06037
G1 X126.38 Y114.114 E1.06786
G1 X126.199 Y114.313 E1.07681
G1 X125.929 Y114.416 E1.08642
G1 X123.385 Y114.42 E1.17103
G1 X123.494 Y114.842 E1.18553
G1 X123.405 Y115.077 E1.19389
G1 X123.254 Y115.238 E1.20123
G1 X122.367 Y115.88 E1.23765
G1 X122.123 Y115.961 E1.2462
G1 F2700 E-3.7538
G0 F6000 X120.098 Y113.795
G0 X122.557 Y124.458
G0 X123.543 Y124.456
G0 X123.342 Y124.589
G1 F2700 E1.2462
G1 F1200 X123.759 Y124.518 E1.26027
G1 X124.038 Y124.352 E1.27107
G1 X124.134 Y124.241 E1.27595
G1 X124.256 Y123.94 E1.28675
G1 X124.254 Y123.583 E1.29862
G1 X124.118 Y123.299 E1.3091
G1 X123.94 Y123.134 E1.31717
G1 X123.803 Y122.915 E1.32576
G1 X123.77 Y122.772 E1.33064
G1 X123.786 Y122.562 E1.33765
G1 X123.931 Y122.3 E1.34761
G1 X124.255 Y121.956 E1.36332
G1 X122.337 Y121.957 E1.42712
G1 X122.697 Y122.315 E1.444
G1 X122.849 Y122.575 E1.45402
G1 X122.871 Y122.784 E1.46101
G1 X122.842 Y122.928 E1.4659
G1 X122.711 Y123.15 E1.47447
G1 X122.541 Y123.312 E1.48228
G1 X122.432 Y123.584 E1.49203
G1 X122.432 Y123.931 E1.50357
G1 X122.483 Y124.097 E1.50934
G1 X122.66 Y124.347 E1.51953
G1 X122.948 Y124.521 E1.53072
G1 X123.342 Y124.589 E1.54402
G1 F2700 E-3.45598
G0 F6000 X123.543 Y124.456
G0 X123.591 Y124.742
G0 X123.857 Y126.875
G0 X124.278 Y132.469
G1 F2700 E1.54402
G1 F1100.9 X124.251 Y132.422 E1.54599
G1 X124.197 Y132.422 E1.54794
G1 X124.17 Y132.469 E1.54991
G1 X124.197 Y132.516 E1.55187
G1 X124.251 Y132.516 E1.55383
G1 X124.278 Y132.469 E1.5558
G1 F2700 E-3.4442
G0 F6000 X124.259 Y132.417
G0 X124.188 Y134.563
G0 X124.056 Y136.549
G0 X122.639 Y137.29
G1 F2700 E1.5558
G1 F1124.1 X122.77 Y137.09 E1.56429
G1 X123.074 Y136.748 E1.58053
G1 X122.065 Y136.75 E1.61636
G1 X122.639 Y137.29 E1.64434
G1 F2700 E-3.35566
G0 F6000 X122.586 Y136.969
G0 X122.689 Y137.606
G0 X124.02 Y137.655
G0 X123.872 Y139.956
G0 X124.228 Y140.965
G1 F2700 E1.64434
G1 F1159.4 X124.294 Y140.791 E1.65074
G1 X124.397 Y140.733 E1.65481
G1 X124.018 Y140.361 E1.67309
G1 X123.922 Y140.218 E1.67902
G1 X123.682 Y140.522 E1.69236
G1 X123.369 Y140.749 E1.70567
G1 X123.856 Y140.749 E1.72243
G1 X124.092 Y140.839 E1.73113
G1 X124.228 Y140.965 E1.73751
G1 F2700 E-3.26249
G0 F6000 X124.284 Y140.965
G0 X124.198 Y143.01
G0 X124.196 Y145.029
G0 X123.951 Y145.644
G1 F2700 E1.73751
G1 F1212.1 X124.687 Y145.196 E1.76588
G1 X123.483 Y145.198 E1.80552
G1 X123.642 Y145.319 E1.8121
G1 X123.951 Y145.644 E1.82687
G0 F6000 X122.946 Y145.09
G0 X122.364 Y145.008
G0 X121.884 Y145.053
G0 X121.421 Y145.221
G0 X121.063 Y145.482
G0 X120.79 Y145.81
G0 X120.595 Y146.187
G0 X120.414 Y146.971
G0 X120.403 Y149.718
G0 X120.815 Y150.322
G0 X120.608 Y150.702
G0 X120.413 Y151.531
G0 X120.401 Y154.238
G0 X120.836 Y154.4
G1 F1200 X120.553 Y154.33 E1.83657
G1 X120.355 Y154.16 E1.84525
G1 X120.236 Y153.92 E1.85416
G1 X120.24 Y151.942 E1.91994
G1 X120.26 Y151.542 E1.93327
G1 X120.338 Y151.072 E1.94911
G1 X120.466 Y150.654 E1.96365
G1 X120.687 Y150.236 E1.97938
G1 X120.995 Y149.881 E1.99501
G1 X120.64 Y149.847 E2.00687
G1 X120.39 Y149.679 E2.01689
G1 X120.283 Y149.505 E2.02368
G1 X120.24 Y149.303 E2.03055
G1 X120.24 Y147.347 E2.09561
G1 X120.26 Y146.979 E2.10787
G1 X120.329 Y146.553 E2.12222
G1 X120.451 Y146.138 E2.13661
G1 X120.659 Y145.726 E2.15196
G1 X120.93 Y145.405 E2.16593
G1 X121.195 Y145.197 E2.17713
G1 X120.81 Y145.196 E2.18994
G1 X120.586 Y145.14 E2.19762
G1 X120.371 Y144.971 E2.20672
G1 X120.242 Y144.724 E2.21598
G1 X120.248 Y141.164 E2.33439
G1 X120.349 Y140.895 E2.34395
G1 X120.547 Y140.714 E2.35287
G1 X120.787 Y140.638 E2.36124
G1 X121.006 Y140.635 E2.36853
G1 X120.882 Y140.54 E2.37372
G1 X120.591 Y140.205 E2.38848
G1 X120.363 Y139.795 E2.40408
G1 X120.23 Y139.404 E2.41782
G1 X120.148 Y138.992 E2.43179
G1 X120.116 Y138.54 E2.44686
G1 X120.172 Y137.958 E2.46631
G1 X120.304 Y137.48 E2.4828
G1 X120.519 Y137.008 E2.50006
G1 X120.73 Y136.705 E2.51234
G1 X120.533 Y136.65 E2.51914
G1 X120.308 Y136.408 E2.53013
G1 X120.248 Y136.212 E2.53695
G1 X120.251 Y132.711 E2.65339
G1 X120.345 Y132.448 E2.66268
G1 X120.573 Y132.312 E2.67151
G1 X120.345 Y132.176 E2.68034
G1 X120.249 Y131.887 E2.69047
G1 X120.253 Y130.388 E2.74033
G1 X120.356 Y130.127 E2.74966
G1 X120.533 Y129.96 E2.75775
G1 X121.996 Y129.064 E2.81481
G1 X120.852 Y129.072 E2.85286
G1 X120.533 Y128.984 E2.86387
G1 X120.356 Y128.817 E2.87196
G1 X120.253 Y128.556 E2.88129
G1 X120.25 Y127.246 E2.92487
G1 X120.292 Y127.071 E2.93085
G1 X120.444 Y126.855 E2.93964
G1 X120.603 Y126.752 E2.94594
G1 X120.799 Y126.702 E2.95266
G1 X121.722 Y126.7 E2.98336
G1 X121.432 Y126.521 E2.9947
G1 X121.056 Y126.21 E3.01093
G1 X120.779 Y125.873 E3.02544
G1 X120.541 Y125.533 E3.03924
G1 X120.335 Y125.065 E3.05625
G1 X120.234 Y124.732 E3.06782
G1 X120.164 Y124.405 E3.07894
G1 X120.128 Y124.094 E3.08936
G1 X120.11 Y123.669 E3.10351
G1 X120.196 Y123.019 E3.12531
G1 X120.355 Y122.516 E3.14286
G1 X120.516 Y122.141 E3.15643
G1 X120.67 Y121.91 E3.16567
G1 X120.442 Y121.795 E3.17416
G1 X120.32 Y121.635 E3.18085
G1 X120.254 Y121.408 E3.18871
G1 X120.255 Y117.932 E3.30433
G1 X120.368 Y117.636 E3.31486
G1 X120.595 Y117.449 E3.32465
G1 X120.805 Y117.393 E3.33188
G1 X121.976 Y117.392 E3.37082
G1 X122.273 Y117.542 E3.38189
G1 X122.382 Y117.783 E3.39069
G1 X122.549 Y117.578 E3.39948
G1 X122.73 Y117.516 E3.40584
G1 X123.923 Y117.516 E3.44552
G1 X124.253 Y117.79 E3.45979
G1 X124.41 Y117.429 E3.47288
G1 X124.545 Y117.334 E3.47837
G1 X124.757 Y117.271 E3.48573
G1 X125.967 Y117.272 E3.52597
G1 X126.196 Y117.375 E3.53433
G1 X126.376 Y117.574 E3.54325
G1 X126.452 Y117.868 E3.55335
G1 X126.452 Y121.439 E3.67212
G1 X126.354 Y121.695 E3.68124
G1 X126.128 Y121.89 E3.69117
G1 X126.034 Y121.927 E3.69453
G1 X126.313 Y122.438 E3.71389
G1 X126.513 Y123.035 E3.73483
G1 X126.568 Y123.479 E3.74971
G1 X126.584 Y123.834 E3.76153
G1 X126.569 Y124.162 E3.77245
G1 X126.532 Y124.468 E3.78271
G1 X126.459 Y124.768 E3.79297
G1 X126.339 Y125.138 E3.80591
G1 X126.215 Y125.404 E3.81567
G1 X126.019 Y125.763 E3.82928
G1 X125.595 Y126.254 E3.85085
G1 X125.145 Y126.601 E3.86975
G1 X124.96 Y126.703 E3.87678
G1 X125.939 Y126.71 E3.90934
G1 X126.25 Y126.858 E3.9208
G1 X126.448 Y127.304 E3.93703
G1 X126.448 Y128.764 E3.98559
G1 X126.273 Y129.119 E3.99875
G1 X124.707 Y130.088 E4.06
G1 X125.843 Y130.08 E4.09779
G1 X126.165 Y130.17 E4.10891
G1 X126.292 Y130.275 E4.11439
G1 X126.448 Y130.68 E4.12882
G1 X126.448 Y131.925 E4.17023
G1 X126.356 Y132.172 E4.179
G1 X126.214 Y132.25 E4.18439
G1 X126.356 Y132.328 E4.18978
G1 X126.448 Y132.649 E4.20088
G1 X126.444 Y136.223 E4.31975
G1 X126.314 Y136.51 E4.33023
G1 X126.082 Y136.687 E4.33994
G1 X125.641 Y136.737 E4.3547
G1 X126.047 Y137.151 E4.37399
G1 X126.296 Y137.554 E4.38974
G1 X126.46 Y138.01 E4.40586
G1 X126.548 Y138.451 E4.42082
G1 X126.572 Y138.886 E4.43531
G1 X126.553 Y139.173 E4.44487
G1 X126.516 Y139.484 E4.45529
G1 X126.454 Y139.759 E4.46467
G1 X126.325 Y140.185 E4.47947
G1 X126.1 Y140.607 E4.49538
G1 X126.358 Y140.766 E4.50546
G1 X126.444 Y141.109 E4.51722
G1 X126.44 Y144.681 E4.63602
G1 X126.371 Y144.882 E4.64309
G1 X126.259 Y144.996 E4.64841
G1 X126.371 Y145.11 E4.65372
G1 X126.44 Y145.392 E4.66338
G1 X126.44 Y146.687 E4.70645
G1 X126.349 Y146.923 E4.71486
G1 X126.127 Y147.132 E4.725
G1 X125.458 Y147.495 E4.75032
G1 X125.841 Y147.496 E4.76306
G1 X126.127 Y147.568 E4.77287
G1 X126.349 Y147.777 E4.78301
G1 X126.44 Y148.096 E4.79404
G1 X126.44 Y149.365 E4.83625
G1 X126.33 Y149.628 E4.84573
G1 X126.094 Y149.825 E4.85596
G1 X125.84 Y149.88 E4.8646
G1 X123.768 Y149.88 E4.93351
G1 X124.101 Y150.269 E4.95055
G1 X124.321 Y150.68 E4.96605
G1 X124.46 Y151.142 E4.9821
G1 X124.536 Y151.586 E4.99708
G1 X124.547 Y151.992 E5.01059
G1 X125.932 Y151.992 E5.05665
G1 X126.094 Y152.047 E5.06234
G1 X126.33 Y152.245 E5.07259
G1 X126.44 Y152.594 E5.08476
G1 X126.436 Y153.881 E5.12757
G1 X126.369 Y154.079 E5.13452
G1 X126.204 Y154.275 E5.14304
G1 X125.92 Y154.4 E5.15336
G1 X120.836 Y154.4 E5.32246
G1 F2700 E0.32246
G0 F6000 X120.21 Y154.268
G0 X120.21 Y155.888
G0 X117.5 Y156.088
G1 F2700 E5.32246
G1 F1200 X127.836 Y156.088 E5.66623
G1 X127.836 Y78.908 E8.23325
G1 X107.16 Y78.912 E8.92094
G1 X107.16 Y156.088 E11.48782
G1 X117.5 Y156.088 E11.83173
G0 F6000 X117.5 Y156.488
;TYPE:WALL-OUTER
G1 F1200 X127.806 Y156.488 E12.17451
G1 X128.012 Y156.443 E12.18152
G1 X128.157 Y156.309 E12.18809
G1 X128.236 Y156.126 E12.19472
G1 X128.236 Y78.942 E14.76187
G1 X128.191 Y78.735 E14.76891
G1 X128.06 Y78.59 E14.77541
G1 X127.877 Y78.508 E14.78208
G1 X107.118 Y78.512 E15.47253
G1 X106.939 Y78.591 E15.47904
G1 X106.805 Y78.736 E15.4856
G1 X106.76 Y78.942 E15.49262
G1 X106.76 Y156.055 E18.05741
G1 X106.805 Y156.264 E18.06452
G1 X106.935 Y156.406 E18.07092
G1 X107.119 Y156.488 E18.07762
G1 X117.5 Y156.488 E18.42289
G1 F2700 E13.42289
G0 F6000 X117.5 Y156.179
G0 X120.758 Y155.888
G0 X120.838 Y154.581
G0 X120.759 Y154
G1 F2700 E18.42289
G1 F1200 X120.636 Y153.842 E18.42955
G1 X120.64 Y151.962 E18.49208
G1 X120.662 Y151.537 E18.50624
G1 X120.728 Y151.16 E18.51897
G1 X120.847 Y150.78 E18.53221
G1 X121.032 Y150.448 E18.54485
G1 X121.244 Y150.204 E18.5556
G1 X121.566 Y149.983 E18.56859
G1 F1224.5 X121.944 Y149.858 E18.58157
G1 F1283.4 X122.403 Y149.823 E18.59589
G1 F1286.9 X122.781 Y149.853 E18.60765
G1 F1224.5 X123.211 Y149.986 E18.62232
G1 F1200 X123.541 Y150.23 E18.63597
G1 X123.777 Y150.512 E18.6482
G1 X123.941 Y150.817 E18.65972
G1 X124.066 Y151.21 E18.67343
G1 X124.142 Y151.654 E18.68841
G1 X124.151 Y152.392 E18.71296
G1 X125.886 Y152.397 E18.77067
G1 X126.004 Y152.476 E18.77539
G1 X126.04 Y152.593 E18.77946
G1 X126.034 Y153.835 E18.82077
G1 X125.959 Y153.959 E18.82559
G1 X125.871 Y153.997 E18.82878
G1 X120.759 Y154 E18.99881
G1 F2700 E13.99881
G0 F6000 X120.758 Y154.31
G0 X120.401 Y154.238
G0 X120.413 Y151.531
G0 X120.84 Y149.79
G0 X120.84 Y149.481
G1 F2700 E18.99881
G1 F1200 X120.734 Y149.45 E19.00248
G1 X120.643 Y149.319 E19.00779
G1 X120.64 Y147.38 E19.07228
G1 X120.662 Y146.978 E19.08567
G1 X120.72 Y146.637 E19.09717
G1 X120.825 Y146.28 E19.10955
G1 X121.01 Y145.931 E19.12269
G1 X121.224 Y145.676 E19.13376
G1 X121.513 Y145.459 E19.14578
G1 F1124.1 X121.941 Y145.272 E19.16236
G1 F1081.1 X122.383 Y145.245 E19.17871
G1 F1066.7 X122.837 Y145.293 E19.19579
G1 X123.334 Y145.573 E19.21714
G1 F1153.8 X123.669 Y145.926 E19.23397
G1 F1200 X123.797 Y146.203 E19.24412
G1 F1250 X125.576 Y145.138 E19.31032
G1 F1297.3 X125.765 Y145.134 E19.31614
G1 F1243.5 X125.939 Y145.219 E19.32236
G1 F1200 X126.04 Y145.321 E19.32713
G1 X126.038 Y146.639 E19.37097
G1 X125.936 Y146.78 E19.37675
G1 X124.056 Y147.803 E19.44794
G1 X124.056 Y147.892 E19.4509
G1 X125.91 Y147.896 E19.51257
G1 X126.01 Y147.989 E19.51711
G1 X126.04 Y148.096 E19.5208
G1 X126.038 Y149.315 E19.56135
G1 X125.903 Y149.48 E19.56844
G1 X123.269 Y149.48 E19.65605
G1 F1256.5 X122.349 Y149.461 E19.68528
G1 X121.505 Y149.48 E19.71209
G1 F1200 X120.84 Y149.481 E19.73421
G1 F2700 E14.73421
G0 F6000 X120.84 Y149.79
G0 X120.403 Y149.718
G0 X120.414 Y146.971
G0 X120.595 Y146.187
G0 X120.79 Y145.81
G0 X121.063 Y145.482
G0 X121.421 Y145.221
G0 X121.884 Y145.053
G0 X122.364 Y145.008
G0 X122.868 Y145.108
G0 X122.869 Y144.831
G1 F2700 E19.73421
G1 F1069 X122.352 Y144.813 E19.75352
G1 F1083.5 X121.902 Y144.823 E19.7701
G1 F1124.1 X121.455 Y144.797 E19.786
G1 F1200 X120.778 Y144.796 E19.80852
G1 X120.683 Y144.721 E19.81254
G1 X120.64 Y144.614 E19.81638
G1 X120.649 Y141.188 E19.93033
G1 X120.765 Y141.036 E19.93669
G1 F1194 X121.922 Y141.041 E19.97536
G1 F1052.6 X122.107 Y141.12 E19.98299
G1 F983.6 X122.102 Y143.198 E20.06731
G1 F1025.6 X122.57 Y143.198 E20.08552
G1 F983.6 X122.573 Y141.192 E20.16692
G1 F981.6 X122.757 Y141.127 E20.17485
G1 F1106 X123.18 Y141.156 E20.19016
G1 F1200 X123.81 Y141.159 E20.21111
G1 F1137.4 X123.97 Y141.255 E20.21766
G1 F995.9 X124.032 Y141.356 E20.22241
G1 F923.1 X124.032 Y143.172 E20.30093
G1 X124.552 Y143.172 E20.32341
G1 X124.552 Y141.356 E20.40193
G1 F995.9 X124.59 Y141.108 E20.41199
G1 F1137.4 X124.641 Y141.003 E20.41608
G1 F1200 X124.812 Y140.908 E20.42259
G1 F1218.3 X125.248 Y140.914 E20.43687
G1 F1230.8 X125.11 Y140.86 E20.44168
G1 F1212.1 X124.303 Y140.071 E20.47884
G1 F1098.4 X124.213 Y139.875 E20.48668
G1 F995.9 X124.271 Y139.755 E20.49202
G1 F919.5 X124.526 Y139.443 E20.50951
G1 F855.6 X124.659 Y139.086 E20.52728
G1 F846.6 X124.671 Y138.659 E20.54742
G1 X124.558 Y138.478 E20.55748
G1 X124.329 Y138.479 E20.56828
G1 X124.189 Y138.71 E20.58101
G1 F848.1 X124.05 Y139.104 E20.60068
G1 F900.6 X123.712 Y139.847 E20.63685
G1 F1064.3 X123.402 Y140.226 E20.65521
G1 F1176.5 X122.923 Y140.564 E20.6751
G1 F1086 X122.642 Y140.673 E20.68618
G1 F941.2 X122.352 Y140.743 E20.69883
G1 F937.5 X122.261 Y140.707 E20.703
G1 F1098.4 X121.995 Y140.646 E20.71291
G1 F1197 X121.844 Y140.623 E20.71801
G1 F1200 X121.454 Y140.467 E20.73198
G1 X121.16 Y140.252 E20.74409
G1 X120.91 Y139.955 E20.757
G1 X120.731 Y139.639 E20.76908
G1 X120.611 Y139.278 E20.78174
G1 X120.542 Y138.923 E20.79376
G1 X120.516 Y138.554 E20.80607
G1 X120.556 Y138.081 E20.82186
G1 X120.682 Y137.61 E20.83807
G1 X120.903 Y137.14 E20.85535
G1 F1206 X121.173 Y136.781 E20.87021
G1 F1224.5 X121.299 Y136.71 E20.87493
G1 F1230.8 X121.468 Y136.756 E20.88061
G1 F1200 X122.333 Y137.57 E20.92011
G1 F1121.5 X122.364 Y137.718 E20.92549
G1 F1000 X122.166 Y138.014 E20.93971
G1 F921.3 X122.02 Y138.289 E20.95319
G1 F902.3 X121.982 Y138.56 E20.9653
G1 X122.018 Y138.809 E20.97643
G1 X122.138 Y138.968 E20.98524
