;FLAVOR:Marlin
;TIME:4937
;Filament used: 2.92189m
;Layer height: 0.12
;MINX:70.511
;MINY:90.899
;MINZ:0.2
;MAXX:179.99
;MAXY:154.535
;MAXZ:8
;TARGET_MACHINE.NAME:Creality Ender-3
;Generated with Cura_SteamEngine 5.11.0
M140 S60
M105
M190 S60
M104 S200
M105
M109 S200
; Ender 3 Custom Start G-code
G92 E0 ; Reset Extruder
G28 ; Home all axes
G1 Z2.0 F3000 ; Move Z Axis up little to prevent scratching of Heat Bed
G1 X0.1 Y20 Z0.3 F5000.0 ; Move to start position
G1 X0.1 Y200.0 Z0.3 F1500.0 E15 ; Draw the first line
G1 X0.4 Y200.0 Z0.3 F5000.0 ; Move to side a little
G1 X0.4 Y20 Z0.3 F1500.0 E30 ; Draw the second line
G92 E0 ; Reset Extruder
G1 Z2.0 F3000 ; Move Z Axis up little to prevent scratching of Heat Bed
G1 X5 Y20 Z0.3 F5000.0 ; Move over to prevent blob squish
M82 ;absolute extrusion mode
G92 E0
G92 E0
G1 F2700 E-5
;LAYER_COUNT:66
;LAYER:0
M107
G0 F6000 X73.168 Y93.038 Z0.2
;TYPE:SKIRT
G1 F2700 E0
G1 F1200 X75.677 Y91.423 E0.09924
G1 X78.139 Y90.899 E0.18296
G1 X156.978 Y90.899 E2.80516
G1 X158.79 Y91.361 E2.86735
G1 X160.263 Y91.926 E2.91983
G1 X162.001 Y93.283 E2.99317
G1 X163.459 Y95.101 E3.07068
G1 X164.394 Y94.814 E3.10321
G1 X166.248 Y94.518 E3.16565
G1 X167.044 Y94.494 E3.19214
G1 X169.838 Y94.529 E3.28508
G1 X170.605 Y94.615 E3.31075
G1 X171.89 Y94.888 E3.35444
G1 X172.781 Y95.168 E3.3855
G1 X173.459 Y95.446 E3.40988
G1 X174.785 Y96.151 E3.45982
G1 X175.601 Y96.706 E3.49265
G1 X176.2 Y97.191 E3.51828
G1 X177.653 Y98.71 E3.5882
G1 X177.989 Y99.165 E3.60701
G1 X178.786 Y100.512 E3.65906
G1 X179.364 Y101.84 E3.70724
G1 X179.588 Y102.555 E3.73216
G1 X179.973 Y104.848 E3.80949
G1 X179.99 Y105.475 E3.83035
G1 X179.96 Y114.174 E4.11968
G1 X179.833 Y115.356 E4.15922
G1 X179.694 Y116.023 E4.18188
G1 X179.095 Y117.858 E4.24609
G1 X178.901 Y118.281 E4.26156
G1 X177.764 Y120.132 E4.33382
G1 X177.375 Y120.619 E4.35455
G1 X175.68 Y122.225 E4.43221
G1 X175.163 Y122.594 E4.45334
G1 X173.713 Y123.419 E4.50882
G1 X172.515 Y123.907 E4.55185
G1 X171.645 Y124.163 E4.58201
G1 X169.633 Y124.477 E4.64974
G1 X168.981 Y124.494 E4.67143
G1 X166.32 Y124.464 E4.75994
G1 X165.306 Y124.358 E4.79385
G1 X164.378 Y124.153 E4.82546
G1 X164.485 Y124.654 E4.8425
G1 X164.489 Y147.021 E5.58643
G1 X164.141 Y148.682 E5.64288
G1 X163.372 Y150.31 E5.70276
G1 X162.645 Y151.499 E5.74911
G1 X161.057 Y152.955 E5.82077
G1 X159.226 Y154.039 E5.89154
G1 X156.958 Y154.535 E5.96876
G1 X78.09 Y154.535 E8.59192
G1 X76.231 Y154.137 E8.65515
G1 X74.201 Y153.202 E8.72949
G1 X72.552 Y151.672 E8.8043
G1 X71.582 Y150.332 E8.85932
G1 X70.965 Y148.838 E8.91309
G1 X70.512 Y147.305 E8.96625
G1 X70.511 Y124.606 E9.72122
G1 X70.851 Y122.984 E9.77634
G1 X70.939 Y122.753 E9.78457
G1 X70.515 Y120.812 E9.85065
G1 X70.516 Y98.306 E10.5992
G1 X71.021 Y96.461 E10.66282
G1 X71.572 Y95.072 E10.71252
G1 X73.168 Y93.038 E10.79851
G0 F6000 X73.443 Y93.336
G1 F1200 X75.831 Y91.799 E10.89297
G1 X78.18 Y91.299 E10.97285
G1 X156.926 Y91.299 E13.59195
G1 X158.691 Y91.749 E13.65253
G1 X160.065 Y92.278 E13.7015
G1 X161.718 Y93.569 E13.77126
G1 X163.083 Y95.271 E13.84383
G1 X163.226 Y95.592 E13.85551
G1 X164.458 Y95.209 E13.89842
G1 X166.26 Y94.918 E13.95914
G1 X167.039 Y94.894 E13.98506
G1 X169.793 Y94.927 E14.07666
G1 X170.56 Y95.013 E14.10233
G1 X171.77 Y95.27 E14.14348
G1 X172.661 Y95.55 E14.17454
G1 X173.271 Y95.799 E14.19645
G1 X174.597 Y96.504 E14.2464
G1 X175.349 Y97.017 E14.27668
G1 X175.948 Y97.502 E14.30231
G1 X177.331 Y98.948 E14.36886
G1 X177.667 Y99.403 E14.38768
G1 X178.441 Y100.715 E14.43834
G1 X178.982 Y101.96 E14.48349
G1 X179.206 Y102.675 E14.50841
G1 X179.573 Y104.859 E14.58207
G1 X179.59 Y105.474 E14.60253
G1 X179.562 Y114.132 E14.8905
G1 X179.441 Y115.274 E14.9287
G1 X179.302 Y115.941 E14.95136
G1 X178.731 Y117.691 E15.01258
G1 X178.537 Y118.114 E15.02806
G1 X177.451 Y119.882 E15.09707
G1 X177.062 Y120.369 E15.1178
G1 X175.448 Y121.899 E15.19177
G1 X174.931 Y122.268 E15.2129
G1 X173.562 Y123.049 E15.26532
G1 X172.402 Y123.523 E15.307
G1 X171.532 Y123.779 E15.33716
G1 X169.622 Y124.077 E15.40146
G1 X168.985 Y124.094 E15.42265
G1 X166.361 Y124.066 E15.50993
G1 X165.392 Y123.967 E15.54233
G1 X163.858 Y123.628 E15.59458
G1 X164.085 Y124.695 E15.63086
G1 X164.089 Y146.982 E16.37213
G1 X163.76 Y148.552 E16.42548
G1 X163.031 Y150.101 E16.48242
G1 X162.333 Y151.242 E16.52691
G1 X160.818 Y152.632 E16.5953
G1 X159.079 Y153.661 E16.6625
G1 X156.913 Y154.135 E16.73625
G1 X78.132 Y154.135 E19.35651
G1 X76.357 Y153.755 E19.41689
G1 X74.427 Y152.866 E19.48756
G1 X72.854 Y151.407 E19.55892
G1 X71.934 Y150.136 E19.61111
G1 X71.349 Y148.725 E19.66191
G1 X70.912 Y147.246 E19.71321
G1 X70.911 Y124.645 E20.46492
G1 X71.242 Y123.066 E20.51858
G1 X71.357 Y122.789 E20.52855
G1 X70.915 Y120.768 E20.59736
G1 X70.916 Y98.36 E21.34265
G1 X71.393 Y96.609 E21.40301
G1 X71.923 Y95.273 E21.45082
G1 X73.443 Y93.336 E21.53271
G0 F6000 X73.718 Y93.634
G1 F1200 X72.274 Y95.474 E21.61051
G1 X71.765 Y96.757 E21.65641
G1 X71.316 Y98.414 E21.71351
G1 X71.315 Y120.725 E22.45558
G1 X71.729 Y122.641 E22.52078
G1 X71.793 Y122.799 E22.52645
G1 X71.633 Y123.148 E22.53922
G1 X71.311 Y124.684 E22.59141
G1 X71.312 Y147.187 E23.33987
G1 X71.733 Y148.612 E23.38929
G1 X72.286 Y149.94 E23.43713
G1 X73.154 Y151.14 E23.48639
G1 X74.653 Y152.53 E23.55439
G1 X76.483 Y153.373 E23.6214
G1 X78.174 Y153.735 E23.67892
G1 X156.869 Y153.735 E26.29632
G1 X158.931 Y153.284 E26.36653
G1 X160.578 Y152.309 E26.43019
G1 X162.021 Y150.985 E26.49532
G1 X162.69 Y149.892 E26.53794
G1 X163.379 Y148.422 E26.59194
G1 X163.689 Y146.943 E26.6422
G1 X163.685 Y124.736 E27.38081
G1 X163.319 Y123.012 E27.43943
G1 X164.037 Y123.258 E27.46467
G1 X165.433 Y123.569 E27.51224
G1 X166.402 Y123.668 E27.54464
G1 X168.989 Y123.694 E27.63069
G1 X169.611 Y123.677 E27.65138
G1 X171.419 Y123.395 E27.71224
G1 X172.289 Y123.139 E27.74241
G1 X173.41 Y122.679 E27.78271
G1 X174.732 Y121.921 E27.83339
G1 X175.215 Y121.574 E27.85317
G1 X176.749 Y120.119 E27.92349
G1 X177.138 Y119.632 E27.94422
G1 X178.173 Y117.947 E28.01
G1 X178.367 Y117.524 E28.02547
G1 X178.91 Y115.859 E28.08372
G1 X179.049 Y115.192 E28.10638
G1 X179.164 Y114.09 E28.14324
G1 X179.19 Y105.473 E28.42984
G1 X179.173 Y104.87 E28.4499
G1 X178.824 Y102.795 E28.51989
G1 X178.6 Y102.08 E28.54481
G1 X178.074 Y100.875 E28.58854
G1 X177.345 Y99.641 E28.63621
G1 X177.009 Y99.186 E28.65502
G1 X175.696 Y97.813 E28.71821
G1 X175.097 Y97.328 E28.74384
G1 X174.372 Y96.835 E28.773
G1 X173.084 Y96.153 E28.82148
G1 X172.541 Y95.932 E28.84098
G1 X171.65 Y95.652 E28.87204
G1 X170.515 Y95.411 E28.91063
G1 X169.748 Y95.325 E28.9363
G1 X167.034 Y95.294 E29.02658
G1 X166.273 Y95.318 E29.0519
G1 X164.523 Y95.604 E29.11088
G1 X163.346 Y95.974 E29.15191
G1 X162.999 Y96.124 E29.16449
G1 X162.771 Y95.521 E29.18593
G1 X161.435 Y93.855 E29.25695
G1 X159.867 Y92.631 E29.32311
G1 X158.592 Y92.137 E29.36859
G1 X156.874 Y91.699 E29.42756
G1 X78.221 Y91.699 E32.04357
G1 X75.985 Y92.175 E32.11961
G1 X73.718 Y93.634 E32.20927
G0 F6000 X73.993 Y93.932
G1 F1200 X76.139 Y92.551 E32.29415
G1 X78.262 Y92.099 E32.36635
G1 X156.822 Y92.099 E34.97926
G1 X158.493 Y92.525 E35.03662
G1 X159.669 Y92.983 E35.07859
G1 X161.152 Y94.141 E35.14117
G1 X162.419 Y95.721 E35.20853
G1 X162.774 Y96.659 E35.24189
G1 X163.466 Y96.356 E35.26702
G1 X164.643 Y95.986 E35.30805
G1 X166.286 Y95.718 E35.36342
G1 X167.03 Y95.694 E35.38818
G1 X169.703 Y95.723 E35.47709
G1 X170.47 Y95.809 E35.50276
G1 X171.567 Y96.043 E35.54007
G1 X172.391 Y96.303 E35.56881
G1 X172.897 Y96.507 E35.58695
G1 X174.185 Y97.189 E35.63543
G1 X174.845 Y97.639 E35.662
G1 X175.444 Y98.124 E35.68763
G1 X176.687 Y99.424 E35.74745
G1 X177.023 Y99.879 E35.76626
G1 X177.708 Y101.036 E35.81099
G1 X178.218 Y102.2 E35.85325
G1 X178.442 Y102.915 E35.87817
G1 X178.773 Y104.882 E35.94452
G1 X178.79 Y105.472 E35.96415
G1 X178.766 Y114.049 E36.24942
G1 X178.657 Y115.11 E36.2849
G1 X178.518 Y115.777 E36.30756
G1 X178.003 Y117.357 E36.36283
G1 X177.809 Y117.78 E36.37831
G1 X176.825 Y119.382 E36.44084
G1 X176.436 Y119.869 E36.46157
G1 X174.981 Y121.25 E36.52829
G1 X174.532 Y121.574 E36.54671
G1 X173.257 Y122.309 E36.59565
G1 X172.176 Y122.755 E36.63455
G1 X171.306 Y123.011 E36.66471
G1 X169.6 Y123.277 E36.72214
G1 X168.993 Y123.294 E36.74234
G1 X166.443 Y123.27 E36.82715
G1 X165.474 Y123.171 E36.85955
G1 X164.166 Y122.879 E36.90413
G1 X163.547 Y122.669 E36.92587
G1 X162.901 Y122.373 E36.9495
G1 X162.769 Y122.658 E36.95995
G1 X162.887 Y122.904 E36.96902
G1 X163.285 Y124.777 E37.03271
G1 X163.289 Y146.904 E37.76866
G1 X162.998 Y148.291 E37.81579
G1 X162.349 Y149.683 E37.86687
G1 X161.709 Y150.728 E37.90763
G1 X160.338 Y151.986 E37.96952
G1 X158.784 Y152.906 E38.02958
G1 X156.824 Y153.335 E38.09632
G1 X78.216 Y153.335 E40.71083
G1 X76.609 Y152.991 E40.76549
G1 X74.879 Y152.194 E40.82884
G1 X73.454 Y150.873 E40.89347
G1 X72.639 Y149.745 E40.93976
G1 X72.117 Y148.499 E40.98469
G1 X71.712 Y147.128 E41.03223
G1 X71.711 Y124.723 E41.77743
G1 X72.014 Y123.278 E41.82653
G1 X72.235 Y122.796 E41.84417
G1 X72.12 Y122.557 E41.85299
G1 X71.715 Y120.683 E41.91676
G1 X71.716 Y98.466 E42.6557
G1 X72.137 Y96.905 E42.70948
G1 X72.625 Y95.675 E42.75349
G1 X73.993 Y93.932 E42.82718
G0 F6000 X74.268 Y94.23
G1 F1200 X76.293 Y92.927 E42.90727
G1 X78.303 Y92.499 E42.97562
G1 X156.771 Y92.499 E45.58548
G1 X158.348 Y92.898 E45.63959
G1 X159.471 Y93.335 E45.67966
G1 X160.869 Y94.427 E45.73867
G1 X162.067 Y95.921 E45.80236
G1 X162.557 Y97.216 E45.84841
G1 X162.784 Y97.091 E45.85703
G1 X163.586 Y96.738 E45.88617
G1 X164.763 Y96.368 E45.92721
G1 X166.299 Y96.118 E45.97897
G1 X167.026 Y96.094 E46.00316
G1 X169.658 Y96.121 E46.09071
G1 X170.425 Y96.207 E46.11638
G1 X171.447 Y96.425 E46.15114
G1 X172.243 Y96.675 E46.17889
G1 X172.71 Y96.861 E46.19561
G1 X173.96 Y97.52 E46.2426
G1 X174.593 Y97.95 E46.26806
G1 X175.192 Y98.435 E46.29369
G1 X176.365 Y99.662 E46.35015
G1 X176.701 Y100.117 E46.36896
G1 X177.363 Y101.239 E46.41229
G1 X177.836 Y102.32 E46.45154
G1 X178.06 Y103.035 E46.47646
G1 X178.373 Y104.894 E46.53916
G1 X178.39 Y105.471 E46.55836
G1 X178.368 Y114.009 E46.84233
G1 X178.265 Y115.028 E46.8764
G1 X178.126 Y115.695 E46.89906
G1 X177.639 Y117.19 E46.95135
G1 X177.445 Y117.613 E46.96683
G1 X176.512 Y119.132 E47.02612
G1 X176.123 Y119.619 E47.04686
G1 X174.746 Y120.926 E47.11
G1 X174.332 Y121.227 E47.12702
G1 X173.057 Y121.962 E47.17597
G1 X172.063 Y122.371 E47.21172
G1 X171.193 Y122.627 E47.24189
G1 X169.589 Y122.877 E47.29588
G1 X168.997 Y122.894 E47.31558
G1 X166.483 Y122.872 E47.3992
G1 X165.56 Y122.78 E47.43005
G1 X164.295 Y122.5 E47.47314
G1 X163.676 Y122.29 E47.49488
G1 X162.631 Y121.808 E47.53316
G1 X162.556 Y122.166 E47.54532
G1 X162.32 Y122.678 E47.56407
G1 X162.496 Y122.987 E47.5759
G1 X162.885 Y124.818 E47.63816
G1 X162.889 Y146.865 E48.37145
G1 X162.617 Y148.162 E48.41552
G1 X162.008 Y149.474 E48.46363
G1 X161.397 Y150.471 E48.50252
G1 X160.098 Y151.663 E48.56116
G1 X158.636 Y152.529 E48.61768
G1 X156.78 Y152.935 E48.68087
G1 X78.258 Y152.935 E51.29252
G1 X76.735 Y152.609 E51.34432
G1 X75.105 Y151.858 E51.40402
G1 X73.754 Y150.606 E51.46528
G1 X72.991 Y149.55 E51.50861
G1 X72.501 Y148.386 E51.55062
G1 X72.112 Y147.069 E51.59629
G1 X72.111 Y124.762 E52.33822
G1 X72.395 Y123.408 E52.38424
G1 X72.685 Y122.776 E52.40737
G1 X72.511 Y122.472 E52.41902
G1 X72.115 Y120.64 E52.48136
G1 X72.116 Y98.518 E53.21714
G1 X72.509 Y97.053 E53.26759
G1 X72.976 Y95.876 E53.3097
G1 X74.268 Y94.23 E53.3793
G0 F6000 X74.543 Y94.528
G1 F1200 X73.327 Y96.077 E53.4448
G1 X72.881 Y97.201 E53.48502
G1 X72.516 Y98.573 E53.53224
G1 X72.515 Y120.597 E54.26476
G1 X72.889 Y122.327 E54.32363
G1 X73.135 Y122.756 E54.34008
G1 X72.776 Y123.538 E54.36869
G1 X72.511 Y124.801 E54.41162
G1 X72.512 Y147.01 E55.15029
G1 X72.885 Y148.273 E55.19409
G1 X73.342 Y149.353 E55.2331
G1 X74.054 Y150.339 E55.27355
G1 X75.331 Y151.522 E55.33145
G1 X76.861 Y152.227 E55.38748
G1 X78.3 Y152.535 E55.43642
G1 X156.735 Y152.535 E58.04518
G1 X158.489 Y152.151 E58.1049
G1 X159.858 Y151.34 E58.15782
G1 X161.085 Y150.214 E58.21321
G1 X161.667 Y149.265 E58.25024
G1 X162.236 Y148.033 E58.29538
G1 X162.489 Y146.826 E58.33639
G1 X162.485 Y124.859 E59.06702
G1 X162.118 Y123.13 E59.12581
G1 X161.871 Y122.697 E59.14239
G1 X162.175 Y122.038 E59.16652
G1 X162.353 Y121.19 E59.19534
G1 X162.657 Y121.379 E59.20725
G1 X163.805 Y121.911 E59.24933
G1 X164.424 Y122.121 E59.27107
G1 X165.6 Y122.382 E59.31114
G1 X166.523 Y122.474 E59.34199
G1 X169 Y122.494 E59.42438
G1 X169.577 Y122.477 E59.44358
G1 X171.08 Y122.243 E59.49417
G1 X171.95 Y121.987 E59.52433
G1 X172.904 Y121.592 E59.55868
G1 X174.097 Y120.903 E59.6045
G1 X174.511 Y120.602 E59.62152
G1 X175.81 Y119.369 E59.68109
G1 X176.199 Y118.882 E59.70182
G1 X177.081 Y117.446 E59.75787
G1 X177.275 Y117.023 E59.77335
G1 X177.734 Y115.613 E59.82267
G1 X177.873 Y114.946 E59.84533
G1 X177.97 Y113.969 E59.87799
G1 X177.99 Y105.47 E60.16066
G1 X177.973 Y104.906 E60.17943
G1 X177.678 Y103.155 E60.23849
G1 X177.454 Y102.44 E60.26341
G1 X176.997 Y101.4 E60.30119
G1 X176.379 Y100.355 E60.34157
G1 X176.043 Y99.9 E60.36039
G1 X174.94 Y98.746 E60.41348
G1 X174.341 Y98.261 E60.43912
G1 X173.736 Y97.851 E60.46342
G1 X172.562 Y97.233 E60.50755
G1 X172.095 Y97.047 E60.52427
G1 X171.363 Y96.816 E60.5498
G1 X170.38 Y96.605 E60.58324
G1 X169.613 Y96.519 E60.60891
G1 X167.022 Y96.494 E60.69509
G1 X166.313 Y96.518 E60.71869
G1 X164.883 Y96.75 E60.76687
G1 X163.706 Y97.12 E60.80791
G1 X162.946 Y97.457 E60.83556
G1 X162.348 Y97.793 E60.85837
G1 X161.715 Y96.121 E60.91783
G1 X160.586 Y94.713 E60.97786
G1 X159.271 Y93.686 E61.03336
G1 X158.25 Y93.286 E61.06983
G1 X156.72 Y92.899 E61.12232
G1 X78.344 Y92.899 E63.72911
G1 X76.447 Y93.303 E63.79362
G1 X74.543 Y94.528 E63.86893
G0 F6000 X74.818 Y94.826
G1 F1200 X76.601 Y93.679 E63.93944
G1 X78.385 Y93.299 E64.00011
G1 X156.669 Y93.299 E66.60384
G1 X158.152 Y93.674 E66.65472
G1 X159.072 Y94.038 E66.68763
G1 X160.303 Y94.999 E66.73957
G1 X161.363 Y96.321 E66.79593
G1 X162.069 Y98.186 E66.86225
G1 X162.095 Y98.443 E66.87085
G1 X162.434 Y98.204 E66.88464
G1 X163.109 Y97.822 E66.91044
G1 X163.826 Y97.502 E66.93655
G1 X165.003 Y97.132 E66.97759
G1 X166.327 Y96.918 E67.0222
G1 X167.018 Y96.894 E67.04519
G1 X169.568 Y96.917 E67.13001
G1 X170.335 Y97.003 E67.15568
G1 X171.278 Y97.207 E67.18777
G1 X171.947 Y97.419 E67.21111
G1 X172.414 Y97.605 E67.22783
G1 X173.512 Y98.182 E67.26909
G1 X174.089 Y98.572 E67.29225
G1 X174.688 Y99.057 E67.31788
G1 X175.721 Y100.138 E67.36761
G1 X176.057 Y100.593 E67.38643
G1 X176.652 Y101.603 E67.42542
G1 X177.072 Y102.56 E67.46018
G1 X177.296 Y103.275 E67.4851
G1 X177.573 Y104.918 E67.54051
G1 X177.59 Y105.469 E67.55885
G1 X177.572 Y113.93 E67.84026
G1 X177.481 Y114.864 E67.87148
G1 X177.342 Y115.531 E67.89414
G1 X176.911 Y116.856 E67.94048
G1 X176.717 Y117.279 E67.95596
G1 X175.886 Y118.632 E68.00877
G1 X175.497 Y119.119 E68.0295
G1 X174.276 Y120.278 E68.08549
G1 X173.862 Y120.579 E68.10252
G1 X172.75 Y121.223 E68.14526
G1 X171.837 Y121.603 E68.17815
G1 X170.967 Y121.859 E68.20831
G1 X169.565 Y122.077 E68.2555
G1 X169.003 Y122.094 E68.2742
G1 X166.563 Y122.076 E68.35536
G1 X165.64 Y121.984 E68.38621
G1 X164.553 Y121.742 E68.42325
G1 X163.934 Y121.532 E68.44499
G1 X162.868 Y121.039 E68.48405
G1 X162.08 Y120.549 E68.51492
G1 X161.794 Y121.91 E68.56117
G1 X161.422 Y122.716 E68.5907
G1 X161.74 Y123.273 E68.61203
G1 X162.085 Y124.9 E68.66735
G1 X162.089 Y146.782 E69.39515
G1 X161.853 Y147.91 E69.43348
G1 X161.326 Y149.056 E69.47543
G1 X160.773 Y149.957 E69.51059
G1 X159.618 Y151.017 E69.56273
G1 X158.341 Y151.774 E69.61211
G1 X156.691 Y152.135 E69.66829
G1 X78.342 Y152.135 E72.27418
G1 X76.987 Y151.845 E72.32027
G1 X75.557 Y151.186 E72.37264
G1 X74.354 Y150.072 E72.42717
G1 X73.694 Y149.157 E72.4647
G1 X73.269 Y148.16 E72.50074
G1 X72.912 Y146.951 E72.54267
G1 X72.911 Y124.84 E73.27809
G1 X73.157 Y123.668 E73.31792
G1 X73.585 Y122.736 E73.35203
G1 X73.267 Y122.182 E73.37327
G1 X72.915 Y120.554 E73.42867
G1 X72.916 Y98.626 E74.158
G1 X73.253 Y97.349 E74.20193
G1 X73.678 Y96.278 E74.24025
