;FLAVOR:Marlin
;TIME:4547
;Filament used: 2.85046m
;Layer height: 0.12
;MINX:76.997
;MINY:87.4
;MINZ:0.2
;MAXX:157.948
;MAXY:147.6
;MAXZ:8
;TARGET_MACHINE.NAME:Creality Ender-3
;Generated with Cura_SteamEngine 5.11.0
M140 S60
M105
M190 S60
M104 S200
M105
M109 S200
; Ender 3 Custom Start G-code
G92 E0 ; Reset Extruder
G28 ; Home all axes
G1 Z2.0 F3000 ; Move Z Axis up little to prevent scratching of Heat Bed
G1 X0.1 Y20 Z0.3 F5000.0 ; Move to start position
G1 X0.1 Y200.0 Z0.3 F1500.0 E15 ; Draw the first line
G1 X0.4 Y200.0 Z0.3 F5000.0 ; Move to side a little
G1 X0.4 Y20 Z0.3 F1500.0 E30 ; Draw the second line
G92 E0 ; Reset Extruder
G1 Z2.0 F3000 ; Move Z Axis up little to prevent scratching of Heat Bed
G1 X5 Y20 Z0.3 F5000.0 ; Move over to prevent blob squish
M82 ;absolute extrusion mode
G92 E0
G92 E0
G1 F2700 E-5
;LAYER_COUNT:66
;LAYER:0
M107
;MESH:Top.stl
G0 F6000 X117.5 Y109.812 Z0.2
;TYPE:WALL-INNER
G1 F2700 E0
G1 F1200 X156.164 Y109.812 E1.28597
G1 X156.16 Y89.184 E1.97206
G1 X78.836 Y89.184 E4.54387
G1 X78.837 Y109.812 E5.22996
G1 X117.5 Y109.812 E6.51589
G1 F2700 E1.51589
G0 F6000 X124.006 Y109.612
G0 X123.994 Y106.48
G0 X124.006 Y106.299
G1 F2700 E6.51589
G1 F1200 X123.68 Y106.275 E6.52677
G1 X123.416 Y106.227 E6.53569
G1 X123.098 Y106.135 E6.5467
G1 X122.729 Y105.969 E6.56016
G1 X122.424 Y105.78 E6.57209
G1 X122.176 Y105.577 E6.58275
G1 X121.934 Y105.333 E6.59418
G1 X121.729 Y105.064 E6.60543
G1 X121.558 Y104.779 E6.61649
G1 X121.442 Y104.527 E6.62571
G1 X121.34 Y104.202 E6.63704
G1 X121.275 Y103.884 E6.64784
G1 X121.249 Y103.555 E6.65881
G1 X121.248 Y95.26 E6.93471
G1 X121.321 Y94.863 E6.94813
G1 X121.442 Y94.474 E6.96168
G1 X121.579 Y94.181 E6.97244
G1 X121.719 Y93.945 E6.98157
G1 X121.928 Y93.672 E6.993
G1 X122.211 Y93.385 E7.00641
G1 X122.484 Y93.175 E7.01786
G1 X122.776 Y93.003 E7.02913
G1 X123.028 Y92.891 E7.03831
G1 X123.406 Y92.773 E7.05148
G1 X123.739 Y92.717 E7.06271
G1 X123.999 Y92.701 E7.07137
G1 X126.085 Y92.7 E7.14075
G1 X126.424 Y92.723 E7.15205
G1 X126.746 Y92.789 E7.16299
G1 X127.067 Y92.891 E7.17419
G1 X127.373 Y93.031 E7.18538
G1 X127.609 Y93.175 E7.19458
G1 X127.933 Y93.428 E7.20825
G1 X128.154 Y93.657 E7.21883
G1 X128.377 Y93.943 E7.2309
G1 X128.536 Y94.217 E7.24143
G1 X128.652 Y94.465 E7.25054
G1 X128.756 Y94.794 E7.26202
G1 X128.821 Y95.112 E7.27281
G1 X128.847 Y95.441 E7.28379
G1 X128.848 Y103.736 E7.55968
G1 X128.775 Y104.133 E7.57311
G1 X128.658 Y104.514 E7.58636
G1 X128.554 Y104.751 E7.59497
G1 X128.333 Y105.119 E7.60925
G1 X128.125 Y105.377 E7.62027
G1 X127.937 Y105.565 E7.62911
G1 X127.673 Y105.779 E7.64042
G1 X127.388 Y105.957 E7.65159
G1 X127.004 Y106.13 E7.6656
G1 X126.69 Y106.223 E7.67649
G1 X126.367 Y106.279 E7.6874
G1 X126.06 Y106.3 E7.69763
G1 X124.006 Y106.299 E7.76595
G0 F6000 X124.031 Y105.9
;TYPE:WALL-OUTER
G1 F1200 X123.752 Y105.881 E7.77525
G1 X123.466 Y105.828 E7.78492
G1 X123.188 Y105.742 E7.7946
G1 X122.933 Y105.625 E7.80393
G1 X122.674 Y105.468 E7.81401
G1 X122.47 Y105.304 E7.82271
G1 X122.25 Y105.087 E7.83299
G1 X122.069 Y104.854 E7.8428
G1 X121.933 Y104.634 E7.85141
G1 X121.806 Y104.36 E7.86145
G1 X121.719 Y104.071 E7.87149
G1 X121.664 Y103.781 E7.88131
G1 X121.648 Y103.516 E7.89014
G1 X121.651 Y95.283 E8.16397
G1 X121.72 Y94.913 E8.17648
G1 X121.796 Y94.665 E8.18511
G1 X121.923 Y94.385 E8.19534
G1 X122.063 Y94.149 E8.20446
G1 X122.242 Y93.92 E8.21413
G1 X122.459 Y93.699 E8.22443
G1 X122.671 Y93.531 E8.23343
G1 X122.938 Y93.369 E8.24382
G1 X123.212 Y93.249 E8.25377
G1 X123.479 Y93.167 E8.26306
G1 X123.763 Y93.116 E8.27265
G1 X124.036 Y93.1 E8.28175
G1 X126.066 Y93.1 E8.34927
G1 X126.347 Y93.115 E8.35863
G1 X126.611 Y93.167 E8.36758
G1 X126.882 Y93.248 E8.37698
G1 X127.141 Y93.36 E8.38637
G1 X127.401 Y93.517 E8.39647
G1 X127.626 Y93.689 E8.40589
G1 X127.844 Y93.909 E8.41619
G1 X128.016 Y94.121 E8.42527
G1 X128.174 Y94.387 E8.43556
G1 X128.29 Y94.635 E8.44467
G1 X128.377 Y94.925 E8.45474
G1 X128.432 Y95.215 E8.46456
G1 X128.448 Y95.48 E8.47339
G1 X128.445 Y103.713 E8.74722
G1 X128.376 Y104.083 E8.75973
G1 X128.292 Y104.353 E8.76914
G1 X128.188 Y104.589 E8.77772
G1 X128.018 Y104.872 E8.7887
G1 X127.842 Y105.094 E8.79812
G1 X127.637 Y105.297 E8.80772
G1 X127.425 Y105.465 E8.81671
G1 X127.159 Y105.627 E8.82707
G1 X126.887 Y105.748 E8.83697
G1 X126.639 Y105.824 E8.8456
G1 X126.336 Y105.88 E8.85585
G1 X126.076 Y105.9 E8.86452
G1 X124.031 Y105.9 E8.93254
G1 F2700 E3.93254
G0 F6000 X124.013 Y106.207
G0 X122.636 Y106.124
G0 X122.636 Y109.612
G0 X117.5 Y110.212
G1 F2700 E8.93254
G1 F1200 X156.13 Y110.212 E10.21738
G1 X156.337 Y110.167 E10.22442
G1 X156.482 Y110.036 E10.23092
G1 X156.564 Y109.853 E10.23759
G1 X156.56 Y89.142 E10.92644
G1 X156.481 Y88.963 E10.93295
G1 X156.336 Y88.829 E10.93952
G1 X156.13 Y88.784 E10.94653
G1 X78.866 Y88.784 E13.51634
G1 X78.66 Y88.829 E13.52335
G1 X78.515 Y88.963 E13.52992
G1 X78.436 Y89.146 E13.53655
G1 X78.437 Y109.854 E14.2253
G1 X78.515 Y110.033 E14.2318
G1 X78.66 Y110.168 E14.23839
G1 X78.866 Y110.212 E14.24539
G1 X117.5 Y110.212 E15.53036
G1 F2700 E10.53036
G0 F6000 X117.5 Y109.904
G0 X123.997 Y109.612
G0 X123.994 Y106.48
G0 X123.982 Y106.656
;TYPE:SKIN
G1 F2700 E15.53036
G1 F1200 X126.132 Y106.656 E15.60187
G1 X126.396 Y106.636 E15.61068
G1 X126.746 Y106.578 E15.62248
G1 X127.103 Y106.477 E15.63482
G1 X127.494 Y106.305 E15.64903
G1 X127.794 Y106.129 E15.66059
G1 X128.122 Y105.878 E15.67433
G1 X128.442 Y105.558 E15.68938
G1 X128.671 Y105.262 E15.70183
G1 X128.948 Y104.783 E15.72023
G1 X129.124 Y104.211 E15.74014
G1 X129.205 Y103.785 E15.75456
G1 X129.201 Y95.227 E16.0392
G1 X129.105 Y94.711 E16.05666
G1 X129.012 Y94.391 E16.06774
G1 X128.825 Y93.993 E16.08237
G1 X128.643 Y93.684 E16.0943
G1 X128.439 Y93.436 E16.10498
G1 X128.17 Y93.156 E16.11789
G1 X127.864 Y92.912 E16.13091
G1 X127.472 Y92.676 E16.14613
G1 X127.095 Y92.515 E16.15976
G1 X126.766 Y92.423 E16.17112
G1 X126.383 Y92.354 E16.18407
G1 X126.052 Y92.34 E16.19509
G1 X123.98 Y92.34 E16.264
G1 X123.695 Y92.358 E16.2735
G1 X123.351 Y92.414 E16.28509
G1 X122.987 Y92.52 E16.2977
G1 X122.632 Y92.672 E16.31054
G1 X122.303 Y92.863 E16.3232
G1 X121.987 Y93.1 E16.33634
G1 X121.704 Y93.377 E16.34951
G1 X121.48 Y93.653 E16.36133
G1 X121.273 Y93.987 E16.3744
G1 X121.091 Y94.37 E16.3885
G1 X120.962 Y94.801 E16.40347
G1 X120.89 Y95.213 E16.41738
G1 X120.891 Y103.765 E16.70182
G1 X120.987 Y104.281 E16.71927
G1 X121.072 Y104.569 E16.72926
G1 X121.228 Y104.925 E16.74219
G1 X121.432 Y105.265 E16.75538
G1 X121.676 Y105.589 E16.76887
G1 X121.981 Y105.885 E16.783
G1 X122.189 Y106.055 E16.79194
G1 X122.559 Y106.286 E16.80645
G1 X122.919 Y106.454 E16.81966
G1 X123.327 Y106.576 E16.83382
G1 X123.634 Y106.632 E16.8442
G1 X123.982 Y106.656 E16.8558
G1 F2700 E11.8558
G0 F6000 X123.997 Y106.4
G0 X122.995 Y106.293
G0 X122.995 Y109.612
G0 X117.5 Y109.452
G1 F2700 E16.8558
G1 F1200 X79.196 Y109.452 E18.1298
G1 X79.196 Y89.544 E18.79194
G1 X155.8 Y89.544 E21.3398
G1 X155.8 Y109.452 E22.00195
G1 X117.5 Y109.452 E23.27581
G1 F2700 E18.27581
G0 F6000 X117.5 Y109.712
G0 X79.008 Y109.64
G0 X78.936 Y108.812
G0 X79.396 Y108.812
G1 F2700 E23.27581
G1 F1200 X79.836 Y109.252 E23.2965
G0 F6000 X80.402 Y109.252
G1 F1200 X79.396 Y108.246 E23.34382
G0 F6000 X79.396 Y107.68
G1 F1200 X80.967 Y109.252 E23.41774
G0 F6000 X81.533 Y109.252
G1 F1200 X79.396 Y107.115 E23.51826
G0 F6000 X79.396 Y106.549
G1 F1200 X82.099 Y109.252 E23.6454
G0 F6000 X82.664 Y109.252
G1 F1200 X79.396 Y105.983 E23.79914
G0 F6000 X79.396 Y105.418
G1 F1200 X83.23 Y109.252 E23.97948
G0 F6000 X83.796 Y109.252
G1 F1200 X79.396 Y104.852 E24.18644
G0 F6000 X79.396 Y104.286
G1 F1200 X84.361 Y109.252 E24.42001
G0 F6000 X84.927 Y109.252
G1 F1200 X79.396 Y103.721 E24.68017
G0 F6000 X79.396 Y103.155
G1 F1200 X85.493 Y109.252 E24.96695
G0 F6000 X86.058 Y109.252
G1 F1200 X79.396 Y102.589 E25.28033
G0 F6000 X79.396 Y102.023
G1 F1200 X86.624 Y109.252 E25.62034
G0 F6000 X87.19 Y109.252
G1 F1200 X79.396 Y101.458 E25.98695
G0 F6000 X79.396 Y100.892
G1 F1200 X87.755 Y109.252 E26.38015
G0 F6000 X88.321 Y109.252
G1 F1200 X79.396 Y100.326 E26.79998
G0 F6000 X79.396 Y99.761
G1 F1200 X88.887 Y109.252 E27.24641
G0 F6000 X89.453 Y109.252
G1 F1200 X79.396 Y99.195 E27.71946
G0 F6000 X79.396 Y98.629
G1 F1200 X90.018 Y109.252 E28.21911
G0 F6000 X90.584 Y109.252
G1 F1200 X79.396 Y98.064 E28.74536
G0 F6000 X79.396 Y97.498
G1 F1200 X91.15 Y109.252 E29.29823
G0 F6000 X91.715 Y109.252
G1 F1200 X79.396 Y96.932 E29.8777
G0 F6000 X79.396 Y96.367
G1 F1200 X92.281 Y109.252 E30.48377
G0 F6000 X92.847 Y109.252
G1 F1200 X79.396 Y95.801 E31.11647
G0 F6000 X79.396 Y95.235
G1 F1200 X93.412 Y109.252 E31.77576
G0 F6000 X93.978 Y109.252
G1 F1200 X79.396 Y94.67 E32.46165
G0 F6000 X79.396 Y94.104
G1 F1200 X94.544 Y109.252 E33.17417
G0 F6000 X95.109 Y109.252
G1 F1200 X79.396 Y93.538 E33.91328
G0 F6000 X79.396 Y92.973
G1 F1200 X95.675 Y109.252 E34.679
G0 F6000 X96.241 Y109.252
G1 F1200 X79.396 Y92.407 E35.47133
G0 F6000 X79.396 Y91.841
G1 F1200 X96.806 Y109.252 E36.29027
G0 F6000 X97.372 Y109.252
G1 F1200 X79.396 Y91.275 E37.13583
G0 F6000 X79.396 Y90.71
G1 F1200 X97.938 Y109.252 E38.00799
G0 F6000 X98.504 Y109.252
G1 F1200 X79.396 Y90.144 E38.90677
G0 F6000 X79.562 Y89.744
G1 F1200 X99.069 Y109.252 E39.82434
G0 F6000 X99.635 Y109.252
G1 F1200 X80.127 Y89.744 E40.74194
G0 F6000 X80.693 Y89.744
G1 F1200 X100.201 Y109.252 E41.65954
G0 F6000 X100.766 Y109.252
G1 F1200 X81.259 Y89.744 E42.57711
G0 F6000 X81.824 Y89.744
G1 F1200 X101.332 Y109.252 E43.49471
G0 F6000 X101.898 Y109.252
G1 F1200 X82.39 Y89.744 E44.4123
G0 F6000 X82.956 Y89.744
G1 F1200 X102.463 Y109.252 E45.32987
G0 F6000 X103.029 Y109.252
G1 F1200 X83.521 Y89.744 E46.24747
G0 F6000 X84.087 Y89.744
G1 F1200 X103.595 Y109.252 E47.16507
G0 F6000 X104.16 Y109.252
G1 F1200 X84.653 Y89.744 E48.08264
G0 F6000 X85.218 Y89.744
G1 F1200 X104.726 Y109.252 E49.00024
G0 F6000 X105.292 Y109.252
G1 F1200 X85.784 Y89.744 E49.91783
G0 F6000 X86.35 Y89.744
G1 F1200 X105.857 Y109.252 E50.83541
G0 F6000 X106.423 Y109.252
G1 F1200 X86.915 Y89.744 E51.753
G0 F6000 X87.481 Y89.744
G1 F1200 X106.989 Y109.252 E52.6706
G0 F6000 X107.554 Y109.252
G1 F1200 X88.047 Y89.744 E53.58817
G0 F6000 X88.613 Y89.744
G1 F1200 X108.12 Y109.252 E54.50575
G0 F6000 X108.686 Y109.252
G1 F1200 X89.178 Y89.744 E55.42334
G0 F6000 X89.744 Y89.744
G1 F1200 X109.252 Y109.252 E56.34094
G0 F6000 X109.817 Y109.252
G1 F1200 X90.31 Y89.744 E57.25851
G0 F6000 X90.875 Y89.744
G1 F1200 X110.383 Y109.252 E58.17611
G0 F6000 X110.949 Y109.252
G1 F1200 X91.441 Y89.744 E59.0937
G0 F6000 X92.007 Y89.744
G1 F1200 X111.514 Y109.252 E60.01128
G0 F6000 X112.08 Y109.252
G1 F1200 X92.572 Y89.744 E60.92887
G0 F6000 X93.138 Y89.744
G1 F1200 X112.646 Y109.252 E61.84647
G0 F6000 X113.211 Y109.252
G1 F1200 X93.704 Y89.744 E62.76404
G0 F6000 X94.269 Y89.744
G1 F1200 X113.777 Y109.252 E63.68164
G0 F6000 X114.343 Y109.252
G1 F1200 X94.835 Y89.744 E64.59924
G0 F6000 X95.401 Y89.744
G1 F1200 X114.908 Y109.252 E65.51681
G0 F6000 X115.474 Y109.252
G1 F1200 X95.966 Y89.744 E66.43441
G0 F6000 X96.532 Y89.744
G1 F1200 X116.04 Y109.252 E67.352
G0 F6000 X116.605 Y109.252
G1 F1200 X97.098 Y89.744 E68.26958
G0 F6000 X97.663 Y89.744
G1 F1200 X117.171 Y109.252 E69.18717
G0 F6000 X117.737 Y109.252
G1 F1200 X98.229 Y89.744 E70.10477
G0 F6000 X98.795 Y89.744
G1 F1200 X118.303 Y109.252 E71.02237
G0 F6000 X118.868 Y109.252
G1 F1200 X99.361 Y89.744 E71.93994
G0 F6000 X99.926 Y89.744
G1 F1200 X119.434 Y109.252 E72.85753
G0 F6000 X120 Y109.252
G1 F1200 X100.492 Y89.744 E73.77513
G0 F6000 X101.058 Y89.744
G1 F1200 X120.565 Y109.252 E74.6927
G0 F6000 X121.131 Y109.252
G1 F1200 X101.623 Y89.744 E75.6103
G0 F6000 X102.189 Y89.744
G1 F1200 X121.697 Y109.252 E76.5279
G0 F6000 X122.262 Y109.252
G1 F1200 X102.755 Y89.744 E77.44547
G0 F6000 X103.32 Y89.744
G1 F1200 X122.828 Y109.252 E78.36307
G0 F6000 X123.394 Y109.252
G1 F1200 X103.886 Y89.744 E79.28066
G0 F6000 X104.452 Y89.744
G1 F1200 X123.959 Y109.252 E80.19824
G0 F6000 X124.525 Y109.252
G1 F1200 X105.017 Y89.744 E81.11583
G0 F6000 X105.583 Y89.744
G1 F1200 X121.422 Y105.582 E81.86083
G0 F6000 X121.974 Y106.135
G1 F1200 X125.091 Y109.252 E82.00744
G0 F6000 X125.656 Y109.252
G1 F1200 X123.13 Y106.725 E82.12628
G0 F6000 X123.815 Y106.845
G1 F1200 X126.222 Y109.252 E82.2395
G0 F6000 X126.788 Y109.252
G1 F1200 X124.392 Y106.856 E82.3522
G0 F6000 X124.958 Y106.856
G1 F1200 X127.353 Y109.252 E82.46488
G0 F6000 X127.919 Y109.252
G1 F1200 X125.523 Y106.855 E82.5776
G0 F6000 X126.088 Y106.855
G1 F1200 X128.485 Y109.252 E82.69035
G0 F6000 X129.051 Y109.252
G1 F1200 X126.603 Y106.804 E82.80549
G0 F6000 X127.061 Y106.697
G1 F1200 X129.616 Y109.252 E82.92567
G0 F6000 X130.182 Y109.252
G1 F1200 X127.467 Y106.536 E83.0534
G0 F6000 X127.834 Y106.338
G1 F1200 X130.748 Y109.252 E83.19047
G0 F6000 X131.313 Y109.252
G1 F1200 X128.162 Y106.101 E83.33868
G0 F6000 X128.453 Y105.826
G1 F1200 X131.879 Y109.252 E83.49983
G0 F6000 X132.445 Y109.252
G1 F1200 X128.719 Y105.526 E83.67509
G0 F6000 X128.947 Y105.188
G1 F1200 X133.01 Y109.252 E83.86622
G0 F6000 X133.576 Y109.252
G1 F1200 X129.137 Y104.812 E84.07504
G0 F6000 X129.276 Y104.386
G1 F1200 X134.142 Y109.252 E84.30393
G0 F6000 X134.707 Y109.252
G1 F1200 X129.382 Y103.926 E84.55442
G0 F6000 X129.408 Y103.386
G1 F1200 X135.273 Y109.252 E84.83032
G0 F6000 X135.839 Y109.252
G1 F1200 X129.407 Y102.82 E85.13286
G0 F6000 X129.406 Y102.253
G1 F1200 X136.404 Y109.252 E85.46205
G0 F6000 X136.97 Y109.252
G1 F1200 X129.405 Y101.687 E85.81788
G0 F6000 X129.405 Y101.121
G1 F1200 X137.536 Y109.252 E86.20034
G0 F6000 X138.101 Y109.252
G1 F1200 X129.404 Y100.554 E86.60944
G0 F6000 X129.403 Y99.988
G1 F1200 X138.667 Y109.252 E87.04519
G0 F6000 X139.233 Y109.252
G1 F1200 X129.403 Y99.421 E87.50759
G0 F6000 X129.402 Y98.855
G1 F1200 X139.799 Y109.252 E87.99663
G0 F6000 X140.364 Y109.252
G1 F1200 X129.402 Y98.289 E88.51227
G0 F6000 X129.401 Y97.723
G1 F1200 X140.93 Y109.252 E89.05456
G0 F6000 X141.496 Y109.252
G1 F1200 X129.401 Y97.156 E89.6235
G0 F6000 X129.4 Y96.59
G1 F1200 X142.061 Y109.252 E90.21906
G0 F6000 X142.627 Y109.252
G1 F1200 X129.399 Y96.024 E90.84126
G0 F6000 X129.398 Y95.457
G1 F1200 X143.193 Y109.252 E91.49013
G0 F6000 X143.758 Y109.252
G1 F1200 X129.33 Y94.823 E92.16881
G0 F6000 X129.024 Y93.952
G1 F1200 X144.324 Y109.252 E92.88847
G0 F6000 X144.89 Y109.252
G1 F1200 X125.382 Y89.744 E93.80607
G0 F6000 X124.816 Y89.744
G1 F1200 X127.582 Y92.509 E93.93615
G0 F6000 X126.718 Y92.211
G1 F1200 X124.251 Y89.744 E94.05219
G0 F6000 X123.685 Y89.744
G1 F1200 X126.082 Y92.141 E94.16494
G0 F6000 X125.516 Y92.14
G1 F1200 X123.119 Y89.744 E94.27766
G0 F6000 X122.554 Y89.744
G1 F1200 X124.95 Y92.14 E94.39036
G0 F6000 X124.384 Y92.14
G1 F1200 X121.988 Y89.744 E94.50306
G0 F6000 X121.422 Y89.744
G1 F1200 X123.826 Y92.148 E94.61614
G0 F6000 X123.328 Y92.215
G1 F1200 X120.857 Y89.744 E94.73237
G0 F6000 X120.291 Y89.744
G1 F1200 X122.891 Y92.344 E94.85466
G0 F6000 X122.499 Y92.518
G1 F1200 X119.725 Y89.744 E94.98514
G0 F6000 X119.16 Y89.744
G1 F1200 X122.147 Y92.731 E95.12564
G0 F6000 X121.825 Y92.975
G1 F1200 X118.594 Y89.744 E95.27762
G0 F6000 X118.028 Y89.744
G1 F1200 X121.545 Y93.26 E95.44302
G0 F6000 X121.294 Y93.576
G1 F1200 X117.462 Y89.744 E95.62327
G0 F6000 X116.897 Y89.744
G1 F1200 X121.081 Y93.928 E95.82007
G0 F6000 X120.902 Y94.315
G1 F1200 X116.331 Y89.744 E96.03508
G0 F6000 X115.765 Y89.744
G1 F1200 X120.77 Y94.749 E96.2705
G0 F6000 X120.694 Y95.238
G1 F1200 X115.2 Y89.744 E96.52892
G0 F6000 X114.634 Y89.744
G1 F1200 X120.694 Y95.804 E96.81396
G0 F6000 X120.694 Y96.369
G1 F1200 X114.068 Y89.744 E97.12561
G0 F6000 X113.503 Y89.744
G1 F1200 X120.694 Y96.935 E97.46385
G0 F6000 X120.694 Y97.501
G1 F1200 X112.937 Y89.744 E97.82871
G0 F6000 X112.371 Y89.744
G1 F1200 X120.694 Y98.067 E98.2202
G0 F6000 X120.694 Y98.632
G1 F1200 X111.806 Y89.744 E98.63827
G0 F6000 X111.24 Y89.744
G1 F1200 X120.694 Y99.198 E99.08295
G0 F6000 X120.694 Y99.764
G1 F1200 X110.674 Y89.744 E99.55426
G0 F6000 X110.109 Y89.744
G1 F1200 X120.694 Y100.329 E100.05215
