;FLAVOR:Marlin
;TIME:1922
;Filament used: 1.09794m
;Layer height: 0.12
;MINX:105.372
;MINY:77.124
;MINZ:0.2
;MAXX:129.624
;MAXY:157.872
;MAXZ:7.64
;TARGET_MACHINE.NAME:Creality Ender-3
;Generated with Cura_SteamEngine 5.11.0
M140 S60
M105
M190 S60
M104 S200
M105
M109 S200
; Ender 3 Custom Start G-code
G92 E0 ; Reset Extruder
G28 ; Home all axes
G1 Z2.0 F3000 ; Move Z Axis up little to prevent scratching of Heat Bed
G1 X0.1 Y20 Z0.3 F5000.0 ; Move to start position
G1 X0.1 Y200.0 Z0.3 F1500.0 E15 ; Draw the first line
G1 X0.4 Y200.0 Z0.3 F5000.0 ; Move to side a little
G1 X0.4 Y20 Z0.3 F1500.0 E30 ; Draw the second line
G92 E0 ; Reset Extruder
G1 Z2.0 F3000 ; Move Z Axis up little to prevent scratching of Heat Bed
G1 X5 Y20 Z0.3 F5000.0 ; Move over to prevent blob squish
M82 ;absolute extrusion mode
G92 E0
G92 E0
G1 F2700 E-5
;LAYER_COUNT:63
;LAYER:0
M107
;MESH:Top.stl
G0 F6000 X117.5 Y128.923 Z0.2
;TYPE:WALL-INNER
G1 F2700 E0
G1 F1200 X113.454 Y128.923 E0.13457
G1 X113.134 Y128.899 E0.14524
G1 X112.796 Y128.834 E0.15669
G1 X112.474 Y128.73 E0.16795
G1 X112.181 Y128.593 E0.1787
G1 X111.945 Y128.453 E0.18783
G1 X111.672 Y128.244 E0.19927
G1 X111.385 Y127.961 E0.21267
G1 X111.175 Y127.688 E0.22413
G1 X111.003 Y127.396 E0.2354
G1 X110.891 Y127.144 E0.24457
G1 X110.773 Y126.765 E0.25777
G1 X110.717 Y126.434 E0.26894
G1 X110.701 Y126.178 E0.27747
G1 X110.7 Y123.886 E0.3537
G1 X110.789 Y123.426 E0.36929
G1 X110.891 Y123.105 E0.38049
G1 X111.031 Y122.799 E0.39168
G1 X111.175 Y122.563 E0.40088
G1 X111.372 Y122.302 E0.41175
G1 X111.616 Y122.055 E0.4233
G1 X111.869 Y121.846 E0.43421
G1 X112.217 Y121.636 E0.44773
G1 X112.465 Y121.52 E0.45684
G1 X112.794 Y121.416 E0.46832
G1 X113.111 Y121.351 E0.47908
G1 X113.451 Y121.325 E0.49042
G1 X121.543 Y121.325 E0.75956
G1 X121.862 Y121.349 E0.7702
G1 X122.2 Y121.414 E0.78165
G1 X122.514 Y121.514 E0.79261
G1 X122.751 Y121.618 E0.80122
G1 X123.119 Y121.839 E0.81549
G1 X123.377 Y122.047 E0.82652
G1 X123.565 Y122.235 E0.83536
G1 X123.779 Y122.499 E0.84666
G1 X123.958 Y122.784 E0.85786
G1 X124.13 Y123.168 E0.87185
G1 X124.223 Y123.482 E0.88274
G1 X124.278 Y123.804 E0.89361
G1 X124.3 Y124.104 E0.90361
G1 X124.3 Y126.354 E0.97845
G1 X124.227 Y126.757 E0.99207
G1 X124.105 Y127.154 E1.00588
G1 X123.971 Y127.435 E1.01624
G1 X123.78 Y127.748 E1.02843
G1 X123.577 Y127.996 E1.03909
G1 X123.333 Y128.238 E1.05052
G1 X123.064 Y128.443 E1.06177
G1 X122.844 Y128.579 E1.07038
G1 X122.527 Y128.73 E1.08205
G1 X122.202 Y128.832 E1.09338
G1 X121.884 Y128.897 E1.10418
G1 X121.55 Y128.923 E1.11532
G1 X117.5 Y128.923 E1.25002
G1 F2700 E-3.74998
G0 F6000 X117.5 Y155.888
G0 X117.5 Y156.088
G1 F2700 E1.25002
G1 F1200 X127.836 Y156.088 E1.5938
G1 X127.836 Y78.908 E4.16082
G1 X107.161 Y78.905 E4.84847
G1 X107.153 Y156.088 E7.41559
G1 X117.5 Y156.088 E7.75973
G0 F6000 X117.5 Y156.488
;TYPE:WALL-OUTER
G1 F1200 X127.806 Y156.488 E8.10251
G1 X128.012 Y156.443 E8.10952
G1 X128.157 Y156.309 E8.11609
G1 X128.236 Y156.126 E8.12272
G1 X128.236 Y78.87 E10.69227
G1 X128.157 Y78.687 E10.69889
G1 X128.012 Y78.556 E10.70539
G1 X127.805 Y78.508 E10.71246
G1 X107.134 Y78.505 E11.39998
G1 X106.884 Y78.632 E11.40931
G1 X106.807 Y78.74 E11.41372
G1 X106.761 Y78.947 E11.42077
G1 X106.753 Y156.11 E13.98722
G1 X106.8 Y156.246 E13.99201
G1 X106.99 Y156.442 E14.00109
G1 X107.198 Y156.488 E14.00818
G1 X117.5 Y156.488 E14.35082
G1 F2700 E9.35082
G0 F6000 X117.5 Y156.179
G0 X117.5 Y155.888
G0 X117.5 Y129.103
G0 X117.5 Y128.524
G1 F2700 E14.35082
G1 F1200 X113.479 Y128.524 E14.48456
G1 X113.204 Y128.505 E14.49373
G1 X112.913 Y128.452 E14.50357
G1 X112.665 Y128.376 E14.51219
G1 X112.385 Y128.249 E14.52242
G1 X112.149 Y128.109 E14.53155
G1 X111.92 Y127.93 E14.54121
G1 X111.699 Y127.713 E14.55151
G1 X111.531 Y127.501 E14.56051
G1 X111.369 Y127.234 E14.5709
G1 X111.249 Y126.96 E14.58085
G1 X111.167 Y126.693 E14.59014
G1 X111.116 Y126.409 E14.59973
G1 X111.1 Y126.14 E14.6087
G1 X111.103 Y123.907 E14.68297
G1 X111.172 Y123.542 E14.69532
G1 X111.248 Y123.29 E14.70408
G1 X111.36 Y123.031 E14.71346
G1 X111.517 Y122.771 E14.72356
G1 X111.689 Y122.546 E14.73298
G1 X111.91 Y122.328 E14.74331
G1 X112.121 Y122.156 E14.75236
G1 X112.387 Y121.998 E14.76265
G1 X112.635 Y121.882 E14.77176
G1 X112.925 Y121.795 E14.78183
G1 X113.215 Y121.74 E14.79165
G1 X113.488 Y121.724 E14.80074
G1 X121.517 Y121.724 E15.06779
G1 X121.792 Y121.743 E15.07696
G1 X122.083 Y121.796 E15.08679
G1 X122.353 Y121.88 E15.0962
G1 X122.589 Y121.984 E15.10478
G1 X122.872 Y122.154 E15.11576
G1 X123.094 Y122.33 E15.12518
G1 X123.297 Y122.535 E15.13478
G1 X123.465 Y122.747 E15.14377
G1 X123.627 Y123.013 E15.15413
G1 X123.748 Y123.285 E15.16403
G1 X123.824 Y123.533 E15.17266
G1 X123.88 Y123.836 E15.18291
G1 X123.9 Y124.088 E15.19132
G1 X123.897 Y126.337 E15.26612
G1 X123.828 Y126.706 E15.2786
G1 X123.742 Y126.985 E15.28831
G1 X123.634 Y127.217 E15.29683
G1 X123.468 Y127.498 E15.30768
G1 X123.304 Y127.702 E15.31639
G1 X123.087 Y127.922 E15.32666
G1 X122.854 Y128.103 E15.33648
G1 X122.634 Y128.239 E15.34508
G1 X122.36 Y128.366 E15.35512
G1 X122.071 Y128.453 E15.36516
G1 X121.781 Y128.508 E15.37498
G1 X121.512 Y128.524 E15.38394
G1 X117.5 Y128.524 E15.51738
G1 F2700 E10.51738
G0 F6000 X117.5 Y128.835
G0 X117.5 Y129.103
G0 X117.5 Y155.888
G0 X117.5 Y155.728
;TYPE:SKIN
G1 F2700 E15.51738
G1 F1200 X107.513 Y155.728 E15.84955
G1 X107.52 Y79.265 E18.39272
G1 X127.476 Y79.268 E19.05646
G1 X127.476 Y155.728 E21.59953
G1 X117.5 Y155.728 E21.93133
G1 F2700 E16.93133
G0 F6000 X117.5 Y155.988
G0 X117.5 Y129.103
G0 X117.5 Y129.28
G1 F2700 E21.93133
G1 F1200 X121.564 Y129.28 E22.0665
G1 X121.829 Y129.264 E22.07533
G1 X122.461 Y129.144 E22.09673
G1 X122.925 Y128.94 E22.11359
G1 X123.26 Y128.741 E22.12655
G1 X123.592 Y128.493 E22.14033
G1 X123.895 Y128.175 E22.15494
G1 X124.127 Y127.875 E22.16755
G1 X124.281 Y127.613 E22.17766
G1 X124.439 Y127.286 E22.18974
G1 X124.555 Y126.926 E22.20232
G1 X124.657 Y126.415 E22.21965
G1 X124.656 Y124.024 E22.29918
G1 X124.634 Y123.75 E22.30832
G1 X124.578 Y123.422 E22.31939
G1 X124.43 Y122.946 E22.33597
G1 X124.191 Y122.449 E22.35431
G1 X123.891 Y122.061 E22.37062
G1 X123.558 Y121.726 E22.38633
G1 X123.245 Y121.486 E22.39945
G1 X122.913 Y121.294 E22.4122
G1 X122.657 Y121.18 E22.42153
G1 X122.215 Y121.044 E22.43691
G1 X121.93 Y120.994 E22.44653
G1 X121.565 Y120.964 E22.45871
G1 X113.432 Y120.964 E22.72922
G1 X113.167 Y120.98 E22.73805
G1 X112.68 Y121.068 E22.75451
G1 X112.396 Y121.156 E22.7644
G1 X111.982 Y121.351 E22.77962
G1 X111.71 Y121.511 E22.79011
G1 X111.434 Y121.732 E22.80187
G1 X111.154 Y122 E22.81476
G1 X110.93 Y122.284 E22.82679
G1 X110.676 Y122.7 E22.843
G1 X110.523 Y123.058 E22.85595
G1 X110.42 Y123.407 E22.86806
G1 X110.343 Y123.828 E22.88229
G1 X110.342 Y126.381 E22.9672
G1 X110.414 Y126.817 E22.9819
G1 X110.52 Y127.178 E22.99442
G1 X110.667 Y127.533 E23.0072
G1 X110.868 Y127.875 E23.02039
G1 X111.092 Y128.173 E23.03279
G1 X111.37 Y128.454 E23.04594
G1 X111.67 Y128.699 E23.05882
G1 X111.994 Y128.899 E23.07148
G1 X112.365 Y129.077 E23.08517
G1 X112.784 Y129.201 E23.0997
G1 X113.063 Y129.253 E23.10914
G1 X113.43 Y129.28 E23.12138
G1 X117.5 Y129.28 E23.25675
G1 F2700 E18.25675
G0 F6000 X117.5 Y129.023
G0 X113.441 Y129.104
G0 X113.441 Y155.888
G0 X108.01 Y155.527
G1 F2700 E23.25675
G1 F1200 X107.713 Y155.23 E23.27072
G0 F6000 X107.713 Y154.665
G1 F1200 X108.576 Y155.527 E23.31129
G0 F6000 X109.141 Y155.527
G1 F1200 X107.713 Y154.099 E23.37846
G0 F6000 X107.713 Y153.533
G1 F1200 X109.707 Y155.527 E23.47225
G0 F6000 X110.273 Y155.527
G1 F1200 X107.713 Y152.968 E23.59264
G0 F6000 X107.713 Y152.402
G1 F1200 X110.838 Y155.527 E23.73963
G0 F6000 X111.404 Y155.527
G1 F1200 X107.713 Y151.836 E23.91324
G0 F6000 X107.713 Y151.271
G1 F1200 X111.97 Y155.527 E24.11346
G0 F6000 X112.535 Y155.527
G1 F1200 X107.713 Y150.705 E24.34027
G0 F6000 X107.713 Y150.139
G1 F1200 X113.101 Y155.527 E24.5937
G0 F6000 X113.667 Y155.527
G1 F1200 X107.713 Y149.574 E24.87374
G0 F6000 X107.713 Y149.008
G1 F1200 X114.232 Y155.527 E25.18037
G0 F6000 X114.798 Y155.527
G1 F1200 X107.713 Y148.442 E25.51363
G0 F6000 X107.714 Y147.877
G1 F1200 X115.364 Y155.527 E25.87346
G0 F6000 X115.929 Y155.527
G1 F1200 X107.714 Y147.312 E26.25987
G0 F6000 X107.714 Y146.746
G1 F1200 X116.495 Y155.527 E26.6729
G0 F6000 X117.061 Y155.527
G1 F1200 X107.714 Y146.18 E27.11256
G0 F6000 X107.714 Y145.614
G1 F1200 X117.627 Y155.527 E27.57883
G0 F6000 X118.192 Y155.527
G1 F1200 X107.714 Y145.049 E28.07169
G0 F6000 X107.714 Y144.483
G1 F1200 X118.758 Y155.527 E28.59116
G0 F6000 X119.324 Y155.527
G1 F1200 X107.714 Y143.917 E29.13726
G0 F6000 X107.714 Y143.352
G1 F1200 X119.889 Y155.527 E29.70994
G0 F6000 X120.455 Y155.527
G1 F1200 X107.714 Y142.786 E30.30923
G0 F6000 X107.714 Y142.22
G1 F1200 X121.021 Y155.527 E30.93515
G0 F6000 X121.586 Y155.527
G1 F1200 X107.714 Y141.655 E31.58765
G0 F6000 X107.714 Y141.089
G1 F1200 X122.152 Y155.527 E32.26677
G0 F6000 X122.718 Y155.527
G1 F1200 X107.714 Y140.523 E32.97251
G0 F6000 X107.714 Y139.958
G1 F1200 X123.283 Y155.527 E33.70483
G0 F6000 X123.849 Y155.527
G1 F1200 X107.714 Y139.393 E34.46375
G0 F6000 X107.714 Y138.827
G1 F1200 X124.415 Y155.527 E35.24929
G0 F6000 X124.98 Y155.527
G1 F1200 X107.714 Y138.261 E36.06143
G0 F6000 X107.714 Y137.696
G1 F1200 X125.546 Y155.527 E36.90017
G0 F6000 X126.112 Y155.527
G1 F1200 X107.714 Y137.13 E37.76553
G0 F6000 X107.714 Y136.564
G1 F1200 X126.677 Y155.527 E38.65749
G0 F6000 X127.243 Y155.527
G1 F1200 X107.714 Y135.999 E39.57605
G0 F6000 X107.714 Y135.433
G1 F1200 X127.276 Y154.995 E40.49619
G0 F6000 X127.276 Y154.429
G1 F1200 X107.714 Y134.867 E41.41632
G0 F6000 X107.714 Y134.301
G1 F1200 X127.276 Y153.864 E42.33648
G0 F6000 X127.276 Y153.298
G1 F1200 X107.714 Y133.736 E43.25662
G0 F6000 X107.714 Y133.17
G1 F1200 X127.276 Y152.732 E44.17676
G0 F6000 X127.276 Y152.167
G1 F1200 X107.715 Y132.605 E45.09687
G0 F6000 X107.715 Y132.039
G1 F1200 X127.276 Y151.601 E46.01698
G0 F6000 X127.276 Y151.035
G1 F1200 X107.715 Y131.474 E46.93707
G0 F6000 X107.715 Y130.908
G1 F1200 X127.276 Y150.469 E47.85716
G0 F6000 X127.276 Y149.904
G1 F1200 X107.715 Y130.342 E48.77727
G0 F6000 X107.715 Y129.777
G1 F1200 X127.276 Y149.338 E49.69736
G0 F6000 X127.276 Y148.772
G1 F1200 X107.715 Y129.211 E50.61745
G0 F6000 X107.715 Y128.645
G1 F1200 X127.276 Y148.207 E51.53757
G0 F6000 X127.276 Y147.641
G1 F1200 X107.715 Y128.08 E52.45766
G0 F6000 X107.715 Y127.514
G1 F1200 X127.276 Y147.075 E53.37774
G0 F6000 X127.276 Y146.51
G1 F1200 X107.715 Y126.948 E54.29786
G0 F6000 X107.715 Y126.383
G1 F1200 X127.276 Y145.944 E55.21795
G0 F6000 X127.276 Y145.378
G1 F1200 X107.715 Y125.817 E56.13804
G0 F6000 X107.715 Y125.251
G1 F1200 X127.276 Y144.813 E57.05815
G0 F6000 X127.276 Y144.247
G1 F1200 X112.291 Y129.262 E57.763
G0 F6000 X113.047 Y129.451
G1 F1200 X127.276 Y143.681 E58.43231
G0 F6000 X127.276 Y143.116
G1 F1200 X113.641 Y129.48 E59.07368
G0 F6000 X114.206 Y129.48
G1 F1200 X127.276 Y142.55 E59.68845
G0 F6000 X127.276 Y141.984
G1 F1200 X114.772 Y129.48 E60.2766
G0 F6000 X115.338 Y129.48
G1 F1200 X127.276 Y141.419 E60.83816
G0 F6000 X127.276 Y140.853
G1 F1200 X115.903 Y129.48 E61.37311
G0 F6000 X116.469 Y129.48
G1 F1200 X127.276 Y140.287 E61.88143
G0 F6000 X127.276 Y139.721
G1 F1200 X117.035 Y129.48 E62.36314
G0 F6000 X117.6 Y129.48
G1 F1200 X127.276 Y139.156 E62.81827
G0 F6000 X127.276 Y138.59
G1 F1200 X118.166 Y129.48 E63.24678
G0 F6000 X118.732 Y129.48
G1 F1200 X127.276 Y138.024 E63.64866
G0 F6000 X127.276 Y137.459
G1 F1200 X119.297 Y129.48 E64.02397
G0 F6000 X119.863 Y129.48
G1 F1200 X127.276 Y136.893 E64.37265
G0 F6000 X127.276 Y136.327
G1 F1200 X120.429 Y129.48 E64.69471
G0 F6000 X120.994 Y129.48
G1 F1200 X127.276 Y135.762 E64.9902
G0 F6000 X127.276 Y135.196
G1 F1200 X121.56 Y129.48 E65.25906
G0 F6000 X122.07 Y129.424
G1 F1200 X127.276 Y134.63 E65.50394
G0 F6000 X127.276 Y134.065
G1 F1200 X122.54 Y129.328 E65.72673
G0 F6000 X122.933 Y129.155
G1 F1200 X127.276 Y133.499 E65.93103
G0 F6000 X127.276 Y132.933
G1 F1200 X123.295 Y128.952 E66.11829
G0 F6000 X123.623 Y128.715
G1 F1200 X127.276 Y132.368 E66.29011
G0 F6000 X127.276 Y131.802
G1 F1200 X123.917 Y128.442 E66.44813
G0 F6000 X124.176 Y128.136
G1 F1200 X127.276 Y131.236 E66.59395
G0 F6000 X127.276 Y130.671
G1 F1200 X124.403 Y127.798 E66.72908
G0 F6000 X124.595 Y127.423
G1 F1200 X127.276 Y130.105 E66.85521
G0 F6000 X127.276 Y129.539
G1 F1200 X124.739 Y127.002 E66.97455
G0 F6000 X124.837 Y126.534
G1 F1200 X127.276 Y128.973 E67.08927
G0 F6000 X127.276 Y128.408
G1 F1200 X124.855 Y125.987 E67.20315
G0 F6000 X124.855 Y125.421
G1 F1200 X127.276 Y127.842 E67.31702
G0 F6000 X127.276 Y127.276
G1 F1200 X124.855 Y124.855 E67.4309
G0 F6000 X124.855 Y124.29
G1 F1200 X127.276 Y126.711 E67.54478
G0 F6000 X127.276 Y126.145
G1 F1200 X124.826 Y123.695 E67.66002
G0 F6000 X124.634 Y122.937
G1 F1200 X127.276 Y125.579 E67.78429
G0 F6000 X127.276 Y125.014
G1 F1200 X107.717 Y105.454 E68.70431
G0 F6000 X107.717 Y104.889
G1 F1200 X127.276 Y124.448 E69.6243
G0 F6000 X127.276 Y123.882
G1 F1200 X107.717 Y104.323 E70.5443
G0 F6000 X107.717 Y103.757
G1 F1200 X127.276 Y123.317 E71.46432
G0 F6000 X127.276 Y122.751
G1 F1200 X107.717 Y103.192 E72.38431
G0 F6000 X107.717 Y102.626
G1 F1200 X127.276 Y122.185 E73.30431
G0 F6000 X127.276 Y121.62
G1 F1200 X107.718 Y102.061 E74.22428
G0 F6000 X107.718 Y101.495
G1 F1200 X127.276 Y121.054 E75.14425
G0 F6000 X127.276 Y120.488
G1 F1200 X107.718 Y100.93 E76.0642
G0 F6000 X107.718 Y100.364
G1 F1200 X127.276 Y119.922 E76.98415
G0 F6000 X127.276 Y119.357
G1 F1200 X107.718 Y99.798 E77.90412
G0 F6000 X107.718 Y99.233
G1 F1200 X127.276 Y118.791 E78.82407
G0 F6000 X127.276 Y118.225
G1 F1200 X107.718 Y98.667 E79.74402
G0 F6000 X107.718 Y98.101
G1 F1200 X127.276 Y117.66 E80.66399
G0 F6000 X127.276 Y117.094
G1 F1200 X107.718 Y97.535 E81.58396
G0 F6000 X107.718 Y96.97
G1 F1200 X127.276 Y116.528 E82.50391
G0 F6000 X127.276 Y115.963
G1 F1200 X107.718 Y96.404 E83.42388
G0 F6000 X107.718 Y95.838
G1 F1200 X127.276 Y115.397 E84.34385
G0 F6000 X127.276 Y114.831
G1 F1200 X107.718 Y95.273 E85.2638
G0 F6000 X107.718 Y94.707
G1 F1200 X127.276 Y114.266 E86.18377
G0 F6000 X127.276 Y113.7
G1 F1200 X107.719 Y94.142 E87.1037
G0 F6000 X107.719 Y93.576
G1 F1200 X127.276 Y113.134 E88.02362
G0 F6000 X127.276 Y112.569
G1 F1200 X107.719 Y93.011 E88.94355
G0 F6000 X107.719 Y92.445
G1 F1200 X127.276 Y112.003 E89.86347
G0 F6000 X127.276 Y111.437
G1 F1200 X107.719 Y91.879 E90.7834
G0 F6000 X107.719 Y91.314
G1 F1200 X127.276 Y110.872 E91.70332
G0 F6000 X127.276 Y110.306
G1 F1200 X107.719 Y90.748 E92.62325
G0 F6000 X107.719 Y90.182
G1 F1200 X127.276 Y109.74 E93.54317
G0 F6000 X127.276 Y109.174
G1 F1200 X107.719 Y89.617 E94.46307
G0 F6000 X107.719 Y89.051
G1 F1200 X127.276 Y108.609 E95.383
G0 F6000 X127.276 Y108.043
G1 F1200 X107.719 Y88.485 E96.30292
G0 F6000 X107.719 Y87.92
G1 F1200 X127.276 Y107.477 E97.22282
G0 F6000 X127.276 Y106.912
G1 F1200 X107.719 Y87.354 E98.14275
G0 F6000 X107.719 Y86.789
G1 F1200 X127.276 Y106.346 E99.06265
G0 F6000 X127.276 Y105.78
G1 F1200 X107.719 Y86.223 E99.98255
G0 F6000 X107.719 Y85.658
G1 F1200 X127.276 Y105.215 E100.90245
G0 F6000 X127.276 Y104.649
G1 F1200 X107.719 Y85.092 E101.82235
G0 F6000 X107.719 Y84.526
G1 F1200 X127.276 Y104.083 E102.74225
G0 F6000 X127.276 Y103.518
G1 F1200 X107.719 Y83.96 E103.66218
G0 F6000 X107.719 Y83.395
G1 F1200 X127.276 Y102.952 E104.58208
G0 F6000 X127.276 Y102.386
G1 F1200 X107.719 Y82.829 E105.50198
G0 F6000 X107.719 Y82.263
G1 F1200 X127.276 Y101.821 E106.42191
G0 F6000 X127.276 Y101.255
G1 F1200 X107.719 Y81.698 E107.34181
G0 F6000 X107.719 Y81.132
G1 F1200 X127.276 Y100.689 E108.26171
G0 F6000 X127.276 Y100.123
G1 F1200 X107.719 Y80.566 E109.18161
G0 F6000 X107.719 Y80.001
G1 F1200 X127.276 Y99.558 E110.10151
G0 F6000 X127.276 Y98.992
G1 F1200 X107.75 Y79.466 E111.01996
G0 F6000 X108.316 Y79.466
G1 F1200 X127.276 Y98.426 E111.91178
G0 F6000 X127.276 Y97.861
G1 F1200 X108.882 Y79.466 E112.777
G0 F6000 X109.447 Y79.466
G1 F1200 X127.276 Y97.295 E113.61562
