;FLAVOR:Marlin
;TIME:440
;Filament used: 0.108999m
;Layer height: 0.12
;MINX:110.5
;MINY:113.5
;MINZ:0.2
;MAXX:124.496
;MAXY:121.496
;MAXZ:5
;TARGET_MACHINE.NAME:Creality Ender-3
;Generated with Cura_SteamEngine 5.11.0
M140 S60
M105
M190 S60
M104 S200
M105
M109 S200
; Ender 3 Custom Start G-code
G92 E0 ; Reset Extruder
G28 ; Home all axes
G1 Z2.0 F3000 ; Move Z Axis up little to prevent scratching of Heat Bed
G1 X0.1 Y20 Z0.3 F5000.0 ; Move to start position
G1 X0.1 Y200.0 Z0.3 F1500.0 E15 ; Draw the first line
G1 X0.4 Y200.0 Z0.3 F5000.0 ; Move to side a little
G1 X0.4 Y20 Z0.3 F1500.0 E30 ; Draw the second line
G92 E0 ; Reset Extruder
G1 Z2.0 F3000 ; Move Z Axis up little to prevent scratching of Heat Bed
G1 X5 Y20 Z0.3 F5000.0 ; Move over to prevent blob squish
M82 ;absolute extrusion mode
G92 E0
G92 E0
G1 F2700 E-5
;LAYER_COUNT:41
;LAYER:0
M107
;MESH:Button.stl
G0 F6000 X117.5 Y121.096 Z0.2
;TYPE:WALL-INNER
G1 F2700 E0
G1 F1200 X121.61 Y121.096 E0.1367
G1 X121.967 Y121.055 E0.14865
G1 X122.221 Y120.995 E0.15733
G1 X122.641 Y120.831 E0.17233
G1 X122.978 Y120.649 E0.18507
G1 X123.329 Y120.341 E0.2006
G1 X123.63 Y119.986 E0.21608
G1 X123.794 Y119.723 E0.22639
G1 X123.924 Y119.437 E0.23684
G1 X124.014 Y119.163 E0.24643
G1 X124.096 Y118.747 E0.26053
G1 X124.096 Y116.386 E0.33906
G1 X124.055 Y116.032 E0.35091
G1 X123.969 Y115.665 E0.36345
G1 X123.833 Y115.358 E0.37462
G1 X123.643 Y115.011 E0.38777
G1 X123.341 Y114.667 E0.403
G1 X123.088 Y114.433 E0.41446
G1 X122.724 Y114.203 E0.42878
G1 X122.44 Y114.076 E0.43913
G1 X122.164 Y113.982 E0.44883
G1 X121.748 Y113.905 E0.4629
G1 X113.389 Y113.901 E0.74092
G1 X113.032 Y113.944 E0.75288
G1 X112.774 Y114.003 E0.76168
G1 X112.357 Y114.164 E0.77655
G1 X112.023 Y114.347 E0.78922
G1 X111.668 Y114.655 E0.80485
G1 X111.369 Y115.012 E0.82034
G1 X111.203 Y115.272 E0.8306
G1 X111.076 Y115.563 E0.84116
G1 X110.982 Y115.834 E0.8507
G1 X110.904 Y116.251 E0.86481
G1 X110.9 Y118.608 E0.9432
G1 X110.944 Y118.968 E0.95526
G1 X111.002 Y119.223 E0.96396
G1 X111.166 Y119.642 E0.97893
G1 X111.338 Y119.962 E0.99101
G1 X111.655 Y120.328 E1.00712
G1 X112.013 Y120.631 E1.02272
G1 X112.271 Y120.792 E1.03283
G1 X112.559 Y120.92 E1.04331
G1 X112.836 Y121.015 E1.05305
G1 X113.249 Y121.096 E1.06705
G1 X117.5 Y121.096 E1.20844
G0 F6000 X117.5 Y121.496
;TYPE:WALL-OUTER
G1 F1200 X121.632 Y121.496 E1.34587
G1 X122.037 Y121.45 E1.35943
G1 X122.451 Y121.35 E1.37359
G1 X122.816 Y121.191 E1.38683
G1 X123.087 Y121.045 E1.39707
G1 X123.297 Y120.901 E1.40554
G1 X123.608 Y120.628 E1.41931
G1 X123.802 Y120.418 E1.42881
G1 X123.959 Y120.214 E1.43738
G1 X124.147 Y119.913 E1.44918
G1 X124.297 Y119.583 E1.46124
G1 X124.402 Y119.265 E1.47238
G1 X124.469 Y118.922 E1.484
G1 X124.496 Y118.654 E1.49296
G1 X124.496 Y116.364 E1.56912
G1 X124.45 Y115.963 E1.58255
G1 X124.349 Y115.534 E1.59721
G1 X124.192 Y115.181 E1.61006
G1 X124.045 Y114.913 E1.62022
G1 X123.901 Y114.699 E1.6288
G1 X123.628 Y114.388 E1.64257
G1 X123.419 Y114.194 E1.65205
G1 X123.217 Y114.041 E1.66048
G1 X122.913 Y113.849 E1.67244
G1 X122.586 Y113.703 E1.68435
G1 X122.265 Y113.594 E1.69562
G1 X121.923 Y113.531 E1.70719
G1 X121.654 Y113.505 E1.71618
G1 X113.365 Y113.501 E1.99187
G1 X112.963 Y113.55 E2.00534
G1 X112.553 Y113.643 E2.01932
G1 X112.181 Y113.804 E2.03281
G1 X111.914 Y113.951 E2.04294
G1 X111.699 Y114.099 E2.05163
G1 X111.388 Y114.368 E2.0653
G1 X111.194 Y114.581 E2.07488
G1 X111.041 Y114.783 E2.08331
G1 X110.849 Y115.083 E2.09516
G1 X110.703 Y115.417 E2.10728
G1 X110.594 Y115.732 E2.11837
G1 X110.531 Y116.073 E2.1299
G1 X110.504 Y116.342 E2.13889
G1 X110.5 Y118.632 E2.21506
G1 X110.55 Y119.037 E2.22863
G1 X110.639 Y119.429 E2.242
G1 X110.805 Y119.816 E2.25601
G1 X110.951 Y120.086 E2.26622
G1 X111.095 Y120.292 E2.27458
G1 X111.368 Y120.608 E2.28847
G1 X111.581 Y120.802 E2.29805
G1 X111.783 Y120.959 E2.30656
G1 X112.083 Y121.146 E2.31832
G1 X112.413 Y121.293 E2.33033
G1 X112.732 Y121.402 E2.34154
G1 X113.074 Y121.469 E2.35314
G1 X113.342 Y121.496 E2.36209
G1 X117.5 Y121.496 E2.50039
G0 F6000 X117.5 Y120.736
;TYPE:SKIN
G1 F1200 X113.285 Y120.736 E2.64058
G1 X112.818 Y120.64 E2.65644
G1 X112.331 Y120.425 E2.67414
G1 X111.91 Y120.073 E2.6924
G1 X111.699 Y119.826 E2.7032
G1 X111.488 Y119.482 E2.71662
G1 X111.316 Y119.039 E2.73243
G1 X111.26 Y118.58 E2.74781
G1 X111.264 Y116.279 E2.82434
G1 X111.33 Y115.928 E2.83622
G1 X111.415 Y115.681 E2.84491
G1 X111.518 Y115.443 E2.85353
G1 X111.658 Y115.223 E2.86221
G1 X111.923 Y114.91 E2.87585
G1 X112.244 Y114.632 E2.88997
G1 X112.704 Y114.404 E2.90705
G1 X113.087 Y114.297 E2.92027
G1 X113.412 Y114.261 E2.93115
G1 X121.709 Y114.264 E3.20711
G1 X122.16 Y114.348 E3.22237
G1 X122.558 Y114.522 E3.23681
G1 X122.864 Y114.715 E3.24885
G1 X123.084 Y114.924 E3.25894
G1 X123.343 Y115.216 E3.27192
G1 X123.569 Y115.632 E3.28767
G1 X123.699 Y116.095 E3.30366
G1 X123.736 Y116.408 E3.31415
G1 X123.736 Y118.707 E3.39061
G1 X123.662 Y119.064 E3.40274
G1 X123.581 Y119.311 E3.41138
G1 X123.474 Y119.549 E3.42006
G1 X123.337 Y119.769 E3.42868
G1 X123.072 Y120.084 E3.44237
G1 X122.772 Y120.35 E3.45571
G1 X122.488 Y120.501 E3.46641
G1 X122.015 Y120.684 E3.48327
G1 X121.588 Y120.736 E3.49758
G1 X117.5 Y120.736 E3.63355
G0 F6000 X117.5 Y120.996
G0 X113.264 Y120.935
G0 X112.618 Y120.771
G0 X112.104 Y120.499
G0 X111.537 Y119.946
G0 X111.037 Y118.904
G0 X111.494 Y118.848
G1 F1200 X113.151 Y120.504 E3.71147
G0 F6000 X113.748 Y120.536
G1 F1200 X111.46 Y118.248 E3.81909
G0 F6000 X111.461 Y117.684
G1 F1200 X114.314 Y120.536 E3.95326
G0 F6000 X114.879 Y120.536
G1 F1200 X111.462 Y117.119 E4.11398
G0 F6000 X111.463 Y116.555
G1 F1200 X115.445 Y120.536 E4.30126
G0 F6000 X116.011 Y120.536
G1 F1200 X111.513 Y116.038 E4.51283
G0 F6000 X111.662 Y115.622
G1 F1200 X116.576 Y120.536 E4.74397
G0 F6000 X117.142 Y120.536
G1 F1200 X111.878 Y115.272 E4.99158
G0 F6000 X112.151 Y114.979
G1 F1200 X117.708 Y120.536 E5.25296
G0 F6000 X118.274 Y120.536
G1 F1200 X112.477 Y114.74 E5.52561
G0 F6000 X112.869 Y114.566
G1 F1200 X118.839 Y120.536 E5.80642
G0 F6000 X119.405 Y120.536
G1 F1200 X113.339 Y114.471 E6.09172
G0 F6000 X113.896 Y114.461
G1 F1200 X119.971 Y120.536 E6.37747
G0 F6000 X120.536 Y120.536
G1 F1200 X114.461 Y114.461 E6.66322
G0 F6000 X115.027 Y114.461
G1 F1200 X121.102 Y120.536 E6.94897
G0 F6000 X121.657 Y120.526
G1 F1200 X115.594 Y114.462 E7.23418
G0 F6000 X116.159 Y114.462
G1 F1200 X122.124 Y120.427 E7.51475
G0 F6000 X122.52 Y120.258
G1 F1200 X116.725 Y114.462 E7.78736
G0 F6000 X117.291 Y114.463
G1 F1200 X122.845 Y120.017 E8.0486
G0 F6000 X123.116 Y119.722
G1 F1200 X117.857 Y114.463 E8.29597
G0 F6000 X118.423 Y114.464
G1 F1200 X123.33 Y119.37 E8.52675
G0 F6000 X123.481 Y118.955
G1 F1200 X118.989 Y114.464 E8.73802
G0 F6000 X119.555 Y114.464
G1 F1200 X123.537 Y118.445 E8.9253
G0 F6000 X123.537 Y117.88
G1 F1200 X120.121 Y114.464 E9.08598
G0 F6000 X120.687 Y114.464
G1 F1200 X123.537 Y117.314 E9.22003
G0 F6000 X123.537 Y116.748
G1 F1200 X121.253 Y114.464 E9.32746
G0 F6000 X121.847 Y114.493
G1 F1200 X123.504 Y116.15 E9.4054
;MESH:NONMESH
G0 F300 X123.504 Y116.15 Z0.32
G0 F6000 X123.962 Y116.098
G0 X123.935 Y118.732
G0 X123.774 Y119.378
G0 X123.497 Y119.895
G0 X122.886 Y120.516
G0 X122.067 Y120.882
G0 X117.5 Y121.096
;TIME_ELAPSED:21.260156
;LAYER:1
;note -- min layer time used
M106 S85
;TYPE:WALL-INNER
;MESH:Button.stl
G1 F1735.1 X121.622 Y121.096 E9.48766
G1 X121.912 Y121.066 E9.49348
G1 X122.346 Y120.964 E9.50238
G1 X122.786 Y120.764 E9.51202
G1 X123.147 Y120.519 E9.52073
G1 X123.519 Y120.147 E9.53123
G1 X123.77 Y119.777 E9.54015
G1 X123.968 Y119.329 E9.54993
G1 X124.066 Y118.912 E9.55847
G1 X124.096 Y118.622 E9.56429
G1 X124.096 Y116.378 E9.60907
G1 X124.066 Y116.083 E9.61499
G1 X123.971 Y115.677 E9.62331
G1 X123.82 Y115.33 E9.63086
G1 X123.535 Y114.865 E9.64175
G1 X123.244 Y114.573 E9.64997
G1 X122.798 Y114.234 E9.66115
G1 X122.315 Y114.025 E9.67166
G1 X121.912 Y113.93 E9.67992
G1 X121.622 Y113.9 E9.68574
G1 X113.378 Y113.9 E9.85026
G1 X113.083 Y113.93 E9.85617
G1 X112.68 Y114.025 E9.86444
G1 X112.198 Y114.235 E9.87493
G1 X111.752 Y114.573 E9.8861
G1 X111.573 Y114.752 E9.89115
G1 X111.228 Y115.208 E9.90256
G1 X111.023 Y115.686 E9.91294
G1 X110.93 Y116.083 E9.92107
G1 X110.9 Y116.378 E9.92699
G1 X110.9 Y118.622 E9.97177
G1 X110.93 Y118.912 E9.97759
G1 X111.029 Y119.335 E9.98626
G1 X111.231 Y119.788 E9.99616
G1 X111.496 Y120.168 E10.0054
G1 X111.85 Y120.52 E10.01537
G1 X112.21 Y120.764 E10.02405
G1 X112.65 Y120.964 E10.03369
G1 X113.083 Y121.066 E10.04257
G1 X113.378 Y121.096 E10.04849
G1 X117.5 Y121.096 E10.13074
G0 F10500 X117.5 Y121.496
;TYPE:WALL-OUTER
G1 F1735.1 X121.642 Y121.496 E10.2134
G1 X121.978 Y121.462 E10.22014
G1 X122.33 Y121.379 E10.22736
G1 X122.571 Y121.301 E10.23241
G1 X122.846 Y121.176 E10.23844
G1 X123.079 Y121.049 E10.24374
G1 X123.299 Y120.9 E10.24904
G1 X123.512 Y120.72 E10.25461
G1 X123.72 Y120.512 E10.26048
G1 X123.9 Y120.299 E10.26604
G1 X124.049 Y120.079 E10.27134
G1 X124.18 Y119.839 E10.2768
G1 X124.297 Y119.575 E10.28256
G1 X124.379 Y119.329 E10.28774
G1 X124.462 Y118.978 E10.29494
G1 X124.496 Y118.642 E10.30167
G1 X124.496 Y116.358 E10.34725
G1 X124.462 Y116.017 E10.35409
G1 X124.379 Y115.664 E10.36133
G1 X124.297 Y115.425 E10.36637
G1 X124.18 Y115.153 E10.37228
G1 X124.049 Y114.917 E10.37767
G1 X123.9 Y114.697 E10.38297
G1 X123.72 Y114.484 E10.38854
G1 X123.513 Y114.277 E10.39438
G1 X123.299 Y114.1 E10.39992
G1 X123.078 Y113.947 E10.40528
G1 X122.847 Y113.82 E10.41054
G1 X122.571 Y113.699 E10.41656
G1 X122.328 Y113.617 E10.42168
G1 X121.978 Y113.534 E10.42885
G1 X121.642 Y113.5 E10.43559
G1 X113.358 Y113.5 E10.60091
G1 X113.017 Y113.534 E10.60775
G1 X112.668 Y113.617 E10.61491
G1 X112.425 Y113.699 E10.62003
G1 X112.149 Y113.82 E10.62604
G1 X111.918 Y113.947 E10.6313
G1 X111.697 Y114.1 E10.63666
G1 X111.483 Y114.277 E10.64221
G1 X111.277 Y114.483 E10.64802
G1 X111.1 Y114.697 E10.65356
G1 X110.947 Y114.918 E10.65893
G1 X110.816 Y115.153 E10.6643
G1 X110.699 Y115.425 E10.6702
G1 X110.617 Y115.664 E10.67525
G1 X110.534 Y116.017 E10.68248
G1 X110.5 Y116.358 E10.68932
G1 X110.5 Y118.642 E10.7349
G1 X110.534 Y118.978 E10.74164
G1 X110.617 Y119.329 E10.74884
G1 X110.699 Y119.575 E10.75401
G1 X110.816 Y119.839 E10.75978
G1 X110.947 Y120.078 E10.76522
G1 X111.1 Y120.299 E10.77058
G1 X111.277 Y120.513 E10.77612
G1 X111.484 Y120.72 E10.78196
G1 X111.697 Y120.9 E10.78753
G1 X111.917 Y121.049 E10.79283
G1 X112.15 Y121.176 E10.79813
G1 X112.425 Y121.301 E10.80416
G1 X112.666 Y121.379 E10.80921
G1 X113.017 Y121.462 E10.81641
G1 X113.358 Y121.496 E10.82325
G1 X117.5 Y121.496 E10.9059
G0 F10500 X117.5 Y120.736
;TYPE:SKIN
G1 F1735.1 X113.391 Y120.736 E10.9879
G1 X113.142 Y120.71 E10.9929
G1 X112.757 Y120.618 E11.0008
G1 X112.223 Y120.353 E11.0127
G1 X111.845 Y120.005 E11.02295
G1 X111.591 Y119.67 E11.03134
G1 X111.374 Y119.227 E11.04118
G1 X111.26 Y118.766 E11.05066
G1 X111.26 Y116.24 E11.10107
G1 X111.348 Y115.876 E11.10854
G1 X111.537 Y115.391 E11.11893
G1 X111.903 Y114.907 E11.13104
G1 X112.387 Y114.541 E11.14315
G1 X112.889 Y114.343 E11.15392
G1 X113.137 Y114.282 E11.15902
G1 X113.389 Y114.26 E11.16406
G1 X121.76 Y114.26 E11.33112
G1 X122.107 Y114.344 E11.33824
G1 X122.608 Y114.54 E11.34898
G1 X122.996 Y114.837 E11.35873
G1 X123.292 Y115.158 E11.36744
G1 X123.496 Y115.486 E11.37515
G1 X123.644 Y115.872 E11.3834
G1 X123.736 Y116.26 E11.39136
G1 X123.736 Y118.747 E11.44099
G1 X123.618 Y119.227 E11.45085
G1 X123.4 Y119.674 E11.46078
G1 X123.151 Y120.005 E11.46904
G1 X122.773 Y120.353 E11.4793
G1 X122.236 Y120.618 E11.49125
G1 X121.731 Y120.736 E11.50159
G1 X117.5 Y120.736 E11.58603
G0 F10500 X117.5 Y120.996
G0 X121.885 Y120.908
G0 X122.303 Y120.809
G0 X122.886 Y120.52
G0 X123.125 Y120.3
G0 X123.752 Y119.552
G0 X123.342 Y119.337
G1 F1735.1 X122.331 Y120.348 E11.61456
G0 F10500 X121.577 Y120.536
G1 F1735.1 X123.536 Y118.578 E11.66983
G0 F10500 X123.536 Y118.012
G1 F1735.1 X121.011 Y120.536 E11.74108
G0 F10500 X120.446 Y120.536
G1 F1735.1 X123.536 Y117.446 E11.82829
G0 F10500 X123.536 Y116.881
G1 F1735.1 X119.88 Y120.536 E11.93145
G0 F10500 X119.314 Y120.536
G1 F1735.1 X123.536 Y116.315 E12.05059
G0 F10500 X123.424 Y115.861
G1 F1735.1 X118.749 Y120.536 E12.18253
G0 F10500 X118.183 Y120.536
G1 F1735.1 X123.249 Y115.47 E12.32551
G0 F10500 X123.008 Y115.146
G1 F1735.1 X117.617 Y120.536 E12.47764
G0 F10500 X117.052 Y120.536
G1 F1735.1 X122.714 Y114.874 E12.63743
G0 F10500 X122.363 Y114.659
G1 F1735.1 X116.486 Y120.536 E12.80329
G0 F10500 X115.92 Y120.536
G1 F1735.1 X121.94 Y114.517 E12.97318
G0 F10500 X121.431 Y114.46
G1 F1735.1 X115.355 Y120.536 E13.14465
G0 F10500 X114.789 Y120.536
G1 F1735.1 X120.865 Y114.46 E13.31613
G0 F10500 X120.299 Y114.46
G1 F1735.1 X114.223 Y120.536 E13.48761
G0 F10500 X113.658 Y120.536
G1 F1735.1 X119.734 Y114.46 E13.65909
G0 F10500 X119.168 Y114.46
G1 F1735.1 X113.127 Y120.501 E13.82958
G0 F10500 X112.697 Y120.365
G1 F1735.1 X118.602 Y114.46 E13.99623
G0 F10500 X118.037 Y114.46
G1 F1735.1 X112.323 Y120.174 E14.15749
G0 F10500 X112.028 Y119.903
G1 F1735.1 X117.471 Y114.46 E14.3111
G0 F10500 X116.905 Y114.46
G1 F1735.1 X111.779 Y119.586 E14.45577
G0 F10500 X111.589 Y119.21
G1 F1735.1 X116.34 Y114.46 E14.58984
G0 F10500 X115.774 Y114.46
G1 F1735.1 X111.468 Y118.766 E14.71137
G0 F10500 X111.461 Y118.208
G1 F1735.1 X115.208 Y114.46 E14.81713
G0 F10500 X114.643 Y114.46
G1 F1735.1 X111.461 Y117.642 E14.90693
G0 F10500 X111.461 Y117.076
G1 F1735.1 X114.077 Y114.46 E14.98076
G0 F10500 X113.511 Y114.46
G1 F1735.1 X111.461 Y116.511 E15.03863
G0 F10500 X111.584 Y115.822
G1 F1735.1 X112.821 Y114.585 E15.07354
;MESH:NONMESH
G0 F300 X112.821 Y114.585 Z0.44
G0 F10500 X112.654 Y114.157
G0 X111.764 Y114.765
G0 X111.362 Y115.298
G0 X111.088 Y116.11
G0 X111.088 Y118.885
G0 X111.187 Y119.3
G0 X111.424 Y119.783
G0 X111.692 Y120.135
G0 X112.11 Y120.52
G0 X112.687 Y120.806
G0 X113.254 Y120.91
G0 X117.5 Y121.096
;TIME_ELAPSED:34.424745
;LAYER:2
;note -- min layer time used
M106 S170
;TYPE:WALL-INNER
;MESH:Button.stl
G1 F1718.9 X121.622 Y121.096 E15.1558
G1 X121.912 Y121.066 E15.16162
G1 X122.346 Y120.964 E15.17051
G1 X122.786 Y120.764 E15.18016
G1 X123.147 Y120.519 E15.18887
G1 X123.519 Y120.147 E15.19936
G1 X123.77 Y119.777 E15.20829
G1 X123.968 Y119.329 E15.21806
G1 X124.066 Y118.912 E15.22661
G1 X124.096 Y118.622 E15.23243
G1 X124.096 Y116.378 E15.27721
G1 X124.066 Y116.083 E15.28313
G1 X123.971 Y115.677 E15.29145
G1 X123.82 Y115.33 E15.299
G1 X123.535 Y114.865 E15.30988
G1 X123.244 Y114.573 E15.31811
G1 X122.798 Y114.234 E15.32929
G1 X122.315 Y114.025 E15.33979
G1 X121.912 Y113.93 E15.34806
G1 X121.622 Y113.9 E15.35387
G1 X113.378 Y113.9 E15.51839
G1 X113.083 Y113.93 E15.52431
G1 X112.68 Y114.025 E15.53257
G1 X112.198 Y114.235 E15.54306
G1 X111.752 Y114.573 E15.55423
G1 X111.573 Y114.752 E15.55928
G1 X111.228 Y115.208 E15.57069
G1 X111.023 Y115.686 E15.58107
G1 X110.93 Y116.083 E15.58921
G1 X110.9 Y116.378 E15.59513
G1 X110.9 Y118.622 E15.63991
G1 X110.93 Y118.912 E15.64573
G1 X111.029 Y119.335 E15.6544
G1 X111.231 Y119.788 E15.6643
G1 X111.496 Y120.168 E15.67354
G1 X111.85 Y120.52 E15.6835
G1 X112.21 Y120.764 E15.69218
G1 X112.65 Y120.964 E15.70183
G1 X113.083 Y121.066 E15.7107
G1 X113.378 Y121.096 E15.71662
G1 X117.5 Y121.096 E15.79888
G0 F15000 X117.5 Y121.496
;TYPE:WALL-OUTER
G1 F1718.9 X121.642 Y121.496 E15.88154
G1 X121.978 Y121.462 E15.88828
G1 X122.33 Y121.379 E15.8955
G1 X122.571 Y121.301 E15.90055
G1 X122.846 Y121.176 E15.90658
G1 X123.079 Y121.049 E15.91187
G1 X123.299 Y120.9 E15.91718
G1 X123.512 Y120.72 E15.92274
G1 X123.72 Y120.512 E15.92861
G1 X123.9 Y120.299 E15.93418
G1 X124.049 Y120.079 E15.93948
G1 X124.18 Y119.839 E15.94494
G1 X124.297 Y119.575 E15.9507
G1 X124.379 Y119.329 E15.95587
G1 X124.462 Y118.978 E15.96307
G1 X124.496 Y118.642 E15.96981
G1 X124.496 Y116.358 E16.01539
G1 X124.462 Y116.017 E16.02223
G1 X124.379 Y115.664 E16.02947
G1 X124.297 Y115.425 E16.03451
G1 X124.18 Y115.153 E16.04042
G1 X124.049 Y114.917 E16.0458
G1 X123.9 Y114.697 E16.05111
G1 X123.72 Y114.484 E16.05667
