;FLAVOR:Marlin
;TIME:2907
;Filament used: 2.89648m
;Layer height: 0.2
;MINX:95.3
;MINY:76.186
;MINZ:0.2
;MAXX:155.7
;MAXY:158.814
;MAXZ:8
;TARGET_MACHINE.NAME:Creality Ender-3
;Generated with Cura_SteamEngine 5.11.0
M140 S60
M105
M190 S60
M104 S200
M105
M109 S200
; Ender 3 Custom Start G-code
G92 E0 ; Reset Extruder
G28 ; Home all axes
G1 Z2.0 F3000 ; Move Z Axis up little to prevent scratching of Heat Bed
G1 X0.1 Y20 Z0.3 F5000.0 ; Move to start position
G1 X0.1 Y200.0 Z0.3 F1500.0 E15 ; Draw the first line
G1 X0.4 Y200.0 Z0.3 F5000.0 ; Move to side a little
G1 X0.4 Y20 Z0.3 F1500.0 E30 ; Draw the second line
G92 E0 ; Reset Extruder
G1 Z2.0 F3000 ; Move Z Axis up little to prevent scratching of Heat Bed
G1 X5 Y20 Z0.3 F5000.0 ; Move over to prevent blob squish
M82 ;absolute extrusion mode
G92 E0
G92 E0
G1 F2700 E-5
;LAYER_COUNT:40
;LAYER:0
M107
;MESH:Button.stl
G0 F6000 X100.432 Y124.197 Z0.2
;TYPE:WALL-INNER
G1 F2700 E0
G1 F1200 X100.636 Y124.185 E0.0068
G1 X100.887 Y124.153 E0.01521
G1 X101.193 Y124.08 E0.02568
G1 X101.541 Y123.95 E0.03803
G1 X101.91 Y123.742 E0.05212
G1 X102.221 Y123.49 E0.06543
G1 X102.539 Y123.139 E0.08119
G1 X102.73 Y122.868 E0.09221
G1 X102.854 Y122.616 E0.10156
G1 X102.977 Y122.304 E0.11271
G1 X103.074 Y121.895 E0.12669
G1 X103.1 Y121.485 E0.14035
G1 X103.1 Y113.374 E0.41013
G1 X103.053 Y113.005 E0.4225
G1 X102.981 Y112.705 E0.43276
G1 X102.85 Y112.358 E0.4451
G1 X102.638 Y111.98 E0.45951
G1 X102.318 Y111.591 E0.47627
G1 X102.036 Y111.354 E0.48852
G1 X101.768 Y111.169 E0.49935
G1 X101.514 Y111.04 E0.50882
G1 X101.204 Y110.919 E0.51989
G1 X100.792 Y110.821 E0.53398
G1 X100.389 Y110.8 E0.5474
G1 X98.417 Y110.8 E0.61299
G1 X98.02 Y110.817 E0.6262
G1 X97.604 Y110.915 E0.64042
G1 X97.258 Y111.046 E0.65272
G1 X96.88 Y111.258 E0.66714
G1 X96.483 Y111.584 E0.68423
G1 X96.255 Y111.864 E0.69623
G1 X96.069 Y112.13 E0.70703
G1 X95.941 Y112.382 E0.71643
G1 X95.819 Y112.692 E0.72751
G1 X95.721 Y113.105 E0.74163
G1 X95.7 Y113.507 E0.75502
G1 X95.701 Y121.643 E1.02562
G1 X95.748 Y121.996 E1.03747
G1 X95.816 Y122.294 E1.04763
G1 X95.946 Y122.641 E1.05996
G1 X96.158 Y123.016 E1.07429
G1 X96.481 Y123.409 E1.09121
G1 X96.766 Y123.647 E1.10355
G1 X97.027 Y123.83 E1.11416
G1 X97.28 Y123.954 E1.12353
G1 X97.592 Y124.077 E1.13468
G1 X98.001 Y124.174 E1.14866
G1 X98.411 Y124.2 E1.16233
G1 X100.375 Y124.2 E1.22765
G1 X100.432 Y124.197 E1.22955
G0 F6000 X100.493 Y124.594
;TYPE:WALL-OUTER
G1 F1200 X100.673 Y124.584 E1.23554
G1 X100.959 Y124.547 E1.24514
G1 X101.309 Y124.464 E1.2571
G1 X101.711 Y124.314 E1.27137
G1 X102.03 Y124.134 E1.28355
G1 X102.244 Y123.987 E1.29219
G1 X102.489 Y123.787 E1.30271
G1 X102.675 Y123.601 E1.31146
G1 X102.857 Y123.382 E1.32093
G1 X103.075 Y123.073 E1.33351
G1 X103.22 Y122.778 E1.34444
G1 X103.36 Y122.424 E1.3571
G1 X103.443 Y122.074 E1.36906
G1 X103.48 Y121.808 E1.378
G1 X103.5 Y121.497 E1.38836
G1 X103.5 Y113.498 E1.65441
G1 X103.484 Y113.227 E1.66344
G1 X103.447 Y112.933 E1.67329
G1 X103.364 Y112.587 E1.68513
G1 X103.214 Y112.189 E1.69928
G1 X103.033 Y111.866 E1.71159
G1 X102.884 Y111.649 E1.72035
G1 X102.691 Y111.414 E1.73046
G1 X102.508 Y111.228 E1.73914
G1 X102.278 Y111.036 E1.7491
G1 X101.973 Y110.825 E1.76144
G1 X101.678 Y110.675 E1.77245
G1 X101.324 Y110.536 E1.78509
G1 X100.974 Y110.453 E1.79706
G1 X100.709 Y110.416 E1.80596
G1 X100.399 Y110.4 E1.81628
G1 X98.409 Y110.4 E1.88247
G1 X98.122 Y110.412 E1.89202
G1 X97.837 Y110.449 E1.90158
G1 X97.487 Y110.532 E1.91355
G1 X97.089 Y110.682 E1.92769
G1 X96.766 Y110.863 E1.94001
G1 X96.549 Y111.012 E1.94876
G1 X96.314 Y111.205 E1.95888
G1 X96.128 Y111.388 E1.96756
G1 X95.936 Y111.622 E1.97762
G1 X95.725 Y111.924 E1.98988
G1 X95.575 Y112.218 E2.00085
G1 X95.436 Y112.572 E2.0135
G1 X95.353 Y112.922 E2.02547
G1 X95.316 Y113.184 E2.03427
G1 X95.3 Y113.497 E2.04469
G1 X95.301 Y121.499 E2.31084
G1 X95.312 Y121.754 E2.31933
G1 X95.354 Y122.068 E2.32987
G1 X95.432 Y122.41 E2.34153
G1 X95.582 Y122.811 E2.35577
G1 X95.762 Y123.129 E2.36793
G1 X95.912 Y123.347 E2.37673
G1 X96.105 Y123.582 E2.38684
G1 X96.288 Y123.769 E2.39554
G1 X96.522 Y123.965 E2.4057
G1 X96.823 Y124.175 E2.4179
G1 X97.118 Y124.32 E2.42884
G1 X97.472 Y124.46 E2.4415
G1 X97.822 Y124.543 E2.45346
G1 X98.088 Y124.58 E2.46239
G1 X98.399 Y124.6 E2.47276
G1 X100.386 Y124.6 E2.53885
G1 X100.493 Y124.594 E2.54241
G0 F6000 X100.376 Y123.839
;TYPE:SKIN
G1 F1200 X100.366 Y123.84 E2.54275
G1 X98.431 Y123.84 E2.6071
G1 X98.059 Y123.817 E2.6195
G1 X97.697 Y123.728 E2.6319
G1 X97.278 Y123.566 E2.64684
G1 X96.982 Y123.357 E2.65889
G1 X96.743 Y123.158 E2.66924
G1 X96.454 Y122.806 E2.68438
G1 X96.27 Y122.482 E2.69678
G1 X96.16 Y122.19 E2.70716
G1 X96.098 Y121.916 E2.7165
G1 X96.06 Y121.631 E2.72606
G1 X96.06 Y113.521 E2.9958
G1 X96.076 Y113.161 E3.00779
G1 X96.164 Y112.797 E3.02024
G1 X96.319 Y112.399 E3.03445
G1 X96.618 Y111.97 E3.05184
G1 X96.823 Y111.769 E3.06139
G1 X97.082 Y111.554 E3.07259
G1 X97.413 Y111.37 E3.08518
G1 X97.695 Y111.264 E3.0952
G1 X97.972 Y111.197 E3.10468
G1 X98.265 Y111.16 E3.1145
G1 X100.37 Y111.16 E3.18452
G1 X100.731 Y111.179 E3.19654
G1 X101.096 Y111.264 E3.209
G1 X101.494 Y111.42 E3.22322
G1 X101.814 Y111.64 E3.23614
G1 X102.061 Y111.846 E3.24683
G1 X102.334 Y112.178 E3.26113
G1 X102.525 Y112.517 E3.27407
G1 X102.632 Y112.808 E3.28439
G1 X102.698 Y113.067 E3.29327
G1 X102.74 Y113.506 E3.30794
G1 X102.74 Y121.461 E3.57253
G1 X102.713 Y121.841 E3.5852
G1 X102.628 Y122.196 E3.59734
G1 X102.47 Y122.604 E3.61189
G1 X102.247 Y122.918 E3.6247
G1 X101.973 Y123.222 E3.63831
G1 X101.71 Y123.438 E3.64963
G1 X101.391 Y123.618 E3.66181
G1 X101.073 Y123.736 E3.6731
G1 X100.822 Y123.798 E3.68169
G1 X100.376 Y123.839 E3.69659
G0 F6000 X100.619 Y124.078
G0 X98.029 Y124.015
G0 X97.345 Y123.807
G0 X96.739 Y123.394
G0 X96.15 Y122.8
G0 X96.552 Y122.573
G1 F1200 X97.354 Y123.376 E3.73434
G0 F6000 X98.167 Y123.623
G1 F1200 X96.275 Y121.731 E3.82333
G0 F6000 X96.26 Y121.15
G1 F1200 X98.75 Y123.64 E3.94045
G0 F6000 X99.315 Y123.64
G1 F1200 X96.26 Y120.584 E4.08418
G0 F6000 X96.26 Y120.019
G1 F1200 X99.881 Y123.64 E4.2545
G0 F6000 X100.44 Y123.633
G1 F1200 X96.26 Y119.453 E4.45111
G0 F6000 X96.26 Y118.887
G1 F1200 X100.943 Y123.57 E4.67138
G0 F6000 X101.35 Y123.411
G1 F1200 X96.26 Y118.322 E4.91078
G0 F6000 X96.26 Y117.756
G1 F1200 X101.695 Y123.191 E5.16643
G0 F6000 X101.983 Y122.914
G1 F1200 X96.26 Y117.19 E5.43564
G0 F6000 X96.26 Y116.625
G1 F1200 X102.231 Y122.595 E5.71648
G0 F6000 X102.41 Y122.209
G1 F1200 X96.26 Y116.059 E6.00575
G0 F6000 X96.26 Y115.493
G1 F1200 X102.519 Y121.752 E6.30016
G0 F6000 X102.54 Y121.208
G1 F1200 X96.26 Y114.927 E6.59557
G0 F6000 X96.26 Y114.362
G1 F1200 X102.54 Y120.642 E6.89096
G0 F6000 X102.54 Y120.077
G1 F1200 X96.26 Y113.796 E7.18638
G0 F6000 X96.272 Y113.242
G1 F1200 X102.54 Y119.511 E7.48123
G0 F6000 X102.54 Y118.945
G1 F1200 X96.381 Y112.786 E7.77093
G0 F6000 X96.562 Y112.401
G1 F1200 X102.54 Y118.38 E8.05214
G0 F6000 X102.54 Y117.814
G1 F1200 X96.799 Y112.073 E8.32218
G0 F6000 X97.096 Y111.803
G1 F1200 X102.54 Y117.248 E8.57827
G0 F6000 X102.54 Y116.683
G1 F1200 X97.441 Y111.584 E8.81811
G0 F6000 X97.856 Y111.432
G1 F1200 X102.54 Y116.117 E9.03846
G0 F6000 X102.54 Y115.551
G1 F1200 X98.349 Y111.36 E9.23559
G0 F6000 X98.915 Y111.36
G1 F1200 X102.54 Y114.985 E9.4061
G0 F6000 X102.54 Y114.42
G1 F1200 X99.481 Y111.36 E9.55001
G0 F6000 X100.046 Y111.36
G1 F1200 X102.54 Y113.854 E9.66732
G0 F6000 X102.516 Y113.264
G1 F1200 X100.626 Y111.374 E9.75622
G0 F6000 X101.449 Y111.631
G1 F1200 X102.245 Y112.427 E9.79366
G1 F2700 E4.79366
;MESH:Bottom.stl
G0 F6000 X102.648 Y112.203
G0 X102.895 Y113.035
G0 X103.271 Y121.515
G0 X104.365 Y121.515
G0 X105.922 Y121.516
G0 X117.5 Y156.162
;TYPE:WALL-INNER
G1 F2700 E9.79366
G1 F1200 X127.812 Y156.159 E10.13664
G1 X127.819 Y78.837 E12.70838
G1 X107.184 Y78.836 E13.3947
G1 X107.184 Y156.164 E15.96664
G1 X117.5 Y156.162 E16.30975
G0 F6000 X117.5 Y156.562
;TYPE:WALL-OUTER
G1 F1200 X127.854 Y156.559 E16.65413
G1 X128.033 Y156.481 E16.66062
G1 X128.168 Y156.336 E16.66721
G1 X128.212 Y156.13 E16.67422
G1 X128.219 Y78.81 E19.24589
G1 X128.172 Y78.674 E19.25068
G1 X127.983 Y78.483 E19.25961
G1 X127.774 Y78.437 E19.26673
G1 X107.217 Y78.436 E19.95046
G1 X107.008 Y78.481 E19.95757
G1 X106.866 Y78.611 E19.96397
G1 X106.784 Y78.795 E19.97068
G1 X106.784 Y156.202 E22.54524
G1 X106.863 Y156.385 E22.55187
G1 X107.008 Y156.516 E22.55837
G1 X107.219 Y156.564 E22.56557
G1 X117.5 Y156.562 E22.90752
G0 F6000 X117.5 Y155.8
;TYPE:SKIN
G1 F1200 X107.544 Y155.8 E23.23865
G1 X107.545 Y79.197 E25.78648
G1 X127.455 Y79.197 E26.44869
G1 X127.452 Y155.8 E28.99652
G1 X117.5 Y155.8 E29.32752
G0 F6000 X117.5 Y156.062
G0 X108.082 Y156.063
G0 X108.082 Y155.6
G1 F1200 X107.744 Y155.262 E29.34342
G0 F6000 X107.744 Y154.696
G1 F1200 X108.648 Y155.6 E29.38594
G0 F6000 X109.213 Y155.6
G1 F1200 X107.744 Y154.13 E29.45506
G0 F6000 X107.744 Y153.565
G1 F1200 X109.779 Y155.6 E29.55078
G0 F6000 X110.345 Y155.6
G1 F1200 X107.744 Y152.999 E29.67312
G0 F6000 X107.744 Y152.433
G1 F1200 X110.91 Y155.6 E29.82207
G0 F6000 X111.476 Y155.6
G1 F1200 X107.744 Y151.867 E29.99763
G0 F6000 X107.744 Y151.302
G1 F1200 X112.042 Y155.6 E30.1998
G0 F6000 X112.607 Y155.6
G1 F1200 X107.744 Y150.736 E30.42856
G0 F6000 X107.744 Y150.17
G1 F1200 X113.173 Y155.6 E30.68395
G0 F6000 X113.739 Y155.6
G1 F1200 X107.744 Y149.605 E30.96593
G0 F6000 X107.744 Y149.039
G1 F1200 X114.305 Y155.6 E31.27454
G0 F6000 X114.87 Y155.6
G1 F1200 X107.744 Y148.473 E31.60975
G0 F6000 X107.744 Y147.908
G1 F1200 X115.436 Y155.6 E31.97156
G0 F6000 X116.002 Y155.6
G1 F1200 X107.744 Y147.342 E32.35999
G0 F6000 X107.744 Y146.776
G1 F1200 X116.567 Y155.6 E32.77502
G0 F6000 X117.133 Y155.6
G1 F1200 X107.744 Y146.211 E33.21665
G0 F6000 X107.744 Y145.645
G1 F1200 X117.699 Y155.6 E33.6849
G0 F6000 X118.264 Y155.6
G1 F1200 X107.744 Y145.079 E34.17976
G0 F6000 X107.744 Y144.514
G1 F1200 X118.83 Y155.6 E34.70121
G0 F6000 X119.396 Y155.6
G1 F1200 X107.744 Y143.948 E35.24928
G0 F6000 X107.744 Y143.382
G1 F1200 X119.961 Y155.6 E35.82396
G0 F6000 X120.527 Y155.6
G1 F1200 X107.744 Y142.816 E36.42525
G0 F6000 X107.744 Y142.251
G1 F1200 X121.093 Y155.6 E37.05315
G0 F6000 X121.658 Y155.6
G1 F1200 X107.744 Y141.685 E37.70764
G0 F6000 X107.744 Y141.119
G1 F1200 X122.224 Y155.6 E38.38876
G0 F6000 X122.79 Y155.6
G1 F1200 X107.744 Y140.554 E39.09648
G0 F6000 X107.744 Y139.988
G1 F1200 X123.355 Y155.6 E39.8308
G0 F6000 X123.921 Y155.6
G1 F1200 X107.744 Y139.422 E40.59174
G0 F6000 X107.744 Y138.857
G1 F1200 X124.487 Y155.6 E41.37928
G0 F6000 X125.053 Y155.6
G1 F1200 X107.744 Y138.291 E42.19344
G0 F6000 X107.744 Y137.725
G1 F1200 X125.618 Y155.6 E43.0342
G0 F6000 X126.184 Y155.6
G1 F1200 X107.744 Y137.16 E43.90156
G0 F6000 X107.744 Y136.594
G1 F1200 X126.75 Y155.6 E44.79555
G0 F6000 X127.253 Y155.537
G1 F1200 X107.744 Y136.028 E45.71319
G0 F6000 X107.744 Y135.463
G1 F1200 X127.253 Y154.972 E46.63083
G0 F6000 X127.253 Y154.406
G1 F1200 X107.744 Y134.897 E47.54848
G0 F6000 X107.744 Y134.331
G1 F1200 X127.253 Y153.84 E48.46612
G0 F6000 X127.253 Y153.275
G1 F1200 X107.744 Y133.766 E49.38376
G0 F6000 X107.744 Y133.2
G1 F1200 X127.253 Y152.709 E50.30141
G0 F6000 X127.253 Y152.143
G1 F1200 X107.744 Y132.634 E51.21905
G0 F6000 X107.744 Y132.068
G1 F1200 X127.253 Y151.578 E52.13672
G0 F6000 X127.253 Y151.012
G1 F1200 X107.744 Y131.503 E53.05436
G0 F6000 X107.744 Y130.937
G1 F1200 X127.253 Y150.446 E53.972
G0 F6000 X127.253 Y149.88
G1 F1200 X107.744 Y130.371 E54.88965
G0 F6000 X107.744 Y129.806
G1 F1200 X127.253 Y149.315 E55.80729
G0 F6000 X127.253 Y148.749
G1 F1200 X107.744 Y129.24 E56.72494
G0 F6000 X107.744 Y128.674
G1 F1200 X127.253 Y148.183 E57.64258
G0 F6000 X127.253 Y147.618
G1 F1200 X107.744 Y128.109 E58.56022
G0 F6000 X107.744 Y127.543
G1 F1200 X127.253 Y147.052 E59.47787
G0 F6000 X127.253 Y146.486
G1 F1200 X107.744 Y126.977 E60.39551
G0 F6000 X107.744 Y126.412
G1 F1200 X127.253 Y145.921 E61.31315
G0 F6000 X127.253 Y145.355
G1 F1200 X107.744 Y125.846 E62.2308
G0 F6000 X107.744 Y125.28
G1 F1200 X127.253 Y144.789 E63.14844
G0 F6000 X127.253 Y144.224
G1 F1200 X107.744 Y124.715 E64.06608
G0 F6000 X107.744 Y124.149
G1 F1200 X127.253 Y143.658 E64.98373
G0 F6000 X127.253 Y143.092
G1 F1200 X107.744 Y123.583 E65.90137
G0 F6000 X107.744 Y123.017
G1 F1200 X127.253 Y142.527 E66.81904
G0 F6000 X127.253 Y141.961
G1 F1200 X107.744 Y122.452 E67.73668
G0 F6000 X107.744 Y121.886
G1 F1200 X127.253 Y141.395 E68.65432
G0 F6000 X127.253 Y140.83
G1 F1200 X107.744 Y121.32 E69.57199
G0 F6000 X107.744 Y120.755
G1 F1200 X127.253 Y140.264 E70.48964
G0 F6000 X127.253 Y139.698
G1 F1200 X107.744 Y120.189 E71.40728
G0 F6000 X107.744 Y119.623
G1 F1200 X127.253 Y139.132 E72.32492
G0 F6000 X127.253 Y138.567
G1 F1200 X107.744 Y119.058 E73.24257
G0 F6000 X107.744 Y118.492
G1 F1200 X127.253 Y138.001 E74.16021
G0 F6000 X127.253 Y137.435
G1 F1200 X107.744 Y117.926 E75.07785
G0 F6000 X107.744 Y117.361
G1 F1200 X127.253 Y136.87 E75.9955
G0 F6000 X127.254 Y136.305
G1 F1200 X107.744 Y116.795 E76.91319
G0 F6000 X107.744 Y116.229
G1 F1200 X127.254 Y135.739 E77.83088
G0 F6000 X127.254 Y135.173
G1 F1200 X107.744 Y115.664 E78.74854
G0 F6000 X107.744 Y115.098
G1 F1200 X127.254 Y134.608 E79.66624
G0 F6000 X127.254 Y134.042
G1 F1200 X107.744 Y114.532 E80.58393
G0 F6000 X107.744 Y113.967
G1 F1200 X127.254 Y133.476 E81.50159
G0 F6000 X127.254 Y132.911
G1 F1200 X107.744 Y113.401 E82.41928
G0 F6000 X107.744 Y112.835
G1 F1200 X127.254 Y132.345 E83.33697
G0 F6000 X127.254 Y131.779
G1 F1200 X107.744 Y112.269 E84.25466
G0 F6000 X107.744 Y111.704
G1 F1200 X127.254 Y131.214 E85.17236
G0 F6000 X127.254 Y130.648
G1 F1200 X107.744 Y111.138 E86.09005
G0 F6000 X107.744 Y110.572
G1 F1200 X127.254 Y130.082 E87.00774
G0 F6000 X127.254 Y129.517
G1 F1200 X107.744 Y110.007 E87.92543
G0 F6000 X107.744 Y109.441
G1 F1200 X127.254 Y128.951 E88.84312
G0 F6000 X127.254 Y128.385
G1 F1200 X107.744 Y108.875 E89.76081
G0 F6000 X107.744 Y108.31
G1 F1200 X127.254 Y127.819 E90.67848
G0 F6000 X127.254 Y127.254
G1 F1200 X107.744 Y107.744 E91.59617
G0 F6000 X107.744 Y107.178
G1 F1200 X127.254 Y126.688 E92.51386
G0 F6000 X127.254 Y126.122
G1 F1200 X107.744 Y106.613 E93.43152
G0 F6000 X107.744 Y106.047
G1 F1200 X127.254 Y125.557 E94.34921
G0 F6000 X127.254 Y124.991
G1 F1200 X107.744 Y105.481 E95.2669
G0 F6000 X107.744 Y104.916
G1 F1200 X127.254 Y124.425 E96.18457
G0 F6000 X127.254 Y123.86
G1 F1200 X107.744 Y104.35 E97.10226
G0 F6000 X107.744 Y103.784
G1 F1200 X127.254 Y123.294 E98.01995
G0 F6000 X127.254 Y122.728
G1 F1200 X107.744 Y103.218 E98.93764
G0 F6000 X107.744 Y102.653
G1 F1200 X127.254 Y122.163 E99.85533
G0 F6000 X127.254 Y121.597
G1 F1200 X107.744 Y102.087 E100.77302
G0 F6000 X107.744 Y101.521
G1 F1200 X127.254 Y121.031 E101.69072
G0 F6000 X127.254 Y120.466
G1 F1200 X107.744 Y100.956 E102.60841
G0 F6000 X107.744 Y100.39
G1 F1200 X127.254 Y119.9 E103.5261
G0 F6000 X127.254 Y119.334
G1 F1200 X107.744 Y99.824 E104.44379
G0 F6000 X107.744 Y99.259
G1 F1200 X127.254 Y118.768 E105.36145
G0 F6000 X127.254 Y118.203
G1 F1200 X107.744 Y98.693 E106.27914
G0 F6000 X107.744 Y98.127
G1 F1200 X127.254 Y117.637 E107.19684
G0 F6000 X127.254 Y117.072
G1 F1200 X107.744 Y97.562 E108.11453
G0 F6000 X107.744 Y96.996
G1 F1200 X127.254 Y116.506 E109.03222
G0 F6000 X127.254 Y115.941
G1 F1200 X107.744 Y96.43 E109.94993
G0 F6000 X107.744 Y95.865
G1 F1200 X127.254 Y115.375 E110.86762
G0 F6000 X127.254 Y114.809
G1 F1200 X107.744 Y95.299 E111.78531
G0 F6000 X107.744 Y94.733
G1 F1200 X127.254 Y114.244 E112.70303
G0 F6000 X127.254 Y113.678
G1 F1200 X107.744 Y94.168 E113.62072
G0 F6000 X107.744 Y93.602
G1 F1200 X127.254 Y113.112 E114.53841
G0 F6000 X127.254 Y112.547
G1 F1200 X107.744 Y93.036 E115.45612
G0 F6000 X107.744 Y92.47
G1 F1200 X127.254 Y111.981 E116.37384
G0 F6000 X127.254 Y111.415
G1 F1200 X107.744 Y91.905 E117.29153
G0 F6000 X107.744 Y91.339
G1 F1200 X127.254 Y110.85 E118.20924
G0 F6000 X127.254 Y110.284
G1 F1200 X107.744 Y90.773 E119.12695
G0 F6000 X107.744 Y90.208
G1 F1200 X127.254 Y109.718 E120.04464
