;FLAVOR:Marlin
;TIME:2424
;Filament used: 1.45967m
;Layer height: 0.12
;MINX:77.124
;MINY:105.372
;MINZ:0.2
;MAXX:157.872
;MAXY:129.624
;MAXZ:8
;TARGET_MACHINE.NAME:Creality Ender-3
;Generated with Cura_SteamEngine 5.11.0
M140 S60
M105
M190 S60
M104 S200
M105
M109 S200
; Ender 3 Custom Start G-code
G92 E0 ; Reset Extruder
G28 ; Home all axes
G1 Z2.0 F3000 ; Move Z Axis up little to prevent scratching of Heat Bed
G1 X0.1 Y20 Z0.3 F5000.0 ; Move to start position
G1 X0.1 Y200.0 Z0.3 F1500.0 E15 ; Draw the first line
G1 X0.4 Y200.0 Z0.3 F5000.0 ; Move to side a little
G1 X0.4 Y20 Z0.3 F1500.0 E30 ; Draw the second line
G92 E0 ; Reset Extruder
G1 Z2.0 F3000 ; Move Z Axis up little to prevent scratching of Heat Bed
G1 X5 Y20 Z0.3 F5000.0 ; Move over to prevent blob squish
M82 ;absolute extrusion mode
G92 E0
G92 E0
G1 F2700 E-5
;LAYER_COUNT:66
;LAYER:0
M107
;MESH:Bottom.stl
G0 F6000 X83.033 Y122.402 Z0.2
;TYPE:WALL-INNER
G1 F2700 E0
G1 F1304.3 X82.964 Y122.362 E0.00244
G1 X82.964 Y122.442 E0.00489
G1 X83.033 Y122.402 E0.00733
G0 F6000 X83.056 Y122.784
;TYPE:WALL-OUTER
G1 F1200 X83.313 Y122.737 E0.01602
G1 X83.477 Y122.641 E0.02234
G1 X83.568 Y122.486 E0.02832
G1 X83.568 Y122.291 E0.0348
G1 X83.482 Y122.144 E0.04047
G1 X83.328 Y122.058 E0.04633
G1 X82.99 Y122.017 E0.05766
G1 X82.605 Y122.014 E0.07046
G1 X82.604 Y122.789 E0.09624
G1 X83.056 Y122.784 E0.11127
G1 F2700 E-4.88873
G0 F6000 X83.03 Y122.478
G0 X83.339 Y122.396
G0 X87.329 Y122.396
G0 X87.476 Y122.396
;TYPE:WALL-INNER
G1 F2700 E0.11127
G1 F1337 X87.568 Y122.393 E0.11402
G0 F6000 X87.46 Y122.779
;TYPE:WALL-OUTER
G1 F1200 X87.738 Y122.758 E0.1233
G1 X87.954 Y122.69 E0.13083
G1 X88.087 Y122.57 E0.13679
G1 X88.137 Y122.426 E0.14186
G1 X88.124 Y122.261 E0.14736
G1 X88.046 Y122.146 E0.15198
G1 X87.884 Y122.061 E0.15807
G1 X87.596 Y122.016 E0.16776
G1 X87.096 Y122.016 E0.18439
G1 X87.096 Y122.78 E0.2098
G1 X87.46 Y122.779 E0.22191
G1 F2700 E-4.77809
G0 F6000 X87.455 Y122.473
G0 X87.838 Y122.489
G0 X89.102 Y123.9
G0 X89.802 Y124.69
;TYPE:WALL-INNER
G1 F2700 E0.22191
G1 F1212.1 X89.799 Y123.483 E0.26165
G1 X89.677 Y123.642 E0.26825
G1 X89.352 Y123.951 E0.28302
G1 X89.802 Y124.69 E0.31151
G1 F2700 E-4.68849
G0 F6000 X89.971 Y124.3
G0 X91.996 Y124.3
G0 X94.263 Y124.396
G1 F2700 E0.31151
G1 F1159.4 X94.635 Y124.018 E0.32976
G1 X94.782 Y123.921 E0.33583
G1 X94.497 Y123.706 E0.34812
G1 X94.248 Y123.369 E0.36254
G1 X94.247 Y123.858 E0.37937
G1 X94.157 Y124.093 E0.38804
G1 F1145.6 X94.071 Y124.218 E0.39332
G1 X94.205 Y124.293 E0.39867
G1 F1159.4 X94.263 Y124.396 E0.40274
G1 F2700 E-4.59726
G0 F6000 X94.263 Y124.303
G0 X95.044 Y123.872
G0 X97.394 Y122.689
G0 X98.248 Y123.074
G1 F2700 E0.40274
G1 F1126.8 X98.247 Y122.068 E0.43838
G1 X97.705 Y122.637 E0.46621
G1 X97.906 Y122.77 E0.47475
G1 X98.248 Y123.074 E0.49096
G1 F2700 E-4.50904
G0 F6000 X98.062 Y122.596
G0 X98.433 Y123.808
G0 X98.46 Y124.09
G0 X100.437 Y124.188
G0 X117.5 Y126.305
G1 F2700 E0.49096
G1 F1200 X117.421 Y126.376 E0.49449
G1 X117.21 Y126.452 E0.50195
G1 X113.64 Y126.452 E0.62069
G1 X113.32 Y126.36 E0.63176
G1 X113.151 Y126.201 E0.63948
G1 X113.078 Y126.008 E0.64634
G1 X112.827 Y126.168 E0.65624
G1 X112.558 Y126.312 E0.66639
G1 X111.957 Y126.514 E0.68748
G1 X111.513 Y126.568 E0.70236
G1 X111.158 Y126.584 E0.71418
G1 X110.832 Y126.568 E0.72503
G1 X110.565 Y126.537 E0.73397
G1 X110.187 Y126.448 E0.74689
G1 X109.866 Y126.34 E0.75815
G1 X109.589 Y126.214 E0.76828
G1 X109.235 Y126.018 E0.78173
G1 X108.821 Y125.662 E0.79989
G1 X108.612 Y125.429 E0.8103
G1 X108.293 Y125.004 E0.82798
G1 X108.286 Y125.937 E0.85901
G1 X108.138 Y126.25 E0.87053
G1 X107.78 Y126.448 E0.88413
G1 X106.324 Y126.448 E0.93256
G1 X105.884 Y126.277 E0.94826
G1 X104.907 Y124.703 E1.00988
G1 X104.916 Y125.843 E1.0478
G1 X104.826 Y126.165 E1.05892
G1 X104.721 Y126.291 E1.06437
G1 X104.402 Y126.448 E1.0762
G1 X103.021 Y126.448 E1.12213
G1 X102.823 Y126.356 E1.12939
G1 X102.746 Y126.228 E1.13436
G1 X102.669 Y126.356 E1.13933
G1 X102.347 Y126.448 E1.15047
G1 X98.859 Y126.445 E1.26648
G1 X98.486 Y126.314 E1.27963
G1 X98.309 Y126.083 E1.2893
G1 X98.26 Y125.601 E1.30542
G1 X98.133 Y125.768 E1.3124
G1 X97.842 Y126.048 E1.32583
G1 X97.441 Y126.297 E1.34153
G1 X96.989 Y126.46 E1.35751
G1 X96.608 Y126.539 E1.37045
G1 X96.11 Y126.572 E1.38705
G1 X95.822 Y126.553 E1.39665
G1 X95.478 Y126.508 E1.40819
G1 X95.202 Y126.44 E1.41764
G1 X94.814 Y126.324 E1.43111
G1 X94.39 Y126.1 E1.44706
G1 X94.25 Y126.323 E1.45582
G1 X93.966 Y126.444 E1.46609
G1 X90.399 Y126.441 E1.58473
G1 X90.117 Y126.37 E1.5944
G1 X90.004 Y126.257 E1.59971
G1 X89.891 Y126.37 E1.60503
G1 X89.689 Y126.44 E1.61214
G1 X88.392 Y126.44 E1.65528
G1 X88.074 Y126.349 E1.66628
G1 X87.864 Y126.127 E1.67644
G1 X87.504 Y125.463 E1.70156
G1 X87.504 Y125.84 E1.7141
G1 X87.432 Y126.127 E1.72395
G1 X87.222 Y126.349 E1.73411
G1 X86.987 Y126.44 E1.74249
G1 X85.716 Y126.44 E1.78476
G1 X85.368 Y126.33 E1.7969
G1 X85.171 Y126.094 E1.80713
G1 X85.118 Y125.892 E1.81407
G1 X85.117 Y123.772 E1.88459
G1 X84.727 Y124.1 E1.90153
G1 X84.319 Y124.32 E1.91695
G1 X83.854 Y124.46 E1.9331
G1 X83.409 Y124.536 E1.94812
G1 X83.004 Y124.547 E1.96159
G1 X83.002 Y125.892 E2.00633
G1 X82.949 Y126.094 E2.01327
G1 X82.751 Y126.33 E2.02352
G1 X82.488 Y126.44 E2.033
G1 X81.194 Y126.437 E2.07604
G1 X80.917 Y126.368 E2.08554
G1 X80.721 Y126.204 E2.09404
G1 X80.596 Y125.919 E2.10439
G1 X80.6 Y120.835 E2.27348
G1 X80.671 Y120.552 E2.28319
G1 X80.84 Y120.355 E2.29182
G1 X81.08 Y120.236 E2.30073
G1 X83.054 Y120.24 E2.36638
G1 X83.527 Y120.268 E2.38214
G1 X83.924 Y120.338 E2.39555
G1 X84.342 Y120.466 E2.41009
G1 X84.753 Y120.682 E2.42553
G1 X85.119 Y120.997 E2.4416
G1 X85.154 Y120.64 E2.45353
G1 X85.211 Y120.521 E2.45791
G1 X85.419 Y120.32 E2.46754
G1 X85.632 Y120.24 E2.4751
G1 X87.649 Y120.24 E2.54219
G1 X88.017 Y120.26 E2.55445
G1 X88.447 Y120.329 E2.56893
G1 X88.858 Y120.451 E2.58319
G1 X89.272 Y120.659 E2.5986
G1 X89.594 Y120.93 E2.6126
G1 X89.8 Y121.195 E2.62376
G1 X89.8 Y120.812 E2.6365
G1 X89.925 Y120.472 E2.64855
G1 X90.121 Y120.308 E2.65705
G1 X90.347 Y120.242 E2.66488
G1 X93.836 Y120.248 E2.78092
G1 X94.105 Y120.349 E2.79048
G1 X94.286 Y120.547 E2.7994
G1 X94.363 Y120.789 E2.80785
G1 X94.363 Y120.963 E2.81364
G1 X94.791 Y120.592 E2.83248
G1 X95.188 Y120.365 E2.84769
G1 X95.618 Y120.224 E2.86274
G1 X96.008 Y120.148 E2.87595
G1 X96.456 Y120.116 E2.89089
G1 X97.043 Y120.172 E2.9105
G1 X97.517 Y120.305 E2.92688
G1 X97.988 Y120.519 E2.94409
G1 X98.292 Y120.728 E2.95636
G1 X98.348 Y120.53 E2.9632
G1 X98.588 Y120.308 E2.97407
G1 X98.779 Y120.244 E2.98077
G1 X102.289 Y120.251 E3.09752
G1 X102.551 Y120.344 E3.10676
G1 X102.686 Y120.592 E3.11615
G1 X102.821 Y120.344 E3.12555
G1 X103.109 Y120.249 E3.13563
G1 X104.608 Y120.253 E3.18549
G1 X104.869 Y120.356 E3.19482
G1 X105.036 Y120.533 E3.20292
G1 X105.934 Y121.999 E3.2601
G1 X105.924 Y120.854 E3.29818
G1 X106.012 Y120.533 E3.30925
G1 X106.179 Y120.356 E3.31734
G1 X106.44 Y120.253 E3.32668
G1 X107.82 Y120.25 E3.37258
G1 X108.041 Y120.357 E3.38074
G1 X108.245 Y120.603 E3.39137
G1 X108.294 Y120.799 E3.39809
G1 X108.296 Y121.724 E3.42886
G1 X108.475 Y121.436 E3.44014
G1 X108.786 Y121.056 E3.45647
G1 X109.122 Y120.78 E3.47093
G1 X109.47 Y120.536 E3.48507
G1 X109.935 Y120.335 E3.50192
G1 X110.245 Y120.239 E3.51271
G1 X110.594 Y120.164 E3.52458
G1 X110.902 Y120.128 E3.5349
G1 X111.3 Y120.112 E3.54814
G1 X111.948 Y120.189 E3.56985
G1 X112.448 Y120.343 E3.58725
G1 X112.856 Y120.515 E3.60198
G1 X113.089 Y120.672 E3.61132
G1 X113.206 Y120.441 E3.61993
G1 X113.365 Y120.32 E3.62658
G1 X113.592 Y120.254 E3.63444
G1 X117.064 Y120.255 E3.74992
G1 X117.36 Y120.368 E3.76046
G1 X117.547 Y120.595 E3.77024
G1 X117.603 Y120.805 E3.77747
G1 X117.604 Y121.973 E3.81632
G1 X117.456 Y122.272 E3.82741
G1 X117.215 Y122.381 E3.83621
G1 X117.421 Y122.546 E3.84499
G1 X117.484 Y122.727 E3.85136
G1 X117.484 Y123.926 E3.89124
G1 X117.207 Y124.254 E3.90552
G1 X117.569 Y124.412 E3.91866
G1 X117.647 Y124.518 E3.92304
G1 X117.725 Y124.757 E3.9314
G1 X117.724 Y125.967 E3.97164
G1 X117.621 Y126.196 E3.97999
G1 X117.5 Y126.305 E3.98541
G1 F2700 E-1.01459
G0 F6000 X117.5 Y126.363
G0 X117.232 Y126.633
G0 X117.23 Y127.655
G0 X117.5 Y127.836
G1 F2700 E3.98541
G1 F1200 X156.088 Y127.836 E5.26885
G1 X156.088 Y107.16 E5.95654
G1 X78.908 Y107.16 E8.52356
G1 X78.908 Y127.836 E9.21124
G1 X117.5 Y127.836 E10.49482
G1 F2700 E5.49482
G0 F6000 X121.174 Y127.655
G0 X121.178 Y126.637
G0 X121.176 Y126.456
G1 F2700 E10.49482
G1 F1200 X120.882 Y126.379 E10.50493
G1 X120.682 Y126.199 E10.51388
G1 X120.58 Y125.929 E10.52348
G1 X120.576 Y123.385 E10.60809
G1 X120.154 Y123.494 E10.62259
G1 X119.919 Y123.405 E10.63094
G1 X119.759 Y123.254 E10.63826
G1 X119.116 Y122.367 E10.6747
G1 X119.035 Y122.122 E10.68328
G1 X119.037 Y121.976 E10.68814
G1 X119.241 Y121.604 E10.70225
G1 X121.007 Y120.312 E10.77503
G1 X121.216 Y120.258 E10.78221
G1 X122.432 Y120.259 E10.82265
G1 X122.727 Y120.377 E10.83322
G1 X122.876 Y120.542 E10.84061
G1 X122.962 Y120.802 E10.84972
G1 X122.961 Y125.857 E11.01785
G1 X122.914 Y126.088 E11.02569
G1 X122.72 Y126.337 E11.03619
G1 X122.446 Y126.456 E11.04613
G1 X121.176 Y126.456 E11.08837
G1 F2700 E6.08837
G0 F6000 X120.739 Y126.294
G0 X120.752 Y123.054
G0 X120.158 Y123.525
G0 X119.021 Y121.968
G0 X121.201 Y120.098
G0 X110.424 Y123.994
G0 X113.04 Y124.256
G1 F2700 E11.08837
G1 F1200 X113.042 Y122.335 E11.15226
G1 X112.681 Y122.697 E11.16926
G1 X112.422 Y122.849 E11.17925
G1 X112.212 Y122.871 E11.18627
G1 X112.069 Y122.842 E11.19113
G1 X111.846 Y122.711 E11.19973
G1 X111.684 Y122.541 E11.20754
G1 X111.412 Y122.432 E11.21729
G1 X111.067 Y122.432 E11.22876
G1 X110.902 Y122.483 E11.2345
G1 X110.651 Y122.658 E11.24468
G1 X110.477 Y122.943 E11.25579
G1 X110.426 Y123.137 E11.26246
G1 X110.427 Y123.558 E11.27646
G1 X110.48 Y123.762 E11.28347
G1 X110.641 Y124.035 E11.29401
G1 X110.755 Y124.134 E11.29904
G1 X111.059 Y124.256 E11.30993
G1 X111.413 Y124.254 E11.32171
G1 X111.697 Y124.118 E11.33218
G1 X111.862 Y123.94 E11.34025
G1 X112.082 Y123.803 E11.34887
G1 X112.224 Y123.77 E11.35372
G1 X112.435 Y123.786 E11.36076
G1 X112.696 Y123.931 E11.37069
G1 X113.04 Y124.256 E11.38643
G1 F2700 E6.38643
G0 F6000 X112.265 Y123.747
G0 X112.024 Y124.005
G0 X110.534 Y124.144
G0 X148.143 Y125.823
G0 X148.924 Y126.424
G1 F2700 E11.38643
G1 F1200 X148.563 Y126.305 E11.39907
G1 X148.37 Y126.055 E11.40958
G1 X148.324 Y125.824 E11.41741
G1 X148.324 Y123.324 E11.50056
G1 X148.391 Y123.046 E11.51007
G1 X148.501 Y122.897 E11.51623
G1 X148.667 Y122.781 E11.52297
G1 X148.878 Y122.725 E11.53023
G1 X149.867 Y122.729 E11.56312
G1 X150.086 Y122.805 E11.57083
G1 X150.346 Y123.119 E11.58439
G1 X150.606 Y122.805 E11.59795
G1 X150.854 Y122.726 E11.60661
G1 X154.072 Y122.724 E11.71364
G1 X154.303 Y122.77 E11.72147
G1 X154.553 Y122.963 E11.73198
G1 X154.672 Y123.324 E11.74462
G1 X154.672 Y123.921 E11.76448
G1 X154.598 Y124.132 E11.77191
G1 X154.418 Y124.331 E11.78084
G1 X154.072 Y124.44 E11.7929
G1 X153.968 Y124.44 E11.79636
G1 X153.968 Y125.905 E11.84509
G1 X153.896 Y126.111 E11.85235
G1 X153.696 Y126.327 E11.86214
G1 X153.449 Y126.424 E11.87096
G1 X152.764 Y126.424 E11.89375
G1 X152.545 Y126.383 E11.90116
G1 X152.394 Y126.298 E11.90692
G1 X152.272 Y126.072 E11.91546
G1 X152.15 Y126.298 E11.924
G1 X151.852 Y126.424 E11.93477
G1 X151.192 Y126.424 E11.95672
G1 X150.94 Y126.369 E11.9653
G1 X150.868 Y126.29 E11.96885
G1 X150.796 Y126.369 E11.97241
G1 X150.544 Y126.424 E11.98098
G1 X150.027 Y126.424 E11.99818
G1 X149.874 Y126.372 E12.00356
G1 X149.806 Y126.298 E12.0069
G1 X149.738 Y126.372 E12.01024
G1 X149.566 Y126.424 E12.01622
G1 X148.924 Y126.424 E12.03757
G0 F6000 X148.924 Y126.024
;TYPE:WALL-OUTER
G1 F1200 X148.803 Y125.985 E12.0418
G1 X148.724 Y125.881 E12.04614
G1 X148.724 Y123.285 E12.13249
G1 X148.808 Y123.16 E12.13749
G1 X148.89 Y123.126 E12.14045
G1 X149.864 Y123.126 E12.17284
G1 X149.973 Y123.256 E12.17848
G1 X150.356 Y124.335 E12.21657
G1 X150.719 Y123.256 E12.25443
G1 X150.807 Y123.151 E12.25899
G1 X150.89 Y123.124 E12.26189
G1 X154.129 Y123.124 E12.36962
G1 X154.233 Y123.203 E12.37396
G1 X154.272 Y123.324 E12.37819
G1 X154.27 Y123.875 E12.39652
G1 X154.188 Y124.004 E12.4016
G1 X154.072 Y124.04 E12.40564
G1 X153.568 Y124.04 E12.42241
G1 X153.566 Y125.859 E12.48291
G1 X153.459 Y126.021 E12.48936
G1 X152.714 Y126.024 E12.51414
G1 F1073.8 X152.518 Y125.846 E12.52398
G1 F973.6 X152.518 Y124.086 E12.59613
G1 F975.6 X152.026 Y124.086 E12.61626
G1 F973.6 X152.026 Y125.846 E12.68841
G1 F1073.8 X151.904 Y125.982 E12.6952
G1 F1200 X151.815 Y126.021 E12.69843
G1 X151.125 Y126.024 E12.72138
G1 X150.992 Y125.881 E12.72787
G1 X150.996 Y125.18 E12.75119
G1 X150.732 Y125.894 E12.77651
G1 X150.614 Y126.021 E12.78227
G1 X150.049 Y126.019 E12.80107
G1 X149.931 Y125.892 E12.80683
G1 X149.688 Y125.212 E12.83085
G1 X149.692 Y125.88 E12.85307
G1 X149.558 Y126.024 E12.85961
G1 X148.924 Y126.024 E12.8807
G1 F2700 E7.8807
G0 F6000 X148.924 Y126.335
G0 X148.143 Y125.823
G0 X121.201 Y120.098
G0 X121.097 Y126.056
G1 F2700 E12.8807
G1 F1200 X120.981 Y125.904 E12.88706
G1 X120.976 Y122.59 E12.99728
G1 X120.366 Y123.059 E13.02287
G1 X120.214 Y123.098 E13.02809
G1 X120.113 Y123.061 E13.03167
G1 X119.443 Y122.14 E13.06955
G1 X119.433 Y122.032 E13.07316
G1 X119.501 Y121.908 E13.07786
G1 X121.209 Y120.656 E13.1483
G1 X122.399 Y120.658 E13.18788
G1 X122.485 Y120.696 E13.191
G1 X122.564 Y120.798 E13.1953
G1 X122.561 Y125.914 E13.36545
G1 X122.48 Y126.017 E13.36981
G1 X122.395 Y126.054 E13.3729
G1 X121.097 Y126.056 E13.41607
G1 F2700 E8.41607
G0 F6000 X121.096 Y126.366
G0 X120.534 Y126.302
G0 X120.532 Y127.655
G0 X117.5 Y128.236
G1 F2700 E13.41607
G1 F1200 X156.055 Y128.236 E14.69841
G1 X156.264 Y128.191 E14.70552
G1 X156.406 Y128.061 E14.71193
G1 X156.488 Y127.877 E14.71863
G1 X156.488 Y107.118 E15.40907
G1 X156.409 Y106.939 E15.41558
G1 X156.264 Y106.804 E15.42217
G1 X156.055 Y106.76 E15.42927
G1 X78.942 Y106.76 E17.99406
G1 X78.735 Y106.805 E18.00111
G1 X78.59 Y106.936 E18.00761
G1 X78.508 Y107.119 E18.01428
G1 X78.508 Y127.805 E18.7023
G1 X78.556 Y128.012 E18.70936
G1 X78.688 Y128.157 E18.71589
G1 X78.87 Y128.236 E18.72249
G1 X117.5 Y128.236 E20.00732
G1 F2700 E15.00732
G0 F6000 X117.5 Y127.929
G0 X113.193 Y127.655
G0 X113.499 Y126.591
G0 X113.382 Y125.205
G1 F2700 E20.00732
G1 F932 X113.383 Y125.16 E20.00925
G1 F995.9 X113.416 Y124.937 E20.01829
G1 F1132.1 X113.441 Y123.782 E20.05902
G1 F1200 X113.442 Y122.846 E20.09015
G1 F1081.1 X113.399 Y121.687 E20.13297
G1 F987.7 X113.362 Y121.52 E20.13988
G1 F1034.5 X112.342 Y122.466 E20.19355
G1 F1140.1 X112.159 Y122.461 E20.19996
G1 F1200 X111.932 Y122.221 E20.21095
G1 X111.737 Y122.114 E20.21835
G1 X111.492 Y122.038 E20.22688
G1 X111.247 Y122.013 E20.23507
G1 X110.988 Y122.038 E20.24372
G1 X110.744 Y122.113 E20.25221
G1 X110.356 Y122.385 E20.26797
G1 X110.101 Y122.803 E20.28426
G1 X110.03 Y123.07 E20.29345
G1 X110.009 Y123.337 E20.30236
G1 X110.031 Y123.623 E20.3119
G1 X110.102 Y123.899 E20.32138
G1 X110.345 Y124.307 E20.33717
G1 X110.527 Y124.466 E20.34521
G1 X110.729 Y124.574 E20.35283
G1 X110.98 Y124.65 E20.36155
G1 X111.224 Y124.674 E20.3697
G1 X111.503 Y124.647 E20.37903
G1 X111.765 Y124.552 E20.3883
G1 X111.957 Y124.426 E20.39593
G1 X112.184 Y124.18 E20.40707
G1 F1165 X112.367 Y124.173 E20.41334
G1 F1100.9 X113.278 Y124.996 E20.45785
G1 F995.9 X113.383 Y125.16 E20.46565
G1 F2700 E15.46565
G0 F6000 X113.194 Y124.607
G0 X112.47 Y126.146
G0 X111.175 Y126.184
G1 F2700 E20.46565
G1 F1200 X110.88 Y126.171 E20.47548
G1 X110.588 Y126.135 E20.48526
G1 X110.31 Y126.067 E20.49478
G1 X110.05 Y125.983 E20.50387
G1 X109.783 Y125.864 E20.51359
G1 X109.446 Y125.673 E20.52647
G1 X109.116 Y125.392 E20.54089
G1 X108.932 Y125.189 E20.55
G1 X108.715 Y124.9 E20.56202
G1 X108.506 Y124.478 E20.57769
G1 F1194 X108.412 Y124.206 E20.58731
G1 F1153.8 X108.329 Y123.925 E20.59744
G1 F1159.4 X108.292 Y123.352 E20.61721
G1 F1188.1 X108.305 Y123.027 E20.62813
G1 F1153.8 X108.329 Y122.762 E20.63734
G1 F1162.2 X108.417 Y122.457 E20.64824
G1 F1197 X108.56 Y122.06 E20.66231
