;FLAVOR:Marlin
;TIME:4477
;Filament used: 2.78615m
;Layer height: 0.12
;MINX:76.186
;MINY:87.4
;MINZ:0.2
;MAXX:157.948
;MAXY:147.6
;MAXZ:8
;TARGET_MACHINE.NAME:Creality Ender-3
;Generated with Cura_SteamEngine 5.11.0
M140 S60
M105
M190 S60
M104 S200
M105
M109 S200
; Ender 3 Custom Start G-code
G92 E0 ; Reset Extruder
G28 ; Home all axes
G1 Z2.0 F3000 ; Move Z Axis up little to prevent scratching of Heat Bed
G1 X0.1 Y20 Z0.3 F5000.0 ; Move to start position
G1 X0.1 Y200.0 Z0.3 F1500.0 E15 ; Draw the first line
G1 X0.4 Y200.0 Z0.3 F5000.0 ; Move to side a little
G1 X0.4 Y20 Z0.3 F1500.0 E30 ; Draw the second line
G92 E0 ; Reset Extruder
G1 Z2.0 F3000 ; Move Z Axis up little to prevent scratching of Heat Bed
G1 X5 Y20 Z0.3 F5000.0 ; Move over to prevent blob squish
M82 ;absolute extrusion mode
G92 E0
G92 E0
G1 F2700 E-5
;LAYER_COUNT:66
;LAYER:0
M107
;MESH:Bottom.stl
G0 F6000 X147.442 Y94.587 Z0.2
;TYPE:WALL-INNER
G1 F2700 E0
G1 F1318.7 X147.448 Y94.586 E0.00018
G1 X147.586 Y94.586 E0.00436
G0 F6000 X147.448 Y94.586
G1 F1318.7 X147.442 Y94.587 E0.00455
G0 F6000 X147.41 Y94.968
;TYPE:WALL-OUTER
G1 F1200 X147.968 Y94.968 E0.0231
G1 X147.968 Y94.204 E0.04851
G1 X147.388 Y94.204 E0.06781
G1 X147.114 Y94.294 E0.0774
G1 X146.97 Y94.421 E0.08378
G1 X146.937 Y94.704 E0.09326
G1 X147.023 Y94.841 E0.09864
G1 X147.183 Y94.928 E0.1047
G1 X147.41 Y94.968 E0.11236
G1 F2700 E-4.88764
G0 F6000 X147.441 Y94.662
G0 X147.74 Y94.657
G0 X151.728 Y94.635
G0 X151.994 Y94.964
G1 F2700 E0.11236
G1 F1200 X151.741 Y94.923 E0.12089
G1 X151.581 Y94.838 E0.12691
G1 X151.497 Y94.695 E0.13243
G1 X151.5 Y94.498 E0.13898
G1 X151.584 Y94.347 E0.14473
G1 X151.759 Y94.246 E0.15145
G1 X152.009 Y94.196 E0.15993
G1 X152.46 Y94.194 E0.17493
G1 X152.46 Y94.969 E0.20071
G1 X151.994 Y94.964 E0.21621
G1 F2700 E-4.78379
G0 F6000 X152.018 Y94.657
G0 X151.729 Y94.561
G0 X149.759 Y93.992
G0 X145.263 Y93.521
;TYPE:WALL-INNER
G1 F2700 E0.21621
G1 F1212.1 X145.386 Y93.352 E0.22309
G1 X145.711 Y93.035 E0.23804
G1 X145.263 Y92.3 E0.26638
G1 X145.263 Y93.521 E0.30659
G1 F2700 E-4.69341
G0 F6000 X145.114 Y94.113
G0 X145.105 Y96.583
G0 X140.867 Y96.583
G0 X140.512 Y95.991
G0 X140.188 Y96.274
G0 X139.422 Y96.616
G0 X138.603 Y96.723
G0 X138.09 Y96.676
G0 X137.593 Y96.541
G0 X136.644 Y96.583
G0 X132.407 Y96.583
G0 X132.37 Y94.718
G0 X140.995 Y93.62
G0 X140.818 Y93.62
G1 F2700 E0.30659
G1 F1162.2 X140.818 Y93.125 E0.32359
G1 F1148.3 X140.991 Y92.769 E0.33734
G1 X140.858 Y92.693 E0.34267
G1 F1162.2 X140.8 Y92.589 E0.34676
G1 X140.434 Y92.965 E0.36478
G1 X140.285 Y93.064 E0.37092
G1 X140.586 Y93.305 E0.38416
G1 X140.818 Y93.62 E0.3976
G1 F2700 E-4.6024
G0 F6000 X140.458 Y93.421
G0 X137.675 Y94.301
G0 X136.818 Y94.923
G1 F2700 E0.3976
G1 F1124.1 X137.358 Y94.349 E0.42558
G1 X137.158 Y94.218 E0.43407
G1 X136.816 Y93.914 E0.45031
G1 X136.818 Y94.923 E0.48614
G1 F2700 E-4.51386
G0 F6000 X137.006 Y94.395
G0 X136.623 Y95.417
G0 X136.616 Y95.907
G0 X123.764 Y96.88
G1 F2700 E0.48614
G1 F1200 X123.195 Y96.813 E0.50519
G1 X122.921 Y96.748 E0.51456
G1 X122.612 Y96.652 E0.52532
G1 X122.197 Y96.469 E0.54041
G1 X121.979 Y96.324 E0.54911
G1 X121.876 Y96.54 E0.55707
G1 X121.71 Y96.672 E0.56413
G1 X121.485 Y96.742 E0.57197
G1 X118.004 Y96.741 E0.68774
G1 X117.871 Y96.713 E0.69226
G1 X117.614 Y96.542 E0.70253
G1 X117.521 Y96.401 E0.70815
G1 X117.465 Y96.191 E0.71538
G1 X117.464 Y95.021 E0.75429
G1 X117.612 Y94.723 E0.76536
G1 X117.852 Y94.614 E0.77413
G1 X117.647 Y94.449 E0.78288
G1 X117.584 Y94.269 E0.78922
G1 X117.584 Y93.073 E0.829
G1 X117.857 Y92.743 E0.84325
G1 X117.497 Y92.585 E0.85632
G1 X117.418 Y92.48 E0.86069
G1 X117.339 Y92.239 E0.86913
G1 X117.34 Y91.032 E0.90927
G1 X117.441 Y90.804 E0.91757
G1 X117.64 Y90.621 E0.92656
G1 X117.854 Y90.544 E0.93412
G1 X121.424 Y90.544 E1.05286
G1 X121.746 Y90.637 E1.06401
G1 X121.906 Y90.786 E1.07128
G1 X122 Y90.978 E1.07839
G1 X122.245 Y90.824 E1.08802
G1 X122.504 Y90.685 E1.09779
G1 X122.882 Y90.55 E1.11114
G1 X123.233 Y90.465 E1.12315
G1 X123.559 Y90.424 E1.13408
G1 X123.906 Y90.412 E1.14563
G1 X124.231 Y90.428 E1.15645
G1 X124.57 Y90.472 E1.16782
G1 X124.834 Y90.536 E1.17686
G1 X125.129 Y90.626 E1.18712
G1 X125.632 Y90.846 E1.20538
G1 X125.967 Y91.091 E1.21918
G1 X126.243 Y91.33 E1.23132
G1 X126.454 Y91.564 E1.2418
G1 X126.772 Y91.994 E1.25959
G1 X126.778 Y91.057 E1.29076
G1 X126.924 Y90.744 E1.30224
G1 X127.282 Y90.544 E1.31588
G1 X128.74 Y90.544 E1.36438
G1 X129.182 Y90.716 E1.38015
G1 X130.158 Y92.304 E1.44215
G1 X130.148 Y91.15 E1.48053
G1 X130.237 Y90.829 E1.49161
G1 X130.34 Y90.703 E1.49702
G1 X130.66 Y90.544 E1.50891
G1 X131.92 Y90.544 E1.55081
G1 X132.243 Y90.637 E1.56199
G1 X132.318 Y90.775 E1.56722
G1 X132.393 Y90.637 E1.57244
G1 X132.716 Y90.544 E1.58362
G1 X136.204 Y90.544 E1.69963
G1 X136.58 Y90.676 E1.71289
G1 X136.755 Y90.906 E1.7225
G1 X136.805 Y91.347 E1.73726
G1 X137.217 Y90.942 E1.75648
G1 X137.615 Y90.693 E1.77209
G1 X138.076 Y90.529 E1.78837
G1 X138.456 Y90.448 E1.80129
G1 X138.954 Y90.416 E1.81789
G1 X139.21 Y90.432 E1.82642
G1 X139.656 Y90.481 E1.84134
G1 X140.202 Y90.652 E1.86037
G1 X140.67 Y90.865 E1.87747
G1 X140.736 Y90.735 E1.88232
G1 X140.883 Y90.619 E1.88855
G1 X141.095 Y90.544 E1.89603
G1 X144.664 Y90.544 E2.01473
G1 X144.948 Y90.615 E2.02447
G1 X145.06 Y90.724 E2.02967
G1 X145.172 Y90.615 E2.03487
G1 X145.375 Y90.544 E2.04202
G1 X146.672 Y90.544 E2.08516
G1 X146.994 Y90.637 E2.09631
G1 X147.2 Y90.857 E2.10633
G1 X147.56 Y91.521 E2.13145
G1 X147.56 Y91.144 E2.14399
G1 X147.632 Y90.857 E2.15383
G1 X147.838 Y90.637 E2.16386
G1 X148.077 Y90.544 E2.17239
G1 X149.348 Y90.544 E2.21466
G1 X149.7 Y90.657 E2.22696
G1 X149.896 Y90.897 E2.23726
G1 X149.948 Y91.144 E2.24566
G1 X149.949 Y93.21 E2.31437
G1 X150.337 Y92.885 E2.33121
G1 X150.754 Y92.658 E2.347
G1 X151.204 Y92.524 E2.36261
G1 X151.66 Y92.444 E2.37801
G1 X152.06 Y92.433 E2.39132
G1 X152.06 Y91.054 E2.43719
G1 X152.112 Y90.897 E2.44269
G1 X152.308 Y90.657 E2.45299
G1 X152.575 Y90.544 E2.46264
G1 X153.868 Y90.544 E2.50564
G1 X154.152 Y90.615 E2.51538
G1 X154.35 Y90.786 E2.52408
G1 X154.468 Y91.144 E2.53662
G1 X154.468 Y96.225 E2.70561
G1 X154.398 Y96.427 E2.71272
G1 X154.229 Y96.625 E2.72138
G1 X153.991 Y96.744 E2.73023
G1 X152.01 Y96.744 E2.79612
G1 X151.538 Y96.716 E2.81185
G1 X151.136 Y96.646 E2.82542
G1 X150.721 Y96.518 E2.83986
G1 X150.306 Y96.299 E2.85547
G1 X149.948 Y95.988 E2.87124
G1 X149.914 Y96.344 E2.88314
G1 X149.747 Y96.594 E2.89314
G1 X149.575 Y96.7 E2.89986
G1 X149.372 Y96.744 E2.90677
G1 X147.414 Y96.744 E2.97189
G1 X146.986 Y96.716 E2.98615
G1 X146.612 Y96.651 E2.99878
G1 X146.208 Y96.534 E3.01277
G1 X145.8 Y96.328 E3.02797
G1 X145.47 Y96.055 E3.04222
G1 X145.264 Y95.786 E3.05349
G1 X145.263 Y96.182 E3.06666
G1 X145.14 Y96.51 E3.07831
G1 X144.939 Y96.678 E3.08702
G1 X144.718 Y96.742 E3.09467
G1 X141.232 Y96.74 E3.21062
G1 X140.969 Y96.642 E3.21995
G1 X140.779 Y96.435 E3.2293
G1 X140.705 Y96.186 E3.23794
G1 X140.704 Y96.015 E3.24363
G1 X140.277 Y96.4 E3.26275
G1 X139.867 Y96.621 E3.27824
G1 X139.47 Y96.757 E3.2922
G1 X139.06 Y96.84 E3.30611
G1 X138.612 Y96.872 E3.32105
G1 X138.026 Y96.816 E3.34063
G1 X137.548 Y96.684 E3.35712
G1 X137.076 Y96.469 E3.37437
G1 X136.773 Y96.258 E3.38665
G1 X136.718 Y96.455 E3.39346
G1 X136.476 Y96.68 E3.40445
G1 X136.28 Y96.74 E3.41126
G1 X132.779 Y96.741 E3.52771
G1 X132.517 Y96.648 E3.53695
G1 X132.382 Y96.422 E3.54571
G1 X132.247 Y96.648 E3.55447
G1 X131.959 Y96.743 E3.56455
G1 X130.456 Y96.739 E3.61454
G1 X130.195 Y96.636 E3.62387
G1 X130.028 Y96.459 E3.63197
G1 X129.132 Y94.998 E3.68897
G1 X129.14 Y96.14 E3.72696
G1 X129.052 Y96.459 E3.73796
G1 X128.885 Y96.636 E3.74606
G1 X128.624 Y96.739 E3.75539
G1 X127.318 Y96.742 E3.79883
G1 X127.064 Y96.66 E3.8077
G1 X126.865 Y96.466 E3.81695
G1 X126.772 Y96.231 E3.82535
G1 X126.772 Y95.267 E3.85742
G1 X126.553 Y95.626 E3.8714
G1 X126.169 Y96.029 E3.88992
G1 X125.785 Y96.339 E3.90633
G1 X125.422 Y96.535 E3.92005
G1 X125.13 Y96.658 E3.93059
G1 X124.808 Y96.756 E3.94179
G1 X124.504 Y96.828 E3.95218
G1 X124.162 Y96.864 E3.96361
G1 X123.764 Y96.88 E3.97686
G1 F2700 E-1.02314
G0 F6000 X122.967 Y96.564
G0 X121.842 Y95.103
G0 X122.025 Y94.659
G1 F2700 E3.97686
G1 F1200 X122.383 Y94.299 E3.99375
G1 X122.643 Y94.147 E4.00377
G1 X122.996 Y94.154 E4.01551
G1 X123.218 Y94.285 E4.02408
G1 X123.376 Y94.448 E4.03163
G1 X123.653 Y94.564 E4.04162
G1 X123.995 Y94.564 E4.053
G1 X124.299 Y94.435 E4.06398
G1 X124.514 Y94.203 E4.0745
G1 X124.589 Y94.045 E4.08032
G1 X124.657 Y93.647 E4.09375
G1 X124.587 Y93.24 E4.10748
G1 X124.416 Y92.951 E4.11865
G1 X124.179 Y92.787 E4.12824
G1 X123.845 Y92.72 E4.13957
G1 X123.652 Y92.741 E4.14602
G1 X123.365 Y92.88 E4.15663
G1 X123.202 Y93.056 E4.16461
G1 X122.983 Y93.193 E4.1732
G1 X122.63 Y93.21 E4.18496
G1 X122.368 Y93.065 E4.19492
G1 X122.024 Y92.741 E4.21063
G1 X122.025 Y94.659 E4.27443
G1 F2700 E-0.72557
G0 F6000 X122.816 Y94.102
G0 X123.065 Y94.357
G0 X124.526 Y94.44
G0 X113.937 Y96.593
G0 X113.878 Y96.744
G1 F2700 E4.27443
G1 F1200 X112.636 Y96.741 E4.31573
G1 X112.341 Y96.623 E4.3263
G1 X112.192 Y96.458 E4.3337
G1 X112.106 Y96.198 E4.3428
G1 X112.104 Y91.144 E4.5109
G1 X112.15 Y90.912 E4.51877
G1 X112.344 Y90.663 E4.52927
G1 X112.618 Y90.544 E4.5392
G1 X113.888 Y90.544 E4.58144
G1 X114.184 Y90.621 E4.59162
G1 X114.383 Y90.804 E4.60061
G1 X114.484 Y91.032 E4.6089
G1 X114.488 Y93.611 E4.69468
G1 X114.91 Y93.502 E4.70918
G1 X115.145 Y93.591 E4.71753
G1 X115.305 Y93.74 E4.72481
G1 X115.952 Y94.629 E4.76138
G1 X116.033 Y94.874 E4.76996
G1 X116.028 Y95.04 E4.77548
G1 X115.827 Y95.392 E4.78896
G1 X114.095 Y96.66 E4.86036
G1 X113.878 Y96.744 E4.8681
G1 F2700 E-0.1319
G0 F6000 X113.904 Y109.612
G0 X117.5 Y109.812
G1 F2700 E4.8681
G1 F1200 X156.164 Y109.812 E6.15407
G1 X156.16 Y89.184 E6.84016
G1 X78.837 Y89.181 E9.41193
G1 X78.836 Y109.812 E10.09812
G1 X117.5 Y109.812 E11.38409
G1 F2700 E6.38409
G0 F6000 X86.04 Y109.612
G0 X86.041 Y111.078
G0 X78.613 Y111.078
G0 X78.102 Y110.851
G0 X77.687 Y110.402
G0 X77.572 Y109.87
G0 X77.572 Y89.125
G0 X77.682 Y88.651
G0 X77.942 Y88.292
G0 X78.271 Y88.053
G0 X78.591 Y87.942
G0 X86.053 Y87.915
G0 X86.04 Y94.299
G1 F2700 E11.38409
G1 F1200 X85.052 Y94.295 E11.41695
G1 X84.834 Y94.219 E11.42463
G1 X84.574 Y93.906 E11.43816
G1 X84.314 Y94.219 E11.4517
G1 X84.066 Y94.298 E11.46035
G1 X80.848 Y94.3 E11.56739
G1 X80.617 Y94.254 E11.57522
G1 X80.367 Y94.06 E11.58574
G1 X80.248 Y93.783 E11.59577
G1 X80.248 Y93.184 E11.61569
G1 X80.324 Y92.891 E11.62576
G1 X80.503 Y92.692 E11.63466
G1 X80.848 Y92.584 E11.64669
G1 X80.956 Y92.584 E11.65028
G1 X80.956 Y91.2 E11.69631
G1 X81.029 Y90.911 E11.70623
G1 X81.229 Y90.696 E11.71599
G1 X81.475 Y90.6 E11.72478
G1 X82.16 Y90.6 E11.74756
G1 X82.377 Y90.64 E11.7549
G1 X82.528 Y90.726 E11.76068
G1 X82.65 Y90.975 E11.7699
G1 X82.772 Y90.726 E11.77912
G1 X83.069 Y90.6 E11.78985
G1 X83.728 Y90.6 E11.81177
G1 X83.979 Y90.654 E11.82031
G1 X84.052 Y90.734 E11.82391
G1 X84.125 Y90.654 E11.82752
G1 X84.301 Y90.6 E11.83364
G1 X84.8 Y90.6 E11.85024
G1 X85.045 Y90.652 E11.85857
G1 X85.114 Y90.726 E11.86193
G1 X85.183 Y90.652 E11.8653
G1 X85.354 Y90.6 E11.87124
G1 X85.996 Y90.6 E11.89259
G1 X86.356 Y90.719 E11.9052
G1 X86.55 Y90.968 E11.9157
G1 X86.596 Y91.2 E11.92357
G1 X86.59 Y93.789 E12.00968
G1 X86.529 Y93.977 E12.01625
G1 X86.419 Y94.126 E12.02241
G1 X86.253 Y94.243 E12.02917
G1 X86.04 Y94.299 E12.03649
G0 F6000 X86.03 Y93.898
;TYPE:WALL-OUTER
G1 F1200 X85.056 Y93.898 E12.06889
G1 X84.948 Y93.768 E12.07451
G1 X84.563 Y92.701 E12.11224
G1 X84.2 Y93.768 E12.14973
G1 X84.113 Y93.873 E12.15426
G1 X84.03 Y93.9 E12.15716
G1 X80.79 Y93.9 E12.26493
G1 X80.687 Y93.82 E12.26926
G1 X80.651 Y93.735 E12.27233
G1 X80.648 Y93.114 E12.29299
G1 X80.733 Y93.02 E12.2972
G1 X80.848 Y92.984 E12.30121
G1 X81.356 Y92.984 E12.31811
G1 X81.356 Y91.12 E12.38011
G1 X81.521 Y91.003 E12.38683
G1 X82.21 Y91 E12.40975
G1 F1078.7 X82.405 Y91.2 E12.42008
G1 F979.6 X82.405 Y92.939 E12.49094
G1 X82.895 Y92.939 E12.5109
G1 X82.895 Y91.2 E12.58176
G1 F1078.7 X83.017 Y91.042 E12.58914
G1 F1200 X83.105 Y91.003 E12.59234
G1 X83.795 Y91 E12.61529
G1 X83.928 Y91.144 E12.62181
G1 X83.928 Y91.841 E12.645
G1 X84.188 Y91.131 E12.67014
G1 X84.306 Y91.003 E12.67593
G1 X84.871 Y91.005 E12.69473
G1 X84.989 Y91.131 E12.70047
G1 X85.233 Y91.804 E12.72428
G1 X85.228 Y91.143 E12.74626
G1 X85.362 Y91 E12.75278
G1 X85.996 Y91 E12.77387
G1 X86.116 Y91.039 E12.77806
G1 X86.196 Y91.141 E12.78238
G1 X86.194 Y93.73 E12.86849
G1 X86.148 Y93.831 E12.87218
G1 X86.03 Y93.898 E12.87669
G1 F2700 E7.87669
G0 F6000 X86.03 Y94.21
G0 X86.69 Y94.06
G0 X114.179 Y96.797
G0 X113.859 Y96.341
G1 F2700 E12.87669
G1 F1200 X112.652 Y96.343 E12.91684
G1 X112.554 Y96.278 E12.92075
G1 X112.504 Y96.162 E12.92495
G1 X112.504 Y91.085 E13.09381
G1 X112.584 Y90.983 E13.09812
G1 X112.669 Y90.946 E13.10121
G1 X113.968 Y90.944 E13.14441
G1 X114.083 Y91.097 E13.15078
G1 X114.089 Y94.405 E13.2608
G1 X114.698 Y93.937 E13.28635
G1 X114.85 Y93.898 E13.29157
G1 X114.951 Y93.935 E13.29514
G1 X115.608 Y94.833 E13.33215
G1 X115.634 Y94.971 E13.33682
G1 X115.567 Y95.088 E13.34131
G1 X113.859 Y96.341 E13.41176
G1 F2700 E8.41176
G0 F6000 X114.043 Y96.592
G0 X115.943 Y95.531
G0 X117.265 Y95.529
G0 X121.708 Y95.593
G1 F2700 E13.41176
G1 F848.1 X121.706 Y95.544 E13.41407
G1 F932 X121.823 Y95.379 E13.42273
G1 F1066.7 X122.721 Y94.53 E13.46897
G1 F1153.8 X122.905 Y94.535 E13.47534
G1 F1200 X123.128 Y94.768 E13.48607
G1 X123.332 Y94.883 E13.49386
G1 X123.573 Y94.958 E13.50225
G1 X123.817 Y94.983 E13.51041
G1 X124.075 Y94.958 E13.51903
G1 X124.324 Y94.879 E13.52772
G1 X124.531 Y94.763 E13.53561
G1 X124.856 Y94.414 E13.55147
G1 X124.967 Y94.183 E13.56
G1 X125.034 Y93.925 E13.56886
G1 X125.059 Y93.65 E13.57805
G1 X125.038 Y93.371 E13.58735
G1 X124.963 Y93.099 E13.59674
G1 X124.712 Y92.677 E13.61307
G1 X124.337 Y92.417 E13.62824
G1 X124.088 Y92.342 E13.63689
G1 X123.842 Y92.318 E13.64511
G1 X123.562 Y92.349 E13.65448
G1 X123.303 Y92.441 E13.66363
G1 X123.103 Y92.574 E13.67161
G1 X122.88 Y92.816 E13.68256
G1 F1153.8 X122.697 Y92.823 E13.68889
G1 F1071.4 X121.78 Y92.006 E13.73464
G1 F971.7 X121.683 Y91.88 E13.74118
G1 X121.656 Y92.059 E13.74861
G1 F1111.1 X121.624 Y93.213 E13.79008
G1 F1200 X121.625 Y94.151 E13.82128
G1 F1108.5 X121.657 Y95.31 E13.86302
G1 F932 X121.706 Y95.544 E13.87326
G1 F2700 E8.87326
G0 F6000 X121.874 Y96.053
G0 X122.213 Y96.315
G0 X122.802 Y96.519
G0 X123.721 Y96.781
G0 X123.74 Y96.479
G1 F2700 E13.87326
G1 F1200 X123.286 Y96.423 E13.88848
G1 X123.024 Y96.362 E13.89742
G1 X122.75 Y96.276 E13.90697
G1 X122.319 Y96.08 E13.92272
G1 X122.043 Y95.871 E13.93424
G1 F1086 X121.823 Y95.72 E13.94404
G1 F991.7 X121.697 Y95.581 E13.95159
G1 F1086 X121.601 Y96.239 E13.97603
G1 F1200 X121.442 Y96.344 E13.98237
G1 X118.024 Y96.341 E14.09605
G1 X117.945 Y96.306 E14.09893
G1 X117.864 Y96.16 E14.10448
G1 X117.869 Y95.071 E14.1407
G1 X117.913 Y94.987 E14.14386
G1 F1095.9 X118.064 Y94.881 E14.15058
G1 F1012.7 X120.025 Y94.885 E14.22786
G1 F1021.3 X120.025 Y94.415 E14.24623
G1 F1012.7 X118.124 Y94.411 E14.32116
G1 F1095.9 X117.988 Y94.222 E14.32964
G1 F1200 X117.984 Y93.169 E14.36466
G1 F1039 X118.139 Y92.954 E14.37484
G1 F923.1 X120.001 Y92.953 E14.45535
G1 F926.6 X120.001 Y92.435 E14.47766
G1 F948.6 X117.971 Y92.437 E14.56307
G1 F1071.4 X117.789 Y92.313 E14.57128
G1 F1200 X117.737 Y92.197 E14.57551
G1 X117.741 Y91.097 E14.61209
G1 X117.771 Y91.03 E14.61453
G1 X117.901 Y90.946 E14.61968
G1 X121.424 Y90.944 E14.73686
G1 X121.532 Y90.975 E14.74059
G1 X121.617 Y91.09 E14.74535
G1 X121.625 Y91.368 E14.7546
G1 F1048 X121.682 Y91.836 E14.77256
G1 F991.7 X121.78 Y91.676 E14.78011
G1 F1126.8 X122.209 Y91.318 E14.7999
G1 F1200 X122.436 Y91.176 E14.8088
G1 X122.693 Y91.039 E14.81849
G1 X122.982 Y90.938 E14.82867
G1 X123.285 Y90.861 E14.83907
G1 X123.557 Y90.825 E14.8482
G1 X123.889 Y90.812 E14.85925
G1 X124.184 Y90.825 E14.86907
G1 X124.476 Y90.861 E14.87885
G1 X124.751 Y90.928 E14.88827
G1 X125.034 Y91.017 E14.89814
G1 X125.447 Y91.206 E14.91324
G1 X125.742 Y91.423 E14.92542
G1 X125.948 Y91.6 E14.93446
