;FLAVOR:Marlin
;TIME:1914
;Filament used: 1.09806m
;Layer height: 0.12
;MINX:77.124
;MINY:105.372
;MINZ:0.2
;MAXX:157.872
;MAXY:129.624
;MAXZ:7.64
;TARGET_MACHINE.NAME:Creality Ender-3
;Generated with Cura_SteamEngine 5.11.0
M140 S60
M105
M190 S60
M104 S200
M105
M109 S200
; Ender 3 Custom Start G-code
G92 E0 ; Reset Extruder
G28 ; Home all axes
G1 Z2.0 F3000 ; Move Z Axis up little to prevent scratching of Heat Bed
G1 X0.1 Y20 Z0.3 F5000.0 ; Move to start position
G1 X0.1 Y200.0 Z0.3 F1500.0 E15 ; Draw the first line
G1 X0.4 Y200.0 Z0.3 F5000.0 ; Move to side a little
G1 X0.4 Y20 Z0.3 F1500.0 E30 ; Draw the second line
G92 E0 ; Reset Extruder
G1 Z2.0 F3000 ; Move Z Axis up little to prevent scratching of Heat Bed
G1 X5 Y20 Z0.3 F5000.0 ; Move over to prevent blob squish
M82 ;absolute extrusion mode
G92 E0
G92 E0
G1 F2700 E-5
;LAYER_COUNT:63
;LAYER:0
M107
;MESH:Top.stl
G0 F6000 X117.5 Y127.84 Z0.2
;TYPE:WALL-INNER
G1 F2700 E0
G1 F1200 X156.088 Y127.843 E1.28344
G1 X156.088 Y107.16 E1.97136
G1 X78.908 Y107.16 E4.53838
G1 X78.904 Y127.836 E5.22607
G1 X117.5 Y127.84 E6.50977
G1 F2700 E1.50977
G0 F6000 X124.076 Y127.66
G0 X124.065 Y124.48
G0 X124.078 Y124.299
G1 F2700 E6.50977
G1 F1200 X123.756 Y124.275 E6.52051
G1 X123.492 Y124.227 E6.52944
G1 X123.174 Y124.135 E6.54045
G1 X122.805 Y123.969 E6.55391
G1 X122.504 Y123.784 E6.56566
G1 X122.243 Y123.573 E6.57682
G1 X122.059 Y123.389 E6.58547
G1 X121.797 Y123.057 E6.59954
G1 X121.634 Y122.779 E6.61026
G1 X121.518 Y122.527 E6.61949
G1 X121.416 Y122.202 E6.63082
G1 X121.351 Y121.884 E6.64161
G1 X121.325 Y121.555 E6.65259
G1 X121.324 Y113.26 E6.92848
G1 X121.397 Y112.863 E6.94191
G1 X121.514 Y112.482 E6.95516
G1 X121.655 Y112.175 E6.9664
G1 X121.799 Y111.939 E6.97559
G1 X122.047 Y111.619 E6.98906
G1 X122.235 Y111.431 E6.9979
G1 X122.499 Y111.217 E7.00921
G1 X122.784 Y111.039 E7.02038
G1 X123.168 Y110.866 E7.03439
G1 X123.482 Y110.773 E7.04528
G1 X123.815 Y110.717 E7.05651
G1 X124.075 Y110.701 E7.06518
G1 X126.157 Y110.7 E7.13442
G1 X126.501 Y110.723 E7.14589
G1 X126.822 Y110.789 E7.15679
G1 X127.074 Y110.865 E7.16555
G1 X127.449 Y111.031 E7.17919
G1 X127.743 Y111.215 E7.19072
G1 X128.001 Y111.423 E7.20174
G1 X128.189 Y111.611 E7.21059
G1 X128.445 Y111.936 E7.22435
G1 X128.612 Y112.217 E7.23522
G1 X128.728 Y112.465 E7.24433
G1 X128.832 Y112.794 E7.2558
G1 X128.897 Y113.112 E7.2666
G1 X128.923 Y113.442 E7.27761
G1 X128.924 Y121.736 E7.55347
G1 X128.851 Y122.133 E7.56689
G1 X128.734 Y122.514 E7.58015
G1 X128.595 Y122.817 E7.59124
G1 X128.409 Y123.119 E7.60303
G1 X128.201 Y123.377 E7.61406
G1 X128.013 Y123.565 E7.6229
G1 X127.749 Y123.779 E7.6342
G1 X127.396 Y123.993 E7.64793
G1 X127.144 Y124.105 E7.6571
G1 X126.765 Y124.223 E7.67031
G1 X126.443 Y124.279 E7.68118
G1 X126.136 Y124.3 E7.69141
G1 X124.078 Y124.299 E7.75986
G0 F6000 X124.103 Y123.9
;TYPE:WALL-OUTER
G1 F1200 X123.828 Y123.881 E7.76903
G1 X123.542 Y123.828 E7.7787
G1 X123.264 Y123.742 E7.78838
G1 X123.009 Y123.625 E7.79771
G1 X122.752 Y123.47 E7.8077
G1 X122.526 Y123.29 E7.81731
G1 X122.327 Y123.089 E7.82671
G1 X122.14 Y122.851 E7.83678
G1 X121.998 Y122.612 E7.84603
G1 X121.882 Y122.36 E7.85525
G1 X121.795 Y122.071 E7.86529
G1 X121.74 Y121.781 E7.87511
G1 X121.724 Y121.516 E7.88394
G1 X121.727 Y113.283 E8.15777
G1 X121.796 Y112.913 E8.17029
G1 X121.88 Y112.643 E8.17969
G1 X121.984 Y112.407 E8.18827
G1 X122.141 Y112.147 E8.19837
G1 X122.33 Y111.902 E8.20866
G1 X122.535 Y111.699 E8.21826
G1 X122.747 Y111.531 E8.22726
G1 X123.013 Y111.369 E8.23762
G1 X123.285 Y111.248 E8.24752
G1 X123.533 Y111.172 E8.25614
G1 X123.839 Y111.116 E8.26649
G1 X124.112 Y111.1 E8.27559
G1 X126.138 Y111.1 E8.34297
G1 X126.423 Y111.115 E8.35246
G1 X126.687 Y111.167 E8.36141
G1 X126.958 Y111.248 E8.37082
G1 X127.217 Y111.36 E8.38021
G1 X127.496 Y111.53 E8.39107
G1 X127.718 Y111.706 E8.40049
G1 X127.921 Y111.911 E8.41009
G1 X128.089 Y112.123 E8.41909
G1 X128.25 Y112.387 E8.42937
G1 X128.366 Y112.635 E8.43848
G1 X128.453 Y112.925 E8.44855
G1 X128.508 Y113.215 E8.45837
G1 X128.524 Y113.48 E8.4672
G1 X128.521 Y121.713 E8.74103
G1 X128.452 Y122.083 E8.75354
G1 X128.368 Y122.353 E8.76295
G1 X128.264 Y122.589 E8.77153
G1 X128.094 Y122.872 E8.78251
G1 X127.918 Y123.094 E8.79193
G1 X127.713 Y123.297 E8.80153
G1 X127.501 Y123.465 E8.81052
G1 X127.234 Y123.627 E8.82091
G1 X126.96 Y123.747 E8.83086
G1 X126.693 Y123.829 E8.84015
G1 X126.412 Y123.88 E8.84965
G1 X126.152 Y123.9 E8.85832
G1 X124.103 Y123.9 E8.92647
G1 F2700 E3.92647
G0 F6000 X124.085 Y124.207
G0 X122.712 Y124.124
G0 X122.71 Y127.659
G0 X117.5 Y128.239
G1 F2700 E8.92647
G1 F1200 X156.11 Y128.243 E10.21064
G1 X156.362 Y128.115 E10.22005
G1 X156.441 Y128.007 E10.2245
G1 X156.488 Y127.798 E10.23162
G1 X156.488 Y107.193 E10.91695
G1 X156.444 Y106.985 E10.92402
G1 X156.31 Y106.843 E10.93051
G1 X156.125 Y106.76 E10.93725
G1 X78.87 Y106.76 E13.50677
G1 X78.687 Y106.839 E13.5134
G1 X78.556 Y106.984 E13.5199
G1 X78.508 Y107.195 E13.52709
G1 X78.504 Y127.862 E14.21448
G1 X78.632 Y128.112 E14.22382
G1 X78.74 Y128.189 E14.22823
G1 X78.947 Y128.236 E14.23529
G1 X117.5 Y128.239 E15.51757
G1 F2700 E10.51757
G0 F6000 X117.501 Y127.932
G0 X123.894 Y127.66
G0 X124.065 Y124.48
G0 X123.879 Y124.654
;TYPE:SKIN
G1 F2700 E15.51757
G1 F1200 X126.208 Y124.656 E15.59503
G1 X126.472 Y124.636 E15.60384
G1 X126.822 Y124.578 E15.61564
G1 X127.178 Y124.472 E15.62799
G1 X127.616 Y124.289 E15.64378
G1 X127.98 Y124.055 E15.65817
G1 X128.252 Y123.831 E15.66989
G1 X128.512 Y123.564 E15.68229
G1 X128.747 Y123.258 E15.69512
G1 X129.032 Y122.756 E15.71432
G1 X129.2 Y122.211 E15.73329
G1 X129.281 Y121.785 E15.74771
G1 X129.277 Y113.227 E16.03235
G1 X129.157 Y112.583 E16.05414
G1 X128.924 Y112.036 E16.07392
G1 X128.752 Y111.752 E16.08496
G1 X128.458 Y111.373 E16.10091
G1 X128.241 Y111.151 E16.11124
G1 X127.969 Y110.935 E16.12279
G1 X127.592 Y110.695 E16.13766
G1 X127.19 Y110.523 E16.1522
G1 X126.93 Y110.444 E16.16124
G1 X126.525 Y110.36 E16.17499
G1 X126.125 Y110.34 E16.18831
G1 X123.866 Y110.342 E16.26345
G1 X123.389 Y110.424 E16.27955
G1 X122.969 Y110.552 E16.29415
G1 X122.59 Y110.733 E16.30812
G1 X122.37 Y110.869 E16.31672
G1 X122.067 Y111.095 E16.32929
G1 X121.795 Y111.361 E16.34195
G1 X121.549 Y111.661 E16.35485
G1 X121.349 Y111.983 E16.36746
G1 X121.186 Y112.327 E16.38012
G1 X121.044 Y112.781 E16.39594
G1 X120.964 Y113.248 E16.4117
G1 X120.967 Y121.765 E16.69498
G1 X121.063 Y122.285 E16.71256
G1 X121.152 Y122.593 E16.72323
G1 X121.343 Y123.002 E16.73824
G1 X121.551 Y123.332 E16.75122
G1 X121.784 Y123.622 E16.76359
G1 X122.061 Y123.889 E16.77638
G1 X122.297 Y124.078 E16.78644
G1 X122.609 Y124.274 E16.7987
G1 X123.024 Y124.465 E16.81389
G1 X123.4 Y124.573 E16.8269
G1 X123.879 Y124.654 E16.84306
G1 F2700 E11.84306
G0 F6000 X123.896 Y124.389
G0 X122.712 Y124.124
G0 X122.71 Y127.659
G0 X117.5 Y127.478
G1 F2700 E16.84306
G1 F1200 X79.265 Y127.476 E18.11476
G1 X79.268 Y107.52 E18.7785
G1 X155.728 Y107.52 E21.32157
G1 X155.728 Y127.48 E21.98544
G1 X117.5 Y127.478 E23.25691
G1 F2700 E18.25691
G0 F6000 X117.499 Y127.739
G0 X79.077 Y127.664
G0 X79.006 Y126.982
G0 X79.465 Y126.983
G1 F2700 E23.25691
G1 F1200 X79.758 Y127.276 E23.27069
G0 F6000 X80.324 Y127.276
G1 F1200 X79.465 Y126.417 E23.3111
G0 F6000 X79.465 Y125.852
G1 F1200 X80.889 Y127.276 E23.37808
G0 F6000 X81.455 Y127.276
G1 F1200 X79.465 Y125.286 E23.47168
G0 F6000 X79.465 Y124.72
G1 F1200 X82.021 Y127.276 E23.59191
G0 F6000 X82.587 Y127.276
G1 F1200 X79.465 Y124.155 E23.73873
G0 F6000 X79.465 Y123.589
G1 F1200 X83.152 Y127.276 E23.91216
G0 F6000 X83.718 Y127.276
G1 F1200 X79.465 Y123.023 E24.11221
G0 F6000 X79.465 Y122.457
G1 F1200 X84.284 Y127.276 E24.33888
G0 F6000 X84.849 Y127.276
G1 F1200 X79.466 Y121.892 E24.5921
G0 F6000 X79.466 Y121.327
G1 F1200 X85.415 Y127.276 E24.87192
G0 F6000 X85.981 Y127.276
G1 F1200 X79.466 Y120.761 E25.17837
G0 F6000 X79.466 Y120.195
G1 F1200 X86.546 Y127.276 E25.51141
G0 F6000 X87.112 Y127.276
G1 F1200 X79.466 Y119.63 E25.87106
G0 F6000 X79.466 Y119.064
G1 F1200 X87.678 Y127.276 E26.25733
G0 F6000 X88.243 Y127.276
G1 F1200 X79.466 Y118.498 E26.67019
G0 F6000 X79.466 Y117.933
G1 F1200 X88.809 Y127.276 E27.10966
G0 F6000 X89.375 Y127.276
G1 F1200 X79.467 Y117.368 E27.5757
G0 F6000 X79.467 Y116.802
G1 F1200 X89.94 Y127.276 E28.06834
G0 F6000 X90.506 Y127.276
G1 F1200 X79.467 Y116.236 E28.58761
G0 F6000 X79.467 Y115.671
G1 F1200 X91.072 Y127.276 E29.13347
G0 F6000 X91.638 Y127.276
G1 F1200 X79.467 Y115.105 E29.70596
G0 F6000 X79.467 Y114.539
G1 F1200 X92.204 Y127.276 E30.30507
G0 F6000 X92.77 Y127.276
G1 F1200 X79.467 Y113.974 E30.93078
G0 F6000 X79.467 Y113.408
G1 F1200 X93.335 Y127.276 E31.58308
G0 F6000 X93.901 Y127.276
G1 F1200 X79.467 Y112.842 E32.26201
G0 F6000 X79.467 Y112.277
G1 F1200 X94.467 Y127.276 E32.96755
G0 F6000 X95.032 Y127.276
G1 F1200 X79.467 Y111.712 E33.69965
G0 F6000 X79.467 Y111.146
G1 F1200 X95.598 Y127.276 E34.45838
G0 F6000 X96.164 Y127.276
G1 F1200 X79.467 Y110.58 E35.24373
G0 F6000 X79.467 Y110.015
G1 F1200 X96.729 Y127.276 E36.05566
G0 F6000 X97.295 Y127.276
G1 F1200 X79.467 Y109.449 E36.89421
G0 F6000 X79.467 Y108.883
G1 F1200 X97.861 Y127.276 E37.75939
G0 F6000 X98.426 Y127.276
G1 F1200 X79.467 Y108.317 E38.65116
G0 F6000 X79.467 Y107.752
G1 F1200 X98.992 Y127.276 E39.56953
G0 F6000 X99.558 Y127.276
G1 F1200 X80.001 Y107.72 E40.48941
G0 F6000 X80.567 Y107.72
G1 F1200 X100.123 Y127.276 E41.40926
G0 F6000 X100.689 Y127.276
G1 F1200 X81.133 Y107.72 E42.32912
G0 F6000 X81.698 Y107.72
G1 F1200 X101.255 Y127.276 E43.249
G0 F6000 X101.821 Y127.276
G1 F1200 X82.264 Y107.72 E44.16887
G0 F6000 X82.83 Y107.72
G1 F1200 X102.386 Y127.276 E45.08873
G0 F6000 X102.952 Y127.276
G1 F1200 X83.395 Y107.72 E46.00861
G0 F6000 X83.961 Y107.72
G1 F1200 X103.518 Y127.276 E46.92848
G0 F6000 X104.083 Y127.276
G1 F1200 X84.527 Y107.72 E47.84834
G0 F6000 X85.093 Y107.72
G1 F1200 X104.649 Y127.276 E48.76819
G0 F6000 X105.215 Y127.277
G1 F1200 X85.658 Y107.72 E49.68809
G0 F6000 X86.224 Y107.72
G1 F1200 X105.781 Y127.277 E50.60799
G0 F6000 X106.347 Y127.277
G1 F1200 X86.79 Y107.72 E51.5279
G0 F6000 X87.355 Y107.72
G1 F1200 X106.912 Y127.277 E52.4478
G0 F6000 X107.478 Y127.277
G1 F1200 X87.921 Y107.72 E53.3677
G0 F6000 X88.487 Y107.72
G1 F1200 X108.044 Y127.277 E54.2876
G0 F6000 X108.609 Y127.277
G1 F1200 X89.052 Y107.72 E55.2075
G0 F6000 X89.618 Y107.72
G1 F1200 X109.175 Y127.277 E56.1274
G0 F6000 X109.741 Y127.277
G1 F1200 X90.184 Y107.72 E57.0473
G0 F6000 X90.749 Y107.72
G1 F1200 X110.307 Y127.277 E57.96723
G0 F6000 X110.872 Y127.277
G1 F1200 X91.315 Y107.72 E58.88713
G0 F6000 X91.881 Y107.72
G1 F1200 X111.438 Y127.277 E59.80703
G0 F6000 X112.004 Y127.277
G1 F1200 X92.446 Y107.72 E60.72696
G0 F6000 X93.012 Y107.72
G1 F1200 X112.569 Y127.277 E61.64686
G0 F6000 X113.135 Y127.277
G1 F1200 X93.578 Y107.72 E62.56676
G0 F6000 X94.143 Y107.72
G1 F1200 X113.701 Y127.277 E63.48668
G0 F6000 X114.266 Y127.277
G1 F1200 X94.709 Y107.72 E64.40658
G0 F6000 X95.275 Y107.72
G1 F1200 X114.832 Y127.277 E65.32649
G0 F6000 X115.398 Y127.277
G1 F1200 X95.841 Y107.72 E66.24639
G0 F6000 X96.406 Y107.72
G1 F1200 X115.963 Y127.277 E67.16629
G0 F6000 X116.529 Y127.277
G1 F1200 X96.972 Y107.72 E68.08619
G0 F6000 X97.538 Y107.72
G1 F1200 X117.095 Y127.277 E69.00609
G0 F6000 X117.661 Y127.278
G1 F1200 X98.103 Y107.72 E69.92604
G0 F6000 X98.669 Y107.72
G1 F1200 X118.227 Y127.278 E70.84599
G0 F6000 X118.793 Y127.278
G1 F1200 X99.235 Y107.72 E71.76594
G0 F6000 X99.8 Y107.72
G1 F1200 X119.358 Y127.278 E72.68589
G0 F6000 X119.924 Y127.278
G1 F1200 X100.366 Y107.72 E73.60583
G0 F6000 X100.932 Y107.72
G1 F1200 X120.49 Y127.278 E74.52578
G0 F6000 X121.055 Y127.278
G1 F1200 X101.497 Y107.72 E75.44573
G0 F6000 X102.063 Y107.72
G1 F1200 X121.621 Y127.278 E76.36568
G0 F6000 X122.187 Y127.278
G1 F1200 X102.629 Y107.72 E77.28563
G0 F6000 X103.194 Y107.72
G1 F1200 X122.752 Y127.278 E78.20558
G0 F6000 X123.318 Y127.278
G1 F1200 X103.76 Y107.72 E79.12552
G0 F6000 X104.326 Y107.72
G1 F1200 X123.884 Y127.278 E80.04547
G0 F6000 X124.449 Y127.278
G1 F1200 X104.892 Y107.72 E80.9654
G0 F6000 X105.457 Y107.72
G1 F1200 X125.015 Y127.278 E81.88535
G0 F6000 X125.581 Y127.278
G1 F1200 X122.951 Y124.648 E82.00905
G0 F6000 X123.693 Y124.825
G1 F1200 X126.146 Y127.278 E82.12443
G0 F6000 X126.712 Y127.278
G1 F1200 X124.287 Y124.852 E82.23852
G0 F6000 X124.853 Y124.853
G1 F1200 X127.278 Y127.278 E82.35259
G0 F6000 X127.843 Y127.278
G1 F1200 X125.42 Y124.854 E82.46658
G0 F6000 X125.987 Y124.855
G1 F1200 X128.409 Y127.278 E82.58053
G0 F6000 X128.975 Y127.278
G1 F1200 X126.526 Y124.829 E82.69572
G0 F6000 X126.996 Y124.734
G1 F1200 X129.541 Y127.278 E82.81541
G0 F6000 X130.106 Y127.278
G1 F1200 X127.418 Y124.589 E82.94187
G0 F6000 X127.799 Y124.405
G1 F1200 X130.673 Y127.279 E83.07705
G0 F6000 X131.238 Y127.279
G1 F1200 X128.139 Y124.179 E83.22284
G0 F6000 X128.445 Y123.92
G1 F1200 X131.804 Y127.279 E83.38084
G0 F6000 X132.37 Y127.279
G1 F1200 X128.715 Y123.624 E83.55276
G0 F6000 X128.956 Y123.3
G1 F1200 X132.935 Y127.279 E83.73992
G0 F6000 X133.501 Y127.279
G1 F1200 X129.162 Y122.94 E83.94401
G0 F6000 X129.312 Y122.524
G1 F1200 X134.067 Y127.279 E84.16767
G0 F6000 X134.632 Y127.279
G1 F1200 X129.428 Y122.074 E84.41247
G0 F6000 X129.483 Y121.564
G1 F1200 X135.198 Y127.279 E84.68129
G0 F6000 X135.764 Y127.279
G1 F1200 X129.483 Y120.997 E84.97675
G0 F6000 X129.482 Y120.431
G1 F1200 X136.329 Y127.279 E85.29884
G0 F6000 X136.895 Y127.279
G1 F1200 X129.481 Y119.864 E85.64759
G0 F6000 X129.48 Y119.298
G1 F1200 X137.461 Y127.279 E86.023
G0 F6000 X138.027 Y127.279
G1 F1200 X129.48 Y118.732 E86.42502
G0 F6000 X129.48 Y118.166
G1 F1200 X138.592 Y127.279 E86.85364
G0 F6000 X139.158 Y127.279
G1 F1200 X129.479 Y117.6 E87.30892
G0 F6000 X129.478 Y117.033
G1 F1200 X139.724 Y127.279 E87.79086
G0 F6000 X140.289 Y127.279
G1 F1200 X129.478 Y116.467 E88.2994
G0 F6000 X129.477 Y115.9
G1 F1200 X140.855 Y127.279 E88.83461
G0 F6000 X141.421 Y127.279
G1 F1200 X129.476 Y115.334 E89.39646
G0 F6000 X129.475 Y114.768
G1 F1200 X141.986 Y127.279 E89.98494
G0 F6000 X142.552 Y127.279
G1 F1200 X129.475 Y114.201 E90.60007
G0 F6000 X129.474 Y113.635
G1 F1200 X143.118 Y127.279 E91.24184
G0 F6000 X143.684 Y127.279
G1 F1200 X129.446 Y113.041 E91.91155
G0 F6000 X129.247 Y112.277
G1 F1200 X144.25 Y127.279 E92.61722
G0 F6000 X144.815 Y127.279
G1 F1200 X125.256 Y107.72 E93.53722
G0 F6000 X124.691 Y107.72
G1 F1200 X127.345 Y110.374 E93.66205
G0 F6000 X126.57 Y110.165
G1 F1200 X124.125 Y107.72 E93.77706
G0 F6000 X123.559 Y107.72
G1 F1200 X125.98 Y110.14 E93.89091
G0 F6000 X125.415 Y110.141
G1 F1200 X122.993 Y107.72 E94.00481
G0 F6000 X122.428 Y107.72
G1 F1200 X124.85 Y110.142 E94.11873
G0 F6000 X124.285 Y110.143
G1 F1200 X121.862 Y107.72 E94.2327
G0 F6000 X121.296 Y107.72
G1 F1200 X123.737 Y110.16 E94.3475
G0 F6000 X123.266 Y110.256
G1 F1200 X120.731 Y107.72 E94.46676
G0 F6000 X120.165 Y107.72
G1 F1200 X122.836 Y110.391 E94.5924
G0 F6000 X122.458 Y110.579
G1 F1200 X119.599 Y107.72 E94.72687
G0 F6000 X119.034 Y107.72
G1 F1200 X122.119 Y110.806 E94.87201
G0 F6000 X121.813 Y111.065
G1 F1200 X118.468 Y107.72 E95.02935
G0 F6000 X117.902 Y107.72
G1 F1200 X121.54 Y111.358 E95.20047
G0 F6000 X121.301 Y111.685
G1 F1200 X117.337 Y107.72 E95.38694
G0 F6000 X116.771 Y107.72
G1 F1200 X121.098 Y112.047 E95.59047
G0 F6000 X120.939 Y112.453
G1 F1200 X116.205 Y107.72 E95.81312
G0 F6000 X115.64 Y107.72
G1 F1200 X120.823 Y112.903 E96.05691
G0 F6000 X120.765 Y113.411
G1 F1200 X115.074 Y107.72 E96.3246
G0 F6000 X114.508 Y107.72
G1 F1200 X120.765 Y113.976 E96.61889
G0 F6000 X120.765 Y114.543
G1 F1200 X113.942 Y107.72 E96.93982
G0 F6000 X113.377 Y107.72
G1 F1200 X120.765 Y115.108 E97.28733
G0 F6000 X120.766 Y115.675
G1 F1200 X112.811 Y107.72 E97.66151
G0 F6000 X112.245 Y107.72
G1 F1200 X120.767 Y116.241 E98.06233
G0 F6000 X120.767 Y116.807
G1 F1200 X111.68 Y107.72 E98.48976
G0 F6000 X111.114 Y107.72
G1 F1200 X120.767 Y117.373 E98.94381
G0 F6000 X120.767 Y117.939
G1 F1200 X110.548 Y107.72 E99.42448
G0 F6000 X109.983 Y107.72
G1 F1200 X120.768 Y118.505 E99.93177
