;FLAVOR:Marlin
;TIME:380
;Filament used: 0.0753255m
;Layer height: 0.12
;MINX:107.201
;MINY:114.95
;MINZ:0.2
;MAXX:127.798
;MAXY:120.046
;MAXZ:6.32
;TARGET_MACHINE.NAME:Creality Ender-3
;Generated with Cura_SteamEngine 5.11.0
M140 S60
M105
M190 S60
M104 S200
M105
M109 S200
; Ender 3 Custom Start G-code
G92 E0 ; Reset Extruder
G28 ; Home all axes
G1 Z2.0 F3000 ; Move Z Axis up little to prevent scratching of Heat Bed
G1 X0.1 Y20 Z0.3 F5000.0 ; Move to start position
G1 X0.1 Y200.0 Z0.3 F1500.0 E15 ; Draw the first line
G1 X0.4 Y200.0 Z0.3 F5000.0 ; Move to side a little
G1 X0.4 Y20 Z0.3 F1500.0 E30 ; Draw the second line
G92 E0 ; Reset Extruder
G1 Z2.0 F3000 ; Move Z Axis up little to prevent scratching of Heat Bed
G1 X5 Y20 Z0.3 F5000.0 ; Move over to prevent blob squish
M82 ;absolute extrusion mode
G92 E0
G92 E0
G1 F2700 E-5
;LAYER_COUNT:52
;LAYER:0
;note -- min layer time used
M107
;MESH:NeoCover.stl
G0 F6000 X117.5 Y120.044 Z0.2
;TYPE:WALL-OUTER
G1 F2700 E0
G1 F404 X109.01 Y120.044 E0.41933
G1 F400.7 X108.58 Y119.939 E0.44138
G1 F397.4 X108.205 Y119.766 E0.46212
G1 F398.7 X107.895 Y119.536 E0.48144
G1 F401.3 X107.581 Y119.217 E0.5037
G1 F402.7 X107.438 Y118.959 E0.51832
G1 F401.3 X107.324 Y118.706 E0.53212
G1 F403.4 X107.204 Y118.302 E0.55297
G1 F405.4 X107.204 Y116.762 E0.62877
G1 F400 X107.31 Y116.327 E0.65111
G1 F394.1 X107.435 Y116.051 E0.66645
G1 F394.7 X107.624 Y115.729 E0.68533
G1 F400.7 X108.04 Y115.327 E0.71414
G1 F401.3 X108.291 Y115.187 E0.72843
G1 F400 X108.539 Y115.077 E0.74197
G1 F402.7 X108.941 Y114.952 E0.76283
G1 F404.7 X126.021 Y114.952 E1.60501
G1 F400.7 X126.417 Y115.059 E1.62545
G1 F395.4 X126.698 Y115.186 E1.64101
G1 F396 X127.023 Y115.379 E1.66006
G1 F401.3 X127.415 Y115.78 E1.68794
G1 F402 X127.56 Y116.038 E1.70263
G1 F400 X127.672 Y116.292 E1.71648
G1 F404 X127.796 Y116.698 E1.73745
G1 F406.8 X127.796 Y118.239 E1.81305
G1 F401.3 X127.688 Y118.668 E1.83504
G1 F395.4 X127.562 Y118.945 E1.8504
G1 F396 X127.371 Y119.268 E1.86931
G1 F402 X126.957 Y119.669 E1.89792
G1 F402.7 X126.705 Y119.81 E1.91223
G1 F400.7 X126.461 Y119.921 E1.92558
G1 F399.3 X126.188 Y120.004 E1.93984
G1 F398.7 X125.87 Y120.044 E1.95589
G1 F401.3 X117.5 Y120.044 E2.37208
;TIME_ELAPSED:11.566386
;LAYER:1
;note -- min layer time used
M106 S85
;MESH:NeoCover.stl
G0 F10500 X117.5 Y120.044 Z0.32
;TYPE:WALL-OUTER
G1 F400.7 X109.124 Y120.044 E2.62239
G1 F394.7 X108.869 Y120.005 E2.63021
G1 F393.4 X108.568 Y119.935 E2.63962
G1 F397.4 X108.245 Y119.788 E2.65031
G1 F400 X107.889 Y119.542 E2.66326
G1 F405.4 X107.566 Y119.181 E2.67757
G1 F411 X107.37 Y118.837 E2.68911
G1 F406.8 X107.256 Y118.479 E2.70017
G1 F401.3 X107.205 Y118.14 E2.71039
G1 F400 X107.204 Y116.787 E2.75089
G1 F398 X107.313 Y116.316 E2.76544
G1 F397.4 X107.46 Y115.993 E2.77613
G1 F399.3 X107.702 Y115.656 E2.78857
G1 F404 X108.043 Y115.331 E2.80253
G1 F409.6 X108.435 Y115.108 E2.81572
G1 F411 X109.01 Y114.953 E2.83307
G1 F404 X125.872 Y114.952 E3.33277
G1 F394.7 X126.126 Y114.991 E3.34056
G1 X126.429 Y115.061 E3.35
G1 F398.7 X126.754 Y115.208 E3.36071
G1 F397.4 X127.024 Y115.396 E3.37062
G1 F398.7 X127.36 Y115.736 E3.38498
G1 X127.502 Y115.942 E3.3925
G1 F404 X127.629 Y116.159 E3.39995
G1 F405.4 X127.741 Y116.522 E3.41117
G1 F399.3 X127.793 Y116.859 E3.42139
G1 F400 X127.792 Y118.215 E3.46198
G1 F399.3 X127.685 Y118.68 E3.47629
G1 F397.4 X127.537 Y119.002 E3.48697
G1 F399.3 X127.297 Y119.338 E3.49935
G1 F400 X127.014 Y119.608 E3.51106
G1 F396.7 X126.807 Y119.751 E3.51865
G1 F402.7 X126.589 Y119.877 E3.52614
G1 F401.3 X126.342 Y119.955 E3.53386
G1 F396.7 X125.888 Y120.043 E3.54782
G1 F401.3 X117.5 Y120.044 E3.79807
;MESH:NONMESH
G0 F300 X117.5 Y120.044 Z0.44
G0 F10500 X117.5 Y120.041
;TIME_ELAPSED:18.844669
;LAYER:2
;note -- min layer time used
M106 S170
;TYPE:WALL-OUTER
;MESH:NeoCover.stl
G1 F398.7 X109.087 Y120.042 E4.05075
G1 X108.649 Y119.958 E4.06414
G1 F396 X108.362 Y119.845 E4.07347
G1 F397.4 X107.953 Y119.594 E4.08793
G1 F400 X107.684 Y119.317 E4.09949
G1 F399.3 X107.498 Y119.06 E4.109
G1 F397.4 X107.312 Y118.701 E4.12118
G1 F402 X107.207 Y118.193 E4.13663
G1 F403.4 X107.204 Y116.863 E4.17611
G1 F400 X107.259 Y116.479 E4.18773
G1 F398.7 X107.413 Y116.088 E4.20035
G1 F392.2 X107.602 Y115.788 E4.21117
G1 F392.8 X107.801 Y115.55 E4.22063
G1 F396.7 X107.998 Y115.379 E4.2285
G1 F399.3 X108.271 Y115.199 E4.23831
G1 F400 X108.704 Y115.015 E4.25239
G1 F396.7 X109.131 Y114.955 E4.26541
G1 F398 X125.883 Y114.952 E4.76937
G1 F400 X126.288 Y115.015 E4.78164
G1 F398.7 X126.66 Y115.165 E4.79369
G1 F398 X127.045 Y115.404 E4.80732
G1 F402 X127.297 Y115.658 E4.81798
G1 F403.4 X127.532 Y115.982 E4.82986
G1 F402 X127.743 Y116.477 E4.84588
G1 F402.7 X127.798 Y116.878 E4.85792
G1 F404.7 X127.792 Y118.157 E4.89576
G1 F405.4 X127.717 Y118.565 E4.90801
G1 F399.3 X127.582 Y118.912 E4.91918
G1 F396 X127.341 Y119.294 E4.93283
G1 F401.3 X127.057 Y119.58 E4.94486
G1 F404 X126.729 Y119.797 E4.95651
G1 F400 X126.291 Y119.981 E4.97073
G1 F396 X125.869 Y120.04 E4.98361
G1 X117.5 Y120.041 E5.23664
;MESH:NONMESH
G0 F300 X117.5 Y120.041 Z0.56
G0 F15000 X117.5 Y120.044
;TIME_ELAPSED:26.115310
;LAYER:3
;note -- min layer time used
M106 S255
;TYPE:WALL-OUTER
;MESH:NeoCover.stl
G1 F400.7 X109.131 Y120.044 E5.48674
G1 F400 X108.732 Y119.986 E5.49881
G1 X108.317 Y119.831 E5.51207
G1 F401.3 X107.903 Y119.543 E5.52712
G1 X107.676 Y119.315 E5.53671
G1 F398.7 X107.483 Y119.036 E5.5469
G1 F394.7 X107.295 Y118.609 E5.56106
G1 F396 X107.204 Y118.128 E5.57586
G1 F400 X107.204 Y116.877 E5.6133
G1 F400.7 X107.258 Y116.487 E5.62507
G1 X107.412 Y116.076 E5.63819
G1 F398.7 X107.726 Y115.616 E5.65491
G1 F397.4 X107.99 Y115.384 E5.6655
G1 F398.7 X108.27 Y115.199 E5.67558
G1 F401.3 X108.512 Y115.088 E5.68353
G1 X109.019 Y114.953 E5.69918
G1 F400.7 X125.865 Y114.952 E6.20261
G1 F400 X126.258 Y115.008 E6.21449
G1 X126.67 Y115.162 E6.22766
G1 F398 X127.126 Y115.467 E6.24416
G1 X127.361 Y115.74 E6.255
G1 F400 X127.548 Y116.02 E6.26508
G1 F401.3 X127.66 Y116.264 E6.27309
G1 F394.7 X127.756 Y116.624 E6.28439
G1 F394.1 X127.796 Y116.872 E6.29202
G1 F400 X127.796 Y118.117 E6.32929
G1 X127.736 Y118.53 E6.34178
G1 X127.587 Y118.921 E6.35431
G1 F401.3 X127.292 Y119.346 E6.36974
G1 X127.068 Y119.57 E6.37919
G1 F398.7 X126.789 Y119.764 E6.3894
G1 F400 X126.423 Y119.932 E6.40145
G1 F402.7 X125.964 Y120.044 E6.4155
G1 F401.3 X117.5 Y120.044 E6.66802
;TIME_ELAPSED:33.294990
;LAYER:4
;note -- min layer time used
;MESH:NeoCover.stl
G0 F15000 X117.5 Y120.044 Z0.68
;TYPE:WALL-OUTER
G1 F400.7 X109.13 Y120.044 E6.91815
G1 F400 X108.734 Y119.988 E6.93012
G1 F400.7 X108.315 Y119.829 E6.94352
G1 F401.3 X107.903 Y119.543 E6.95848
G1 F398.7 X107.642 Y119.264 E6.96995
G1 X107.448 Y118.975 E6.98041
G1 F402.7 X107.33 Y118.72 E6.98876
G1 F402 X107.204 Y118.228 E7.00389
G1 F400.7 X107.206 Y116.844 E7.04525
G1 X107.288 Y116.398 E7.0588
G1 F401.3 X107.417 Y116.063 E7.06951
G1 F402 X107.704 Y115.655 E7.08437
G1 F402.7 X107.927 Y115.427 E7.09385
G1 F401.3 X108.272 Y115.198 E7.10621
G1 F402 X108.528 Y115.082 E7.11458
G1 F402.7 X109.021 Y114.953 E7.12973
G1 F401.3 X125.872 Y114.952 E7.63247
G1 X126.269 Y115.01 E7.64444
G1 F400 X126.661 Y115.157 E7.65697
G1 F397.4 X127.075 Y115.432 E7.67195
G1 F398.7 X127.319 Y115.682 E7.68244
G1 F400 X127.574 Y116.045 E7.69572
G1 F397.4 X127.735 Y116.484 E7.70981
G1 F398.7 X127.796 Y116.872 E7.7216
G1 F400 X127.796 Y118.118 E7.7589
G1 X127.739 Y118.522 E7.77112
G1 F398.7 X127.585 Y118.918 E7.78388
G1 F396 X127.355 Y119.264 E7.79644
G1 F395.4 X127.13 Y119.525 E7.80687
G1 F397.4 X126.802 Y119.754 E7.81893
G1 F399.3 X126.423 Y119.932 E7.83148
G1 F401.3 X125.964 Y120.044 E7.84558
G1 X117.5 Y120.044 E8.0981
;TIME_ELAPSED:40.538620
;LAYER:5
;note -- min layer time used
;MESH:NeoCover.stl
G0 F15000 X117.5 Y120.044 Z0.8
;TYPE:WALL-OUTER
G1 F400.7 X109.13 Y120.044 E8.34823
G1 F400 X108.734 Y119.988 E8.3602
G1 F400.7 X108.315 Y119.829 E8.37359
G1 F401.3 X107.903 Y119.543 E8.38855
G1 F398.7 X107.642 Y119.264 E8.40003
G1 X107.448 Y118.975 E8.41048
G1 F402.7 X107.33 Y118.72 E8.41884
G1 F402 X107.204 Y118.228 E8.43396
G1 F400.7 X107.206 Y116.844 E8.47532
G1 X107.288 Y116.398 E8.48888
G1 F401.3 X107.417 Y116.063 E8.49959
G1 F402 X107.704 Y115.655 E8.51444
G1 F402.7 X107.927 Y115.427 E8.52393
G1 F401.3 X108.272 Y115.198 E8.53628
G1 F402 X108.528 Y115.082 E8.54465
G1 F402.7 X109.021 Y114.953 E8.5598
G1 F401.3 X125.872 Y114.952 E9.06254
G1 X126.269 Y115.01 E9.07451
G1 F400 X126.661 Y115.157 E9.08705
G1 F397.4 X127.075 Y115.432 E9.10202
G1 F398.7 X127.319 Y115.682 E9.11251
G1 F400 X127.574 Y116.045 E9.12579
G1 F397.4 X127.735 Y116.484 E9.13988
G1 F398.7 X127.796 Y116.872 E9.15168
G1 F400 X127.796 Y118.118 E9.18898
G1 X127.739 Y118.522 E9.20119
G1 F398.7 X127.585 Y118.918 E9.21395
G1 F396 X127.355 Y119.264 E9.22651
G1 F395.4 X127.13 Y119.525 E9.23695
G1 F397.4 X126.802 Y119.754 E9.249
G1 F399.3 X126.423 Y119.932 E9.26156
G1 F401.3 X125.964 Y120.044 E9.27565
G1 X117.5 Y120.044 E9.52817
;TIME_ELAPSED:47.782251
;LAYER:6
;note -- min layer time used
;MESH:NeoCover.stl
G0 F15000 X117.5 Y120.044 Z0.92
;TYPE:WALL-OUTER
G1 F400.7 X109.13 Y120.044 E9.7783
G1 F400 X108.734 Y119.988 E9.79027
G1 F400.7 X108.315 Y119.829 E9.80367
G1 F401.3 X107.903 Y119.543 E9.81863
G1 F398.7 X107.642 Y119.264 E9.8301
G1 X107.448 Y118.975 E9.84056
G1 F402.7 X107.33 Y118.72 E9.84891
G1 F402 X107.204 Y118.228 E9.86404
G1 F400.7 X107.206 Y116.844 E9.9054
G1 X107.288 Y116.398 E9.91895
G1 F401.3 X107.417 Y116.063 E9.92966
G1 F402 X107.704 Y115.655 E9.94452
G1 F402.7 X107.927 Y115.427 E9.954
G1 F401.3 X108.272 Y115.198 E9.96636
G1 F402 X108.528 Y115.082 E9.97473
G1 F402.7 X109.021 Y114.953 E9.98988
G1 F401.3 X125.872 Y114.952 E10.49262
G1 X126.269 Y115.01 E10.50459
G1 F400 X126.661 Y115.157 E10.51712
G1 F397.4 X127.075 Y115.432 E10.5321
G1 F398.7 X127.319 Y115.682 E10.54259
G1 F400 X127.574 Y116.045 E10.55587
G1 F397.4 X127.735 Y116.484 E10.56996
G1 F398.7 X127.796 Y116.872 E10.58175
G1 F400 X127.796 Y118.118 E10.61905
G1 X127.739 Y118.522 E10.63127
G1 F398.7 X127.585 Y118.918 E10.64403
G1 F396 X127.355 Y119.264 E10.65659
G1 F395.4 X127.13 Y119.525 E10.66702
G1 F397.4 X126.802 Y119.754 E10.67908
G1 F399.3 X126.423 Y119.932 E10.69163
G1 F401.3 X125.964 Y120.044 E10.70573
G1 X117.5 Y120.044 E10.95825
;TIME_ELAPSED:55.025882
;LAYER:7
;note -- min layer time used
;MESH:NeoCover.stl
G0 F15000 X117.5 Y120.044 Z1.04
;TYPE:WALL-OUTER
G1 F400.7 X109.13 Y120.044 E11.20838
G1 F400 X108.734 Y119.988 E11.22035
G1 F400.7 X108.315 Y119.829 E11.23374
G1 F401.3 X107.903 Y119.543 E11.24871
G1 F398.7 X107.642 Y119.264 E11.26018
G1 X107.448 Y118.975 E11.27063
G1 F402.7 X107.33 Y118.72 E11.27899
G1 F402 X107.204 Y118.228 E11.29412
G1 F400.7 X107.206 Y116.844 E11.33548
G1 X107.288 Y116.398 E11.34903
G1 F401.3 X107.417 Y116.063 E11.35974
G1 F402 X107.704 Y115.655 E11.37459
G1 F402.7 X107.927 Y115.427 E11.38408
G1 F401.3 X108.272 Y115.198 E11.39643
G1 F402 X108.528 Y115.082 E11.4048
G1 F402.7 X109.021 Y114.953 E11.41996
G1 F401.3 X125.872 Y114.952 E11.92269
G1 X126.269 Y115.01 E11.93466
G1 F400 X126.661 Y115.157 E11.9472
G1 F397.4 X127.075 Y115.432 E11.96217
G1 F398.7 X127.319 Y115.682 E11.97266
G1 F400 X127.574 Y116.045 E11.98594
G1 F397.4 X127.735 Y116.484 E12.00003
G1 F398.7 X127.796 Y116.872 E12.01183
G1 F400 X127.796 Y118.118 E12.04913
G1 X127.739 Y118.522 E12.06134
G1 F398.7 X127.585 Y118.918 E12.0741
G1 F396 X127.355 Y119.264 E12.08666
G1 F395.4 X127.13 Y119.525 E12.0971
G1 F397.4 X126.802 Y119.754 E12.10915
G1 F399.3 X126.423 Y119.932 E12.12171
G1 F401.3 X125.964 Y120.044 E12.1358
G1 X117.5 Y120.044 E12.38832
;TIME_ELAPSED:62.269513
;LAYER:8
;note -- min layer time used
;MESH:NeoCover.stl
G0 F15000 X117.5 Y120.044 Z1.16
;TYPE:WALL-OUTER
G1 F400.7 X109.13 Y120.044 E12.63845
G1 F400 X108.734 Y119.988 E12.65042
G1 F400.7 X108.315 Y119.829 E12.66382
G1 F401.3 X107.903 Y119.543 E12.67878
G1 F398.7 X107.642 Y119.264 E12.69025
G1 X107.448 Y118.975 E12.70071
G1 F402.7 X107.33 Y118.72 E12.70906
G1 F402 X107.204 Y118.228 E12.72419
G1 F400.7 X107.206 Y116.844 E12.76555
G1 X107.288 Y116.398 E12.7791
G1 F401.3 X107.417 Y116.063 E12.78981
G1 F402 X107.704 Y115.655 E12.80467
G1 F402.7 X107.927 Y115.427 E12.81415
G1 F401.3 X108.272 Y115.198 E12.82651
G1 F402 X108.528 Y115.082 E12.83488
G1 F402.7 X109.021 Y114.953 E12.85003
G1 F401.3 X125.872 Y114.952 E13.35277
G1 X126.269 Y115.01 E13.36474
G1 F400 X126.661 Y115.157 E13.37727
G1 F397.4 X127.075 Y115.432 E13.39225
G1 F398.7 X127.319 Y115.682 E13.40274
G1 F400 X127.574 Y116.045 E13.41602
G1 F397.4 X127.735 Y116.484 E13.43011
G1 F398.7 X127.796 Y116.872 E13.44191
G1 F400 X127.796 Y118.118 E13.4792
G1 X127.739 Y118.522 E13.49142
G1 F398.7 X127.585 Y118.918 E13.50418
G1 F396 X127.355 Y119.264 E13.51674
G1 F395.4 X127.13 Y119.525 E13.52717
G1 F397.4 X126.802 Y119.754 E13.53923
G1 F399.3 X126.423 Y119.932 E13.55178
G1 F401.3 X125.964 Y120.044 E13.56588
G1 X117.5 Y120.044 E13.8184
;TIME_ELAPSED:69.513144
;LAYER:9
;note -- min layer time used
;MESH:NeoCover.stl
G0 F15000 X117.5 Y120.044 Z1.28
;TYPE:WALL-OUTER
G1 F400.7 X109.13 Y120.044 E14.06853
G1 F400 X108.734 Y119.988 E14.0805
G1 F400.7 X108.315 Y119.829 E14.09389
G1 F401.3 X107.903 Y119.543 E14.10886
G1 F398.7 X107.642 Y119.264 E14.12033
G1 X107.448 Y118.975 E14.13078
G1 F402.7 X107.33 Y118.72 E14.13914
G1 F402 X107.204 Y118.228 E14.15427
G1 F400.7 X107.206 Y116.844 E14.19563
G1 X107.288 Y116.398 E14.20918
G1 F401.3 X107.417 Y116.063 E14.21989
G1 F402 X107.704 Y115.655 E14.23474
G1 F402.7 X107.927 Y115.427 E14.24423
G1 F401.3 X108.272 Y115.198 E14.25658
G1 F402 X108.528 Y115.082 E14.26495
G1 F402.7 X109.021 Y114.953 E14.28011
G1 F401.3 X125.872 Y114.952 E14.78284
G1 X126.269 Y115.01 E14.79481
G1 F400 X126.661 Y115.157 E14.80735
G1 F397.4 X127.075 Y115.432 E14.82232
G1 F398.7 X127.319 Y115.682 E14.83281
G1 F400 X127.574 Y116.045 E14.84609
G1 F397.4 X127.735 Y116.484 E14.86018
G1 F398.7 X127.796 Y116.872 E14.87198
G1 F400 X127.796 Y118.118 E14.90928
G1 X127.739 Y118.522 E14.92149
G1 F398.7 X127.585 Y118.918 E14.93425
G1 F396 X127.355 Y119.264 E14.94681
G1 F395.4 X127.13 Y119.525 E14.95725
G1 F397.4 X126.802 Y119.754 E14.9693
G1 F399.3 X126.423 Y119.932 E14.98186
G1 F401.3 X125.964 Y120.044 E14.99595
G1 X117.5 Y120.044 E15.24847
;TIME_ELAPSED:76.756775
;LAYER:10
;note -- min layer time used
;MESH:NeoCover.stl
G0 F15000 X117.5 Y120.044 Z1.4
;TYPE:WALL-OUTER
G1 F400.7 X109.13 Y120.044 E15.4986
G1 F400 X108.734 Y119.988 E15.51058
G1 F400.7 X108.315 Y119.829 E15.52397
G1 F401.3 X107.903 Y119.543 E15.53893
G1 F398.7 X107.642 Y119.264 E15.55041
G1 X107.448 Y118.975 E15.56086
G1 F402.7 X107.33 Y118.72 E15.56921
G1 F402 X107.204 Y118.228 E15.58434
G1 F400.7 X107.206 Y116.844 E15.6257
G1 X107.288 Y116.398 E15.63925
G1 F401.3 X107.417 Y116.063 E15.64996
G1 F402 X107.704 Y115.655 E15.66482
G1 F402.7 X107.927 Y115.427 E15.6743
G1 F401.3 X108.272 Y115.198 E15.68666
G1 F402 X108.528 Y115.082 E15.69503
G1 F402.7 X109.021 Y114.953 E15.71018
G1 F401.3 X125.872 Y114.952 E16.21292
G1 X126.269 Y115.01 E16.22489
G1 F400 X126.661 Y115.157 E16.23742
G1 F397.4 X127.075 Y115.432 E16.2524
G1 F398.7 X127.319 Y115.682 E16.26289
G1 F400 X127.574 Y116.045 E16.27617
G1 F397.4 X127.735 Y116.484 E16.29026
G1 F398.7 X127.796 Y116.872 E16.30206
G1 F400 X127.796 Y118.118 E16.33935
G1 X127.739 Y118.522 E16.35157
G1 F398.7 X127.585 Y118.918 E16.36433
G1 F396 X127.355 Y119.264 E16.37689
G1 F395.4 X127.13 Y119.525 E16.38732
G1 F397.4 X126.802 Y119.754 E16.39938
G1 F399.3 X126.423 Y119.932 E16.41193
G1 F401.3 X125.964 Y120.044 E16.42603
G1 X117.5 Y120.044 E16.67855
;TIME_ELAPSED:84.000406
;LAYER:11
;note -- min layer time used
;MESH:NeoCover.stl
G0 F15000 X117.5 Y120.044 Z1.52
;TYPE:WALL-OUTER
G1 F400.7 X109.13 Y120.044 E16.92868
G1 F400 X108.734 Y119.988 E16.94065
G1 F400.7 X108.315 Y119.829 E16.95404
G1 F401.3 X107.903 Y119.543 E16.96901
G1 F398.7 X107.642 Y119.264 E16.98048
G1 X107.448 Y118.975 E16.99093
G1 F402.7 X107.33 Y118.72 E16.99929
G1 F402 X107.204 Y118.228 E17.01442
G1 F400.7 X107.206 Y116.844 E17.05578
