;FLAVOR:Marlin
;TIME:2343
;Filament used: 1.27021m
;Layer height: 0.12
;MINX:98.755
;MINY:70.505
;MINZ:0.2
;MAXX:136.239
;MAXY:164.485
;MAXZ:7.64
;TARGET_MACHINE.NAME:Creality Ender-3
;Generated with Cura_SteamEngine 5.11.0
M140 S60
M105
M190 S60
M104 S200
M105
M109 S200
; Ender 3 Custom Start G-code
G92 E0 ; Reset Extruder
G28 ; Home all axes
G1 Z2.0 F3000 ; Move Z Axis up little to prevent scratching of Heat Bed
G1 X0.1 Y20 Z0.3 F5000.0 ; Move to start position
G1 X0.1 Y200.0 Z0.3 F1500.0 E15 ; Draw the first line
G1 X0.4 Y200.0 Z0.3 F5000.0 ; Move to side a little
G1 X0.4 Y20 Z0.3 F1500.0 E30 ; Draw the second line
G92 E0 ; Reset Extruder
G1 Z2.0 F3000 ; Move Z Axis up little to prevent scratching of Heat Bed
G1 X5 Y20 Z0.3 F5000.0 ; Move over to prevent blob squish
M82 ;absolute extrusion mode
G92 E0
G92 E0
G1 F2700 E-5
;LAYER_COUNT:63
;LAYER:0
M107
G0 F6000 X99.776 Y74.757 Z0.2
;TYPE:SKIRT
G1 F2700 E0
G1 F1200 X101.39 Y72.694 E0.08712
G1 X103.52 Y71.247 E0.17277
G1 X106 Y70.505 E0.25886
G1 X128.66 Y70.515 E1.01254
G1 X130.519 Y70.913 E1.07577
G1 X132.549 Y71.848 E1.15011
G1 X134.198 Y73.378 E1.22492
G1 X135.168 Y74.718 E1.27994
G1 X135.785 Y76.212 E1.3337
G1 X136.238 Y77.745 E1.38687
G1 X136.239 Y156.971 E4.02194
G1 X135.891 Y158.632 E4.07838
G1 X135.122 Y160.26 E4.13827
G1 X134.395 Y161.449 E4.18462
G1 X132.807 Y162.905 E4.25628
G1 X130.976 Y163.989 E4.32705
G1 X128.708 Y164.485 E4.40427
G1 X106.212 Y164.484 E5.15249
G1 X104.694 Y164.106 E5.20452
G1 X103.007 Y163.474 E5.26444
G1 X100.944 Y161.86 E5.35156
G1 X99.497 Y159.73 E5.4372
G1 X98.755 Y157.25 E5.5233
G1 X98.766 Y77.962 E8.16043
G1 X99.144 Y76.444 E8.21246
G1 X99.776 Y74.757 E8.27238
G0 F6000 X100.13 Y74.953
G1 F1200 X101.665 Y72.991 E8.35523
G1 X103.695 Y71.612 E8.43686
G1 X106.058 Y70.905 E8.51889
G1 X128.618 Y70.915 E9.26924
G1 X130.393 Y71.295 E9.32961
G1 X132.323 Y72.184 E9.40029
G1 X133.896 Y73.643 E9.47165
G1 X134.816 Y74.914 E9.52383
G1 X135.401 Y76.325 E9.57464
G1 X135.838 Y77.804 E9.62593
G1 X135.839 Y156.932 E12.25774
G1 X135.51 Y158.502 E12.31109
G1 X134.781 Y160.051 E12.36803
G1 X134.083 Y161.192 E12.41252
G1 X132.568 Y162.582 E12.4809
G1 X130.829 Y163.611 E12.54811
G1 X128.663 Y164.085 E12.62186
G1 X106.26 Y164.084 E13.36698
G1 X104.834 Y163.731 E13.41584
G1 X103.203 Y163.12 E13.47377
G1 X101.241 Y161.585 E13.55663
G1 X99.862 Y159.555 E13.63825
G1 X99.155 Y157.192 E13.72029
G1 X99.166 Y78.01 E16.35389
G1 X99.519 Y76.584 E16.40275
G1 X100.13 Y74.953 E16.46068
G0 F6000 X100.484 Y75.149
G1 F1200 X101.94 Y73.288 E16.53927
G1 X103.87 Y71.977 E16.61687
G1 X106.116 Y71.305 E16.69485
G1 X128.576 Y71.315 E17.44187
G1 X130.267 Y71.677 E17.49939
G1 X132.097 Y72.52 E17.5664
G1 X133.596 Y73.91 E17.63439
G1 X134.464 Y75.11 E17.68365
G1 X135.017 Y76.438 E17.7315
G1 X135.438 Y77.863 E17.78092
G1 X135.439 Y156.893 E20.40947
G1 X135.129 Y158.372 E20.45973
G1 X134.44 Y159.842 E20.51372
G1 X133.771 Y160.935 E20.55635
G1 X132.328 Y162.259 E20.62148
G1 X130.681 Y163.234 E20.68514
G1 X128.619 Y163.685 E20.75534
G1 X106.308 Y163.684 E21.49741
G1 X104.974 Y163.356 E21.5431
G1 X103.399 Y162.766 E21.59904
G1 X101.538 Y161.31 E21.67763
G1 X100.227 Y159.38 E21.75523
G1 X99.555 Y157.134 E21.83321
G1 X99.566 Y78.058 E24.46329
G1 X99.894 Y76.724 E24.50898
G1 X100.484 Y75.149 E24.56492
G0 F6000 X100.838 Y75.345
G1 F1200 X102.215 Y73.585 E24.63924
G1 X104.045 Y72.342 E24.71282
G1 X106.174 Y71.705 E24.78673
G1 X128.534 Y71.715 E25.53043
G1 X130.141 Y72.059 E25.58509
G1 X131.871 Y72.856 E25.64844
G1 X133.296 Y74.177 E25.71307
G1 X134.111 Y75.305 E25.75936
G1 X134.633 Y76.551 E25.80429
G1 X135.038 Y77.922 E25.85183
G1 X135.039 Y156.854 E28.47712
G1 X134.748 Y158.241 E28.52426
G1 X134.099 Y159.633 E28.57534
G1 X133.459 Y160.678 E28.6161
G1 X132.088 Y161.936 E28.67799
G1 X130.534 Y162.856 E28.73805
G1 X128.574 Y163.285 E28.80479
G1 X106.358 Y163.284 E29.54369
G1 X105.114 Y162.981 E29.58628
G1 X103.595 Y162.412 E29.64023
G1 X101.835 Y161.035 E29.71455
G1 X100.592 Y159.205 E29.78813
G1 X99.955 Y157.076 E29.86204
G1 X99.966 Y78.108 E32.48853
G1 X100.269 Y76.864 E32.53112
G1 X100.838 Y75.345 E32.58507
G0 F6000 X101.191 Y75.543
G1 F1200 X102.49 Y73.882 E32.6552
G1 X104.22 Y72.707 E32.72476
G1 X106.232 Y72.105 E32.79461
G1 X128.492 Y72.115 E33.53498
G1 X130.015 Y72.441 E33.58678
G1 X131.645 Y73.192 E33.64647
G1 X132.996 Y74.444 E33.70774
G1 X133.759 Y75.5 E33.75107
G1 X134.249 Y76.664 E33.79307
G1 X134.638 Y77.981 E33.83875
G1 X134.639 Y156.815 E36.46078
G1 X134.367 Y158.112 E36.50485
G1 X133.758 Y159.424 E36.55296
G1 X133.147 Y160.421 E36.59185
G1 X131.848 Y161.613 E36.65049
G1 X130.386 Y162.479 E36.70701
G1 X128.53 Y162.885 E36.7702
G1 X106.408 Y162.884 E37.50598
G1 X105.209 Y162.592 E37.54703
G1 X103.793 Y162.059 E37.59735
G1 X102.132 Y160.76 E37.66748
G1 X100.957 Y159.03 E37.73704
G1 X100.355 Y157.018 E37.80689
G1 X100.366 Y78.158 E40.42978
G1 X100.658 Y76.959 E40.47083
G1 X101.191 Y75.543 E40.52115
G0 F6000 X101.544 Y75.74
G1 F1200 X102.765 Y74.179 E40.58706
G1 X104.395 Y73.072 E40.6526
G1 X106.29 Y72.505 E40.71839
G1 X128.45 Y72.515 E41.45543
G1 X129.889 Y72.823 E41.50438
G1 X131.419 Y73.528 E41.56041
G1 X132.696 Y74.711 E41.61831
G1 X133.408 Y75.697 E41.65876
G1 X133.865 Y76.777 E41.69776
G1 X134.238 Y78.04 E41.74156
G1 X134.239 Y156.776 E44.36033
G1 X133.986 Y157.983 E44.40135
G1 X133.417 Y159.215 E44.44649
G1 X132.835 Y160.164 E44.48351
G1 X131.608 Y161.29 E44.5389
G1 X130.239 Y162.101 E44.59183
G1 X128.485 Y162.485 E44.65155
G1 X106.458 Y162.484 E45.38417
G1 X105.304 Y162.203 E45.42367
G1 X103.99 Y161.706 E45.4704
G1 X102.429 Y160.485 E45.53631
G1 X101.322 Y158.855 E45.60185
G1 X100.755 Y156.96 E45.66763
G1 X100.766 Y78.208 E48.28694
G1 X101.047 Y77.054 E48.32644
G1 X101.544 Y75.74 E48.37317
G0 F6000 X101.896 Y75.939
G1 F1200 X103.042 Y74.475 E48.435
G1 X104.57 Y73.437 E48.49644
G1 X106.348 Y72.905 E48.55817
G1 X128.408 Y72.915 E49.29189
G1 X129.763 Y73.205 E49.33798
G1 X131.193 Y73.864 E49.39035
G1 X132.396 Y74.978 E49.44488
G1 X133.056 Y75.893 E49.4824
G1 X133.481 Y76.89 E49.51845
G1 X133.838 Y78.099 E49.56038
G1 X133.839 Y156.732 E52.17572
G1 X133.603 Y157.86 E52.21405
G1 X133.076 Y159.006 E52.256
G1 X132.523 Y159.907 E52.29117
G1 X131.368 Y160.967 E52.34331
G1 X130.091 Y161.724 E52.39268
G1 X128.441 Y162.085 E52.44886
G1 X106.508 Y162.084 E53.17835
G1 X105.399 Y161.814 E53.21632
G1 X104.189 Y161.354 E53.25937
G1 X102.725 Y160.208 E53.32121
G1 X101.687 Y158.68 E53.38265
G1 X101.155 Y156.902 E53.44437
G1 X101.166 Y78.258 E56.06008
G1 X101.436 Y77.149 E56.09805
G1 X101.896 Y75.939 E56.1411
G0 F6000 X102.249 Y76.137
G1 F1200 X103.317 Y74.772 E56.19875
G1 X104.745 Y73.802 E56.25616
G1 X106.406 Y73.305 E56.31383
G1 X128.366 Y73.315 E57.04422
G1 X129.637 Y73.587 E57.08745
G1 X130.965 Y74.199 E57.13609
G1 X132.098 Y75.248 E57.18744
G1 X132.704 Y76.088 E57.22189
G1 X133.097 Y77.003 E57.25501
G1 X133.438 Y78.158 E57.29507
G1 X133.439 Y156.688 E59.90699
G1 X133.22 Y157.736 E59.9426
G1 X132.735 Y158.797 E59.9814
G1 X132.213 Y159.648 E60.0146
G1 X131.126 Y160.646 E60.06368
G1 X129.943 Y161.347 E60.10942
G1 X128.397 Y161.685 E60.16205
G1 X106.556 Y161.684 E60.88849
G1 X105.541 Y161.44 E60.92321
G1 X104.387 Y161.001 E60.96428
G1 X103.022 Y159.933 E61.02192
G1 X102.052 Y158.505 E61.07934
G1 X101.555 Y156.844 E61.137
G1 X101.566 Y78.306 E63.74919
G1 X101.81 Y77.291 E63.78391
G1 X102.249 Y76.137 E63.82497
G0 F6000 X102.601 Y76.337
G1 F1200 X103.594 Y75.068 E63.87857
G1 X104.92 Y74.167 E63.93189
G1 X106.464 Y73.705 E63.98549
G1 X128.324 Y73.715 E64.71256
G1 X129.511 Y73.969 E64.75293
G1 X130.737 Y74.534 E64.79783
G1 X131.8 Y75.518 E64.84601
G1 X132.352 Y76.283 E64.87738
G1 X132.729 Y77.161 E64.90916
G1 X133.038 Y78.216 E64.94573
G1 X133.039 Y156.644 E67.55425
G1 X132.837 Y157.612 E67.58714
G1 X132.371 Y158.631 E67.62441
G1 X131.902 Y159.391 E67.65411
G1 X130.886 Y160.323 E67.69997
G1 X129.796 Y160.969 E67.74211
G1 X128.352 Y161.285 E67.79128
G1 X106.602 Y161.284 E68.51469
G1 X105.683 Y161.066 E68.5461
G1 X104.587 Y160.649 E68.5851
G1 X103.318 Y159.656 E68.6387
G1 X102.417 Y158.33 E68.69202
G1 X101.955 Y156.786 E68.74562
G1 X101.966 Y78.352 E71.35435
G1 X102.184 Y77.433 E71.38576
G1 X102.601 Y76.337 E71.42476
G0 F6000 X102.953 Y76.537
G1 F1200 X103.871 Y75.364 E71.4743
G1 X105.095 Y74.532 E71.52353
G1 X106.522 Y74.105 E71.57307
G1 X128.282 Y74.115 E72.29681
G1 X129.385 Y74.351 E72.33433
G1 X130.509 Y74.869 E72.37549
G1 X131.502 Y75.788 E72.42049
G1 X132 Y76.478 E72.44879
G1 X132.361 Y77.319 E72.47923
G1 X132.638 Y78.273 E72.51227
G1 X132.639 Y156.6 E75.11744
G1 X132.454 Y157.488 E75.14761
G1 X132.007 Y158.465 E75.18334
G1 X131.592 Y159.131 E75.20944
G1 X130.644 Y160.002 E75.25226
G1 X129.648 Y160.592 E75.29077
G1 X128.308 Y160.885 E75.33639
G1 X106.651 Y160.884 E76.0567
G1 X105.825 Y160.692 E76.08491
G1 X104.787 Y160.297 E76.12185
G1 X103.614 Y159.379 E76.17139
G1 X102.782 Y158.155 E76.22061
G1 X102.355 Y156.728 E76.27015
G1 X102.366 Y78.401 E78.87532
G1 X102.558 Y77.575 E78.90353
G1 X102.953 Y76.537 E78.94047
G0 F6000 X103.304 Y76.738
G1 F1200 X104.148 Y75.66 E78.986
G1 X105.27 Y74.897 E79.03113
G1 X106.58 Y74.505 E79.07661
G1 X128.24 Y74.515 E79.79703
G1 X129.259 Y74.733 E79.83168
G1 X130.281 Y75.204 E79.86911
G1 X131.204 Y76.058 E79.91094
G1 X131.648 Y76.673 E79.93617
G1 X131.993 Y77.477 E79.96526
G1 X132.238 Y78.329 E79.99475
G1 X132.239 Y156.556 E82.59659
G1 X132.07 Y157.366 E82.62411
G1 X131.667 Y158.254 E82.65655
G1 X131.281 Y158.874 E82.68084
G1 X130.404 Y159.679 E82.72043
G1 X129.501 Y160.214 E82.75534
G1 X128.263 Y160.485 E82.79749
G1 X106.699 Y160.484 E83.51471
G1 X105.916 Y160.302 E83.54145
G1 X104.988 Y159.946 E83.57451
G1 X103.91 Y159.102 E83.62005
G1 X103.147 Y157.98 E83.66517
G1 X102.755 Y156.67 E83.71065
G1 X102.766 Y78.449 E86.3123
G1 X102.948 Y77.666 E86.33903
G1 X103.304 Y76.738 E86.37209
G0 F6000 X103.657 Y76.936
G1 F1200 X104.423 Y75.957 E86.41344
G1 X105.445 Y75.262 E86.45454
G1 X106.638 Y74.905 E86.49596
G1 X128.198 Y74.915 E87.21305
G1 X129.133 Y75.115 E87.24485
G1 X130.053 Y75.539 E87.27854
G1 X130.906 Y76.328 E87.31719
G1 X131.296 Y76.868 E87.33934
G1 X131.625 Y77.635 E87.3671
G1 X131.838 Y78.386 E87.39307
G1 X131.839 Y156.512 E89.99155
G1 X131.687 Y157.242 E90.01635
G1 X131.327 Y158.043 E90.04556
G1 X130.97 Y158.617 E90.06804
G1 X130.164 Y159.356 E90.10441
G1 X129.353 Y159.837 E90.13577
G1 X128.219 Y160.085 E90.17438
G1 X106.747 Y160.084 E90.88854
G1 X106.007 Y159.912 E90.91381
G1 X105.186 Y159.593 E90.9431
G1 X104.207 Y158.827 E90.98445
G1 X103.512 Y157.805 E91.02556
G1 X103.155 Y156.612 E91.06697
G1 X103.166 Y78.497 E93.66509
G1 X103.338 Y77.757 E93.69036
G1 X103.657 Y76.936 E93.71965
G0 F6000 X104.009 Y77.135
G1 F1200 X104.698 Y76.254 E93.75685
G1 X105.62 Y75.627 E93.79394
G1 X106.696 Y75.305 E93.83129
G1 X128.156 Y75.315 E94.54506
G1 X129.007 Y75.497 E94.574
G1 X129.827 Y75.875 E94.60403
G1 X130.606 Y76.595 E94.63931
G1 X130.945 Y77.065 E94.65859
G1 X131.24 Y77.744 E94.68321
G1 X131.438 Y78.442 E94.70734
G1 X131.439 Y156.469 E97.30253
G1 X131.304 Y157.118 E97.32458
G1 X130.987 Y157.832 E97.35056
G1 X130.659 Y158.36 E97.37124
G1 X129.925 Y159.033 E97.40436
G1 X129.206 Y159.459 E97.43215
G1 X128.174 Y159.685 E97.46729
G1 X106.795 Y159.684 E98.17836
G1 X106.098 Y159.522 E98.20216
G1 X105.385 Y159.241 E98.22765
G1 X104.504 Y158.552 E98.26485
G1 X103.877 Y157.63 E98.30193
G1 X103.555 Y156.554 E98.33929
G1 X103.566 Y78.545 E100.93388
G1 X103.728 Y77.848 E100.95768
G1 X104.009 Y77.135 E100.98317
G0 F6000 X104.359 Y77.336
G1 F1200 X104.973 Y76.551 E101.01632
G1 X105.795 Y75.992 E101.04938
G1 X106.754 Y75.705 E101.08267
G1 X128.115 Y75.715 E101.79314
G1 X128.879 Y75.878 E101.81913
G1 X129.602 Y76.212 E101.84562
G1 X130.303 Y76.859 E101.87734
G1 X130.595 Y77.265 E101.89398
G1 X130.873 Y77.904 E101.91715
G1 X131.038 Y78.496 E101.9376
G1 X131.039 Y156.427 E104.52959
G1 X130.921 Y156.995 E104.54889
G1 X130.621 Y157.67 E104.57345
G1 X130.349 Y158.101 E104.59041
G1 X129.685 Y158.71 E104.62037
G1 X129.058 Y159.082 E104.64462
G1 X128.13 Y159.285 E104.67622
G1 X106.843 Y159.284 E105.38422
G1 X106.189 Y159.132 E105.40656
G1 X105.586 Y158.891 E105.42815
G1 X104.801 Y158.277 E105.4613
G1 X104.242 Y157.455 E105.49436
G1 X103.955 Y156.496 E105.52766
G1 X103.966 Y78.593 E108.11872
G1 X104.118 Y77.939 E108.14105
G1 X104.359 Y77.336 E108.16265
G0 F6000 X104.709 Y77.537
G1 F1200 X105.248 Y76.848 E108.19175
G1 X105.97 Y76.357 E108.22079
G1 X106.812 Y76.105 E108.25002
G1 X128.073 Y76.115 E108.95717
G1 X128.751 Y76.26 E108.98023
G1 X129.377 Y76.549 E109.00316
G1 X130.002 Y77.125 E109.03143
G1 X130.244 Y77.462 E109.04523
G1 X130.506 Y78.064 E109.06706
G1 X130.638 Y78.551 E109.08385
G1 X130.639 Y156.383 E111.67255
G1 X130.537 Y156.873 E111.6892
G1 X130.255 Y157.508 E111.7123
G1 X130.042 Y157.839 E111.7254
G1 X129.443 Y158.389 E111.75244
G1 X128.91 Y158.705 E111.77305
G1 X128.086 Y158.885 E111.8011
G1 X106.891 Y158.884 E112.50605
G1 X106.28 Y158.742 E112.52692
G1 X105.787 Y158.541 E112.54462
G1 X105.098 Y158.002 E112.57372
G1 X104.607 Y157.28 E112.60276
G1 X104.355 Y156.438 E112.63199
G1 X104.366 Y78.641 E115.21953
G1 X104.508 Y78.03 E115.2404
G1 X104.709 Y77.537 E115.2581
G0 F6000 X105.059 Y77.738
G1 F1200 X105.523 Y77.145 E115.28315
G1 X106.145 Y76.722 E115.30816
G1 X106.87 Y76.505 E115.33334
G1 X128.031 Y76.515 E116.03715
G1 X128.625 Y76.642 E116.05736
G1 X129.152 Y76.885 E116.07666
G1 X129.701 Y77.391 E116.10149
G1 X129.893 Y77.659 E116.11246
G1 X130.139 Y78.224 E116.13295
G1 X130.238 Y78.604 E116.14601
G1 X130.239 Y156.339 E118.73149
G1 X130.153 Y156.751 E118.74549
G1 X129.889 Y157.346 E118.76714
G1 X129.733 Y157.58 E118.77649
G1 X129.203 Y158.066 E118.80041
G1 X128.763 Y158.327 E118.81742
G1 X128.041 Y158.485 E118.84201
G1 X106.939 Y158.484 E119.54386
G1 X106.371 Y158.352 E119.56326
G1 X105.988 Y158.191 E119.57708
G1 X105.395 Y157.727 E119.60212
G1 X104.972 Y157.105 E119.62714
G1 X104.755 Y156.38 E119.65231
G1 X104.766 Y78.689 E122.23632
G1 X104.898 Y78.121 E122.25572
G1 X105.059 Y77.738 E122.26953
G0 F6000 X105.408 Y77.941
G1 F1200 X105.798 Y77.442 E122.2906
G1 X106.32 Y77.087 E122.3116
G1 X106.928 Y76.905 E122.3327
G1 X127.99 Y76.915 E123.03323
G1 X128.497 Y77.023 E123.05047
G1 X128.928 Y77.222 E123.06626
G1 X129.43 Y77.685 E123.08897
G1 X129.526 Y77.819 E123.09446
G1 X129.772 Y78.384 E123.11495
G1 X129.838 Y78.656 E123.12426
G1 X129.839 Y156.3 E125.70671
G1 X129.771 Y156.624 E125.71772
G1 X129.523 Y157.184 E125.73809
G1 X129.428 Y157.316 E125.7435
G1 X128.961 Y157.745 E125.76459
G1 X128.615 Y157.95 E125.77797
G1 X127.997 Y158.085 E125.79901
G1 X106.987 Y158.084 E126.4978
G1 X106.462 Y157.962 E126.51573
G1 X106.191 Y157.842 E126.52559
G1 X105.692 Y157.452 E126.54665
G1 X105.337 Y156.93 E126.56765
G1 X105.155 Y156.322 E126.58876
G1 X105.166 Y78.737 E129.16925
G1 X105.288 Y78.212 E129.18717
G1 X105.408 Y77.941 E129.19703
G0 F6000 X105.753 Y78.148
G1 F1200 X106.073 Y77.739 E129.2143
G1 X106.495 Y77.452 E129.23128
G1 X106.986 Y77.305 E129.24832
G1 X127.949 Y77.315 E129.94556
G1 X128.371 Y77.405 E129.95991
G1 X128.703 Y77.558 E129.97207
G1 X129.159 Y77.979 E129.99271
G1 X129.405 Y78.544 E130.0132
G1 X129.438 Y78.704 E130.01864
G1 X129.439 Y156.3 E132.59949
G1 X129.405 Y156.462 E132.605
G1 X129.157 Y157.022 E132.62537
G1 X128.722 Y157.422 E132.64502
G1 X128.467 Y157.573 E132.65488
G1 X127.953 Y157.685 E132.67238
G1 X107.035 Y157.684 E133.36811
G1 X106.553 Y157.572 E133.38457
G1 X106.398 Y157.497 E133.3903
G1 X105.989 Y157.177 E133.40757
G1 X105.702 Y156.755 E133.42454
G1 X105.555 Y156.264 E133.44159
G1 X105.566 Y78.785 E136.01855
G1 X105.678 Y78.303 E136.03501
G1 X105.753 Y78.148 E136.04074
G0 F6000 X106.438 Y78.569
G1 F1200 X106.625 Y78.33 E136.05083
G1 X106.841 Y78.184 E136.0595
G1 X107.103 Y78.105 E136.0686
G1 X127.867 Y78.115 E136.75922
G1 X128.205 Y78.187 E136.77071
G1 X128.491 Y78.451 E136.78366
G1 X128.638 Y78.788 E136.79589
G1 X128.639 Y156.215 E139.37112
G1 X128.491 Y156.548 E139.38324
G1 X128.205 Y156.813 E139.39621
G1 X127.867 Y156.885 E139.4077
